;FLAVOR:RepRap
;TIME:911
;Filament used: 0.83928m
;Layer height: 0.2
;Generated with Cura_SteamEngine master
M190 S60
M104 S215
M109 S215
G21 ;metric values
G90 ;absolute positioning
M82 ;set extruder to absolute mode
M107 ;start with the fan off
G28 X0 Y0 ;move X/Y to min endstops
G28 Z0 ;move Z to min endstops
G1 Z15.0 F9000 ;move the platform down 15mm
G92 E0 ;zero the extruded length
G1 F200 E3 ;extrude 3mm of feed stock
G92 E0 ;zero the extruded length again
G1 F9000
;Put printing message on LCD screen
M117 Printing...
;LAYER_COUNT:125
;LAYER:0
M107
G0 F3600 X83.183 Y27.76 Z0.3
;TYPE:WALL-OUTER
G1 F1800 X83.545 Y26.923 E0.0455
G1 X83.984 Y26.134 E0.09054
G1 X84.497 Y25.393 E0.13551
G1 X85.071 Y24.716 E0.17979
G1 X85.726 Y24.082 E0.22527
G1 X86.433 Y23.52 E0.27033
G1 X87.186 Y23.034 E0.31504
G1 X87.987 Y22.624 E0.35993
G1 X88.832 Y22.289 E0.40528
G1 X89.689 Y22.045 E0.44974
G1 X90.586 Y21.882 E0.49522
G1 X91.476 Y21.808 E0.53978
G1 X92.377 Y21.824 E0.58473
G1 X93.273 Y21.927 E0.62973
G1 X94.165 Y22.119 E0.67525
G1 X95.007 Y22.39 E0.71938
G1 X95.842 Y22.751 E0.76477
G1 X96.623 Y23.186 E0.80937
G1 X97.25 Y23.618 E0.84735
G1 X97.492 Y23.437 E0.86243
G1 X98.273 Y22.969 E0.90785
G1 X98.992 Y22.63 E0.94751
G1 X98.929 Y21.863 E0.98591
G1 X98.944 Y20.962 E1.03086
G1 X99.047 Y20.065 E1.07591
G1 X99.239 Y19.173 E1.12143
G1 X99.509 Y18.334 E1.1654
G1 X99.872 Y17.497 E1.21092
G1 X100.309 Y16.708 E1.25592
G1 X100.822 Y15.967 E1.30088
G1 X101.396 Y15.29 E1.34516
G1 X102.052 Y14.656 E1.39068
G1 X102.759 Y14.094 E1.43574
G1 X103.511 Y13.608 E1.48041
G1 X104.312 Y13.198 E1.5253
G1 X105.158 Y12.863 E1.57069
G1 X106.014 Y12.618 E1.61512
G1 X106.912 Y12.456 E1.66064
G1 X107.801 Y12.382 E1.70515
G1 X108.702 Y12.397 E1.7501
G1 X109.599 Y12.501 E1.79515
G1 X110.491 Y12.693 E1.84068
G1 X111.332 Y12.964 E1.88476
G1 X112.167 Y13.325 E1.93014
G1 X112.956 Y13.764 E1.97519
G1 X113.697 Y14.277 E2.02015
G1 X114.374 Y14.851 E2.06443
G1 X115.008 Y15.506 E2.10991
G1 X115.569 Y16.214 E2.15498
G1 X116.055 Y16.966 E2.19965
G1 X116.468 Y17.77 E2.24475
G1 X116.799 Y18.609 E2.28974
G1 X117.044 Y19.465 E2.33416
G1 X117.209 Y20.371 E2.38011
G1 X117.281 Y21.252 E2.42421
G1 X117.266 Y22.157 E2.46936
G1 X117.162 Y23.064 E2.51491
G1 X116.975 Y23.932 E2.55921
G1 X116.701 Y24.785 E2.60391
G1 X116.339 Y25.622 E2.6494
G1 X115.9 Y26.411 E2.69445
G1 X115.387 Y27.152 E2.73941
G1 X114.813 Y27.829 E2.7837
G1 X114.157 Y28.463 E2.82921
G1 X113.45 Y29.024 E2.87424
G1 X112.697 Y29.51 E2.91895
G1 X111.896 Y29.922 E2.96389
G1 X111.721 Y29.991 E2.97327
G1 X111.777 Y31.069 E3.02713
G1 X111.732 Y32.003 E3.07378
G1 X112.278 Y32.241 E3.10349
G1 X113.072 Y32.682 E3.14881
G1 X113.813 Y33.195 E3.19377
G1 X114.49 Y33.769 E3.23805
G1 X115.125 Y34.424 E3.28357
G1 X115.686 Y35.131 E3.32859
G1 X116.172 Y35.884 E3.37331
G1 X116.585 Y36.688 E3.4184
G1 X116.916 Y37.527 E3.4634
G1 X117.161 Y38.383 E3.50782
G1 X117.326 Y39.289 E3.55376
G1 X117.398 Y40.17 E3.59786
G1 X117.383 Y41.075 E3.64302
G1 X117.279 Y41.971 E3.68802
G1 X117.087 Y42.862 E3.73349
G1 X116.817 Y43.703 E3.77756
G1 X116.455 Y44.54 E3.82306
G1 X116.02 Y45.321 E3.86766
G1 X115.499 Y46.075 E3.91338
G1 X114.929 Y46.747 E3.95734
G1 X114.274 Y47.381 E4.00282
G1 X113.567 Y47.942 E4.04785
G1 X112.814 Y48.428 E4.09256
G1 X112.009 Y48.841 E4.1377
G1 X111.172 Y49.172 E4.18261
G1 X110.311 Y49.418 E4.22728
G1 X109.413 Y49.581 E4.27281
G1 X108.525 Y49.654 E4.31727
G1 X107.623 Y49.639 E4.36227
G1 X106.717 Y49.535 E4.40777
G1 X105.845 Y49.346 E4.45229
G1 X104.993 Y49.073 E4.49692
G1 X104.158 Y48.712 E4.54231
G1 X103.37 Y48.272 E4.58733
G1 X102.635 Y47.764 E4.63191
G1 X101.945 Y47.179 E4.67704
G1 X101.317 Y46.53 E4.72209
G1 X100.756 Y45.823 E4.76712
G1 X100.27 Y45.07 E4.81184
G1 X99.858 Y44.266 E4.85691
G1 X99.527 Y43.428 E4.90186
G1 X99.281 Y42.568 E4.94648
G1 X99.117 Y41.666 E4.99222
G1 X99.045 Y40.781 E5.03652
G1 X99.06 Y39.88 E5.08148
G1 X99.098 Y39.559 E5.09761
G1 X98.269 Y39.166 E5.14338
G1 X97.493 Y38.702 E5.18848
G1 X97.14 Y38.44 E5.21042
G1 X96.372 Y38.936 E5.25603
G1 X95.567 Y39.349 E5.30117
G1 X94.73 Y39.68 E5.34607
G1 X93.869 Y39.926 E5.39075
G1 X92.972 Y40.089 E5.43623
G1 X92.083 Y40.162 E5.48073
G1 X91.181 Y40.147 E5.52574
G1 X90.275 Y40.043 E5.57124
G1 X89.403 Y39.854 E5.61575
G1 X88.546 Y39.58 E5.66064
G1 X87.722 Y39.222 E5.70546
G1 X86.928 Y38.78 E5.7508
G1 X86.193 Y38.272 E5.79537
G1 X85.503 Y37.687 E5.8405
G1 X84.875 Y37.038 E5.88556
G1 X84.314 Y36.331 E5.93059
G1 X83.828 Y35.578 E5.9753
G1 X83.415 Y34.773 E6.02044
G1 X83.084 Y33.936 E6.06534
G1 X82.838 Y33.076 E6.10997
G1 X82.674 Y32.174 E6.15571
G1 X82.602 Y31.289 E6.20001
G1 X82.617 Y30.388 E6.24497
G1 X82.721 Y29.491 E6.29002
G1 X82.913 Y28.599 E6.33554
G1 X83.183 Y27.76 E6.37951
G0 F3600 X83.262 Y27.577
G0 X83.494 Y27.491
;TYPE:SKIN
G1 F1800 X95.272 Y39.269 E7.21051
G0 X95.342 Y39.339
G0 F3600 X95.663 Y39.095
G1 F1800 X83.664 Y27.096 E8.05711
G0 X83.594 Y27.026
G0 F3600 X83.859 Y26.725
G1 F1800 X96.037 Y38.903 E8.91633
G0 X96.107 Y38.973
G0 F3600 X96.4 Y38.7
G1 F1800 X84.061 Y26.361 E9.78691
G0 X83.991 Y26.291
G0 F3600 X84.282 Y26.016
G1 F1800 X96.744 Y38.479 E10.66621
G0 X96.814 Y38.549
G0 F3600 X97.088 Y38.257
G1 F1800 X84.513 Y25.682 E11.55344
G0 X84.443 Y25.612
G0 F3600 X84.758 Y25.361
G1 F1800 X98.448 Y39.051 E12.51935
G0 X98.518 Y39.121
G0 F3600 X99.133 Y39.54
G0 X99.244 Y39.847
G1 F1800 X108.844 Y49.447 E13.19668
G0 X108.914 Y49.517
G0 F3600 X109.366 Y49.404
G1 F1800 X85.017 Y25.054 E14.91467
G0 X84.947 Y24.984
G0 F3600 X85.286 Y24.757
G1 F1800 X109.847 Y49.319 E16.64761
G0 X109.917 Y49.389
G0 F3600 X110.322 Y49.228
G1 F1800 X85.574 Y24.48 E18.39372
G0 X85.504 Y24.41
G0 F3600 X85.863 Y24.203
G1 F1800 X110.761 Y49.102 E20.15044
G0 X110.831 Y49.172
G0 F3600 X111.193 Y48.968
G1 F1800 X86.177 Y23.952 E21.91546
G0 X86.107 Y23.882
G0 F3600 X86.493 Y23.702
G1 F1800 X111.599 Y48.808 E23.68682
G0 X111.669 Y48.878
G0 F3600 X111.998 Y48.641
G1 F1800 X86.832 Y23.475 E25.46242
G0 X86.762 Y23.405
G0 F3600 X87.176 Y23.253
G1 F1800 X112.373 Y48.45 E27.2402
G0 X112.443 Y48.52
G0 F3600 X112.746 Y48.257
G1 F1800 X87.542 Y23.054 E29.01844
G0 X87.472 Y22.984
G0 F3600 X87.916 Y22.862
G1 F1800 X113.089 Y48.035 E30.79454
G0 X113.159 Y48.105
G0 F3600 X113.432 Y47.813
G1 F1800 X88.309 Y22.69 E32.5671
G0 X88.239 Y22.62
G0 F3600 X88.715 Y22.529
G1 F1800 X113.75 Y47.564 E34.33345
G0 X113.82 Y47.634
G0 F3600 X114.066 Y47.315
G1 F1800 X89.139 Y22.388 E36.09219
G0 X89.069 Y22.318
G0 F3600 X89.579 Y22.263
G1 F1800 X114.361 Y47.044 E37.84066
G0 X114.431 Y47.114
G0 F3600 X114.648 Y46.766
G1 F1800 X90.045 Y22.163 E39.57653
G0 X89.975 Y22.093
G0 F3600 X90.524 Y22.076
G1 F1800 X114.923 Y46.475 E41.29801
G0 X114.993 Y46.545
G0 F3600 X115.182 Y46.169
G1 F1800 X91.038 Y22.024 E43.00154
G0 X90.968 Y21.954
G0 F3600 X91.569 Y21.99
G1 F1800 X115.432 Y45.853 E44.6852
G0 X115.502 Y45.923
G0 F3600 X115.663 Y45.518
G1 F1800 X92.145 Y22 E46.34452
G0 X92.075 Y21.93
G0 F3600 X92.76 Y22.049
G1 F1800 X115.891 Y45.18 E47.97654
G0 X115.961 Y45.25
G0 F3600 X116.094 Y44.817
G1 F1800 X93.42 Y22.143 E49.57631
G0 X93.35 Y22.073
G0 F3600 X94.144 Y22.302
G1 F1800 X116.295 Y44.453 E51.13919
G0 X116.365 Y44.523
G0 F3600 X116.466 Y44.059
G1 F1800 X94.984 Y22.576 E52.65489
G0 X94.914 Y22.506
G0 F3600 X96.042 Y23.068
G1 F1800 X116.637 Y43.664 E54.10802
G0 X116.707 Y43.734
G0 F3600 X116.777 Y43.238
G1 F1800 X97.325 Y23.786 E55.48046
G0 X97.255 Y23.716
G0 F3600 X97.654 Y23.549
G1 F1800 X116.912 Y42.807 E56.83922
G0 X116.982 Y42.877
G0 F3600 X117.013 Y42.342
G1 F1800 X98.007 Y23.337 E58.18016
G0 X97.937 Y23.267
G0 F3600 X98.361 Y23.125
G1 F1800 X117.108 Y41.872 E59.50286
G0 X117.178 Y41.942
G0 F3600 X117.166 Y41.365
G1 F1800 X98.746 Y22.944 E60.80252
G0 X98.676 Y22.874
G0 F3600 X99.131 Y22.763
G1 F1800 X117.206 Y40.838 E62.07781
G0 X117.276 Y40.908
G0 F3600 X117.215 Y40.282
G1 F1800 X99.136 Y22.203 E63.35338
G0 X99.066 Y22.133
G0 F3600 X99.112 Y21.613
G1 F1800 X117.177 Y39.678 E64.62797
G0 X117.247 Y39.748
G0 F3600 X117.094 Y39.03
G1 F1800 X99.121 Y21.056 E65.8961
G0 X99.051 Y20.986
G0 F3600 X99.172 Y20.542
G1 F1800 X116.957 Y38.327 E67.15092
G0 X117.027 Y38.397
G0 F3600 X116.722 Y37.526
G1 F1800 X99.236 Y20.04 E68.38465
G0 X99.166 Y19.97
G0 F3600 X99.336 Y19.574
G1 F1800 X111.562 Y31.8 E69.24726
G0 X111.632 Y31.87
G0 F3600 X111.587 Y31.26
G1 F1800 X99.444 Y19.117 E70.10402
G0 X99.374 Y19.047
G0 F3600 X99.581 Y18.688
G1 F1800 X111.576 Y30.683 E70.95033
G0 X111.646 Y30.753
G0 F3600 X111.545 Y30.086
G1 F1800 X99.73 Y18.271 E71.78394
G0 X99.66 Y18.201
G0 F3600 X99.901 Y17.877
G1 F1800 X111.792 Y29.767 E72.62288
G0 X111.862 Y29.837
G0 F3600 X112.168 Y29.578
G1 F1800 X100.08 Y17.49 E73.47576
G0 X100.01 Y17.42
G0 F3600 X100.282 Y17.126
G1 F1800 X112.542 Y29.386 E74.34077
G0 X112.612 Y29.456
G0 F3600 X112.891 Y29.17
G1 F1800 X100.486 Y16.765 E75.216
G0 X100.416 Y16.695
G0 F3600 X100.718 Y16.431
G1 F1800 X113.235 Y28.948 E76.09915
G0 X113.305 Y29.018
G0 F3600 X113.559 Y28.706
G1 F1800 X100.949 Y16.096 E76.98885
G0 X100.879 Y16.026
G0 F3600 X101.207 Y15.788
G1 F1800 X113.874 Y28.456 E77.88261
G0 X113.944 Y28.526
G0 F3600 X114.176 Y28.192
G1 F1800 X101.466 Y15.482 E78.77937
G0 X101.396 Y15.412
G0 F3600 X101.749 Y15.199
G1 F1800 X114.464 Y27.914 E79.67648
G0 X114.534 Y27.984
G0 F3600 X114.745 Y27.63
G1 F1800 X102.036 Y14.921 E80.57317
G0 X101.966 Y14.851
G0 F3600 X102.339 Y14.658
G1 F1800 X115.005 Y27.324 E81.46683
G0 X115.075 Y27.394
G0 F3600 X115.262 Y27.015
G1 F1800 X102.654 Y14.407 E82.35639
G0 X102.584 Y14.337
G0 F3600 X102.979 Y14.166
G1 F1800 X115.493 Y26.681 E83.23935
G0 X115.563 Y26.751
G0 F3600 X115.725 Y26.347
G1 F1800 X103.323 Y13.944 E84.11442
G0 X103.253 Y13.874
G0 F3600 X103.672 Y13.728
G1 F1800 X115.93 Y25.986 E84.97928
G0 X116 Y26.056
G0 F3600 X116.132 Y25.622
G1 F1800 X104.046 Y13.536 E85.83202
G0 X103.976 Y13.466
G0 F3600 X104.424 Y13.348
G1 F1800 X116.31 Y25.235 E86.67067
G0 X116.38 Y25.305
G0 F3600 X116.48 Y24.839
G1 F1800 X104.828 Y13.187 E87.49279
G0 X104.758 Y13.117
G0 F3600 X105.235 Y13.028
G1 F1800 X116.628 Y24.422 E88.29666
G0 X116.698 Y24.492
G0 F3600 X116.765 Y23.993
G1 F1800 X105.674 Y12.901 E89.07922
G0 X105.604 Y12.831
G0 F3600 X106.119 Y12.781
G1 F1800 X116.874 Y23.536 E89.83805
G0 X116.944 Y23.606
G0 F3600 X116.975 Y23.071
G1 F1800 X106.599 Y12.695 E90.57013
G0 X106.529 Y12.625
G0 F3600 X107.091 Y12.621
G1 F1800 X117.036 Y22.567 E91.27184
G0 X117.106 Y22.637
G0 F3600 X117.087 Y22.052
G1 F1800 X107.613 Y12.578 E91.94028
G0 X107.543 Y12.508
G0 F3600 X108.168 Y12.568
G1 F1800 X117.096 Y21.496 E92.5702
G0 X117.166 Y21.566
G0 F3600 X117.072 Y20.906
G1 F1800 X108.75 Y12.584 E93.15736
G0 X108.68 Y12.514
G0 F3600 X109.39 Y12.658
G1 F1800 X117.007 Y20.275 E93.69478
G0 X117.077 Y20.345
G0 F3600 X116.881 Y19.583
G1 F1800 X110.09 Y12.792 E94.17392
G0 X110.02 Y12.722
G0 F3600 X110.867 Y13.003
G1 F1800 X116.666 Y18.803 E94.58311
G0 X116.736 Y18.873
G0 F3600 X116.323 Y17.894
G1 F1800 X111.785 Y13.356 E94.90329
G0 X111.715 Y13.286
G0 F3600 X113.028 Y14.033
G1 F1800 X115.619 Y16.624 E95.0861
G0 X115.689 Y16.694
G0 F3600 X111.688 Y29.97
G0 X111.699 Y32.024
G0 X112.138 Y32.377
G1 F1800 X116.309 Y36.548 E95.38039
G0 X116.379 Y36.618
G0 F3600 X115.442 Y35.114
G1 F1800 X113.58 Y33.253 E95.51172
G0 X113.51 Y33.183
G0 F3600 X99.23 Y40.399
G1 F1800 X108.301 Y49.469 E96.1517
G0 X108.371 Y49.539
G0 F3600 X107.726 Y49.46
G1 F1800 X99.239 Y40.974 E96.75047
G0 X99.169 Y40.904
G0 F3600 X99.289 Y41.589
G1 F1800 X107.096 Y49.397 E97.30133
G0 X107.166 Y49.467
G0 F3600 X106.42 Y49.286
G1 F1800 X99.409 Y42.275 E97.79599
G0 X99.339 Y42.205
G0 F3600 X99.598 Y43.03
G1 F1800 X105.668 Y49.1 E98.22426
G0 X105.738 Y49.17
G0 F3600 X104.793 Y48.79
G1 F1800 X99.907 Y43.904 E98.569
G0 X99.837 Y43.834
G0 F3600 X100.438 Y45.001
G1 F1800 X103.669 Y48.232 E98.79696
G0 X103.739 Y48.302
G0 F3600 X99.133 Y39.54
G0 X97.141 Y38.401
G0 X94.867 Y39.43
G1 F1800 X83.328 Y27.891 E99.6111
G0 X83.258 Y27.821
G0 F3600 X83.19 Y28.318
G1 F1800 X94.445 Y39.573 E100.4052
G0 X94.515 Y39.643
G0 F3600 X94.005 Y39.699
G1 F1800 X83.063 Y28.757 E101.17722
G0 X82.993 Y28.687
G0 F3600 X82.962 Y29.222
G1 F1800 X93.542 Y39.802 E101.92369
G0 X93.612 Y39.872
G0 F3600 X93.063 Y39.888
G1 F1800 X82.877 Y29.702 E102.64237
G0 X82.807 Y29.632
G0 F3600 X82.818 Y30.209
G1 F1800 X92.551 Y39.942 E103.32909
G0 X92.621 Y40.012
G0 F3600 X92.023 Y39.98
G1 F1800 X82.79 Y30.747 E103.98052
G0 X82.72 Y30.677
G0 F3600 X82.782 Y31.305
G1 F1800 X91.448 Y39.971 E104.59196
G0 X91.518 Y40.041
G0 F3600 X90.837 Y39.926
G1 F1800 X82.831 Y31.92 E105.15682
G0 X82.761 Y31.85
G0 F3600 X82.93 Y32.584
M104 S210
G1 F1800 X90.186 Y39.84 E105.66877
G0 X90.256 Y39.91
G0 F3600 X89.463 Y39.682
G1 F1800 X83.09 Y33.31 E106.11839
G0 X83.02 Y33.24
G0 F3600 X83.359 Y34.144
G1 F1800 X88.633 Y39.419 E106.49053
G0 X88.703 Y39.489
G0 F3600 X87.593 Y38.944
G1 F1800 X83.822 Y35.173 E106.7566
G0 X83.752 Y35.103
G0 F3600 X85.24 Y37.157
G1 F1800 X85.715 Y37.632 E106.79011
G0 F3600 X85.857 Y37.463
;TIME_ELAPSED:76.011299
;LAYER:1
M140 S60
M106 S255
G0 F5400 X85.921 Y37.387 Z0.5
G0 X86.877 Y36.231
;TYPE:WALL-INNER
G1 F2700 X86.371 Y35.707 E106.81434
G1 X85.943 Y35.167 E106.83726
G1 X85.571 Y34.589 E106.86012
G1 X85.236 Y33.937 E106.8845
G1 X84.989 Y33.311 E106.90688
G1 X84.784 Y32.596 E106.93162
G1 X84.662 Y31.933 E106.95404
G1 X84.602 Y31.212 E106.97811
G1 X84.617 Y30.495 E107.00196
G1 X84.691 Y29.84 E107.02388
G1 X84.848 Y29.115 E107.04856
G1 X85.059 Y28.457 E107.07154
G1 X85.333 Y27.825 E107.09445
G1 X85.684 Y27.194 E107.11847
G1 X86.104 Y26.59 E107.14293
G1 X86.534 Y26.081 E107.1651
G1 X87.037 Y25.593 E107.18841
G1 X87.598 Y25.148 E107.21222
G1 X88.191 Y24.764 E107.23572
G1 X88.803 Y24.452 E107.25857
G1 X89.457 Y24.194 E107.28195
G1 X90.169 Y23.991 E107.30658
G1 X90.827 Y23.87 E107.32883
G1 X91.555 Y23.809 E107.35313
G1 X92.27 Y23.824 E107.37691
G1 X92.926 Y23.898 E107.39887
G1 X93.645 Y24.054 E107.42334
G1 X94.307 Y24.265 E107.44645
G1 X94.957 Y24.547 E107.47001
G1 X95.577 Y24.892 E107.49361
G1 X97.3 Y26.082 E107.56326
G1 X98.612 Y25.095 E107.61787
G1 X99.193 Y24.748 E107.64038
G1 X101.097 Y23.85 E107.71039
G1 X100.929 Y21.787 E107.77924
G1 X100.944 Y21.072 E107.80302
G1 X101.02 Y20.405 E107.82535
G1 X101.173 Y19.697 E107.84944
G1 X101.384 Y19.033 E107.87261
G1 X101.664 Y18.389 E107.89597
G1 X102.006 Y17.774 E107.91938
G1 X102.424 Y17.17 E107.94381
G1 X102.849 Y16.668 E107.96568
G1 X103.381 Y16.156 E107.99024
G1 X103.928 Y15.719 E108.01353
G1 X104.516 Y15.338 E108.03683
G1 X105.125 Y15.028 E108.05956
G1 X105.814 Y14.755 E108.08421
G1 X106.441 Y14.575 E108.10591
G1 X107.174 Y14.441 E108.13069
G1 X107.88 Y14.382 E108.15425
G1 X108.595 Y14.397 E108.17804
G1 X109.252 Y14.471 E108.20003
G1 X109.964 Y14.625 E108.22426
G1 X110.638 Y14.841 E108.2478
G1 X111.265 Y15.113 E108.27053
G1 X111.896 Y15.465 E108.29456
G1 X112.494 Y15.878 E108.31873
G1 X112.999 Y16.305 E108.34073
G1 X113.506 Y16.832 E108.36505
G1 X113.93 Y17.367 E108.38776
G1 X114.328 Y17.981 E108.41209
G1 X114.642 Y18.595 E108.43503
G1 X114.898 Y19.243 E108.4582
G1 X115.099 Y19.945 E108.48249
G1 X115.22 Y20.602 E108.50471
G1 X115.281 Y21.331 E108.52904
G1 X115.266 Y22.05 E108.55296
G1 X115.191 Y22.717 E108.57529
G1 X115.04 Y23.413 E108.59897
G1 X114.828 Y24.081 E108.62228
G1 X114.551 Y24.72 E108.64545
G1 X114.2 Y25.351 E108.66946
G1 X113.78 Y25.955 E108.69393
G1 X113.36 Y26.451 E108.71555
G1 X112.84 Y26.955 E108.73963
G1 X112.289 Y27.391 E108.763
G1 X111.69 Y27.779 E108.78674
G1 X111.066 Y28.098 E108.81005
G1 X109.651 Y28.656 E108.86064
G1 X109.773 Y31.028 E108.93964
G1 X109.669 Y33.283 E109.01472
G1 X111.38 Y34.031 E109.07683
G1 X112.02 Y34.387 E109.10119
G1 X112.602 Y34.79 E109.12473
G1 X113.129 Y35.237 E109.14772
G1 X113.612 Y35.733 E109.17074
G1 X114.056 Y36.295 E109.19456
G1 X114.438 Y36.884 E109.21791
G1 X114.759 Y37.513 E109.2414
G1 X115.013 Y38.156 E109.2644
G1 X115.216 Y38.863 E109.28886
G1 X115.337 Y39.52 E109.31108
G1 X115.398 Y40.248 E109.33538
G1 X115.383 Y40.967 E109.3593
G1 X115.309 Y41.621 E109.38119
G1 X115.152 Y42.345 E109.40583
