;FLAVOR:RepRap
;TIME:674
;Filament used: 0.389247m
;Layer height: 0.2
;Generated with Cura_SteamEngine master
M190 S60
M104 S215
M109 S215
G21 ;metric values
G90 ;absolute positioning
M82 ;set extruder to absolute mode
M107 ;start with the fan off
G28 X0 Y0 ;move X/Y to min endstops
G28 Z0 ;move Z to min endstops
G1 Z15.0 F9000 ;move the platform down 15mm
G92 E0 ;zero the extruded length
G1 F200 E3 ;extrude 3mm of feed stock
G92 E0 ;zero the extruded length again
G1 F9000
;Put printing message on LCD screen
M117 Printing...
;LAYER_COUNT:115
;LAYER:0
M107
G0 F3600 X90.035 Y21.779 Z0.3
;TYPE:WALL-OUTER
G1 F1800 X90.191 Y21.291 E0.02556
G1 X90.406 Y20.795 E0.05253
G1 X90.657 Y20.344 E0.07828
G1 X90.954 Y19.915 E0.10431
G1 X91.282 Y19.528 E0.12962
G1 X91.665 Y19.158 E0.15619
G1 X92.075 Y18.832 E0.18232
G1 X92.509 Y18.552 E0.20809
G1 X92.975 Y18.313 E0.23422
G1 X93.461 Y18.121 E0.26029
G1 X93.956 Y17.979 E0.28598
G1 X94.48 Y17.884 E0.31255
G1 X94.991 Y17.842 E0.33813
G1 X95.513 Y17.851 E0.36418
G1 X96.032 Y17.911 E0.39024
G1 X96.553 Y18.023 E0.41683
G1 X97.039 Y18.178 E0.44228
G1 X97.515 Y18.386 E0.46819
G1 X97.97 Y18.639 E0.49417
G1 X98.385 Y18.925 E0.51931
G1 X98.572 Y18.785 E0.53097
G1 X99.018 Y18.517 E0.55693
G1 X99.495 Y18.293 E0.58322
G1 X99.453 Y17.79 E0.6084
G1 X99.462 Y17.268 E0.63444
G1 X99.522 Y16.749 E0.66051
G1 X99.634 Y16.228 E0.6871
G1 X99.789 Y15.743 E0.7125
G1 X99.997 Y15.266 E0.73846
G1 X100.249 Y14.811 E0.76441
G1 X100.55 Y14.374 E0.79088
G1 X100.888 Y13.977 E0.8169
G1 X101.26 Y13.617 E0.84272
G1 X101.666 Y13.295 E0.86858
G1 X102.109 Y13.009 E0.89488
G1 X102.568 Y12.774 E0.92061
G1 X103.06 Y12.579 E0.94701
G1 X103.551 Y12.439 E0.97248
G1 X104.076 Y12.344 E0.9991
G1 X104.586 Y12.302 E1.02463
G1 X105.108 Y12.31 E1.05068
G1 X105.638 Y12.371 E1.07729
G1 X106.138 Y12.48 E1.10283
G1 X106.626 Y12.636 E1.12839
G1 X107.118 Y12.849 E1.15513
G1 X107.572 Y13.102 E1.18106
G1 X107.995 Y13.394 E1.20671
G1 X108.396 Y13.734 E1.23294
G1 X108.759 Y14.11 E1.25901
G1 X109.085 Y14.52 E1.28514
G1 X109.365 Y14.954 E1.31091
G1 X109.604 Y15.42 E1.33704
G1 X109.796 Y15.906 E1.36311
G1 X109.937 Y16.397 E1.38859
G1 X110.034 Y16.929 E1.41557
G1 X110.075 Y17.433 E1.4408
G1 X110.066 Y17.958 E1.467
G1 X110.006 Y18.477 E1.49306
G1 X109.894 Y18.997 E1.5196
G1 X109.74 Y19.476 E1.5447
G1 X109.527 Y19.968 E1.57145
G1 X109.274 Y20.422 E1.59738
G1 X108.982 Y20.845 E1.62302
G1 X108.642 Y21.246 E1.64925
G1 X108.266 Y21.609 E1.67533
G1 X107.86 Y21.931 E1.70118
G1 X107.415 Y22.219 E1.72763
G1 X106.804 Y22.527 E1.76176
G1 X106.84 Y23.204 E1.79559
G1 X106.811 Y23.806 E1.82565
G1 X107.184 Y23.967 E1.84592
G1 X107.641 Y24.222 E1.87203
G1 X108.07 Y24.519 E1.89806
G1 X108.457 Y24.847 E1.92337
G1 X108.828 Y25.23 E1.94998
G1 X109.153 Y25.64 E1.97608
G1 X109.429 Y26.067 E2.00144
G1 X109.673 Y26.542 E2.02808
G1 X109.865 Y27.026 E2.05406
G1 X110.005 Y27.516 E2.07949
G1 X110.102 Y28.049 E2.10651
G1 X110.143 Y28.552 E2.13169
G1 X110.134 Y29.077 E2.15789
G1 X110.074 Y29.607 E2.1845
G1 X109.965 Y30.107 E2.21003
G1 X109.809 Y30.596 E2.23564
G1 X109.598 Y31.085 E2.26221
G1 X109.343 Y31.542 E2.28832
G1 X109.046 Y31.971 E2.31435
G1 X108.718 Y32.358 E2.33966
G1 X108.335 Y32.729 E2.36626
G1 X107.925 Y33.054 E2.39236
G1 X107.491 Y33.334 E2.41813
G1 X107.025 Y33.573 E2.44426
G1 X106.539 Y33.765 E2.47033
G1 X106.044 Y33.907 E2.49602
G1 X105.52 Y34.002 E2.52259
G1 X105.009 Y34.044 E2.54817
G1 X104.487 Y34.035 E2.57422
G1 X103.968 Y33.975 E2.60028
G1 X103.447 Y33.863 E2.62687
G1 X102.961 Y33.708 E2.65232
G1 X102.485 Y33.5 E2.67823
G1 X102.023 Y33.243 E2.70461
G1 X101.6 Y32.951 E2.73025
G1 X101.199 Y32.611 E2.75648
G1 X100.835 Y32.234 E2.78263
G1 X100.51 Y31.827 E2.80861
G1 X100.23 Y31.392 E2.83442
G1 X99.994 Y30.928 E2.86039
G1 X99.799 Y30.436 E2.8868
G1 X99.658 Y29.943 E2.91238
G1 X99.563 Y29.417 E2.93905
G1 X99.521 Y28.909 E2.96448
G1 X99.53 Y28.39 E2.99037
G1 X99.559 Y28.144 E3.00273
G1 X99.022 Y27.89 E3.03237
G1 X98.572 Y27.62 E3.05855
G1 X98.323 Y27.435 E3.07403
G1 X97.827 Y27.755 E3.10347
G1 X97.364 Y27.992 E3.12942
G1 X96.872 Y28.187 E3.15583
G1 X96.38 Y28.328 E3.18136
G1 X95.856 Y28.423 E3.20793
G1 X95.346 Y28.465 E3.23346
G1 X94.823 Y28.456 E3.25956
G1 X94.304 Y28.396 E3.28562
G1 X93.783 Y28.284 E3.31221
G1 X93.303 Y28.129 E3.33737
G1 X92.816 Y27.919 E3.36383
G1 X92.359 Y27.664 E3.38994
G1 X91.93 Y27.367 E3.41597
G1 X91.542 Y27.038 E3.44135
G1 X91.172 Y26.656 E3.46788
G1 X90.847 Y26.246 E3.49399
G1 X90.57 Y25.817 E3.51946
G1 X90.327 Y25.344 E3.54599
G1 X90.134 Y24.857 E3.57213
G1 X89.994 Y24.366 E3.5976
G1 X89.898 Y23.837 E3.62442
G1 X89.857 Y23.331 E3.64975
G1 X89.866 Y22.809 E3.6758
G1 X89.926 Y22.278 E3.70246
G1 X90.035 Y21.779 E3.72794
G0 F3600 X90.095 Y21.589
G0 X90.224 Y21.776
;TYPE:SKIN
G1 F1800 X96.542 Y28.094 E4.17371
G0 X96.612 Y28.164
G0 F3600 X96.967 Y27.954
G1 F1800 X90.362 Y21.348 E4.63976
G0 X90.292 Y21.278
G0 F3600 X90.533 Y20.953
G1 F1800 X97.366 Y27.787 E5.1219
G0 X97.436 Y27.857
G0 F3600 X97.74 Y27.595
G1 F1800 X90.728 Y20.583 E5.61664
G0 X90.658 Y20.513
G0 F3600 X90.948 Y20.237
G1 F1800 X98.084 Y27.373 E6.12012
G0 X98.154 Y27.443
G0 F3600 X98.86 Y27.584
G1 F1800 X91.189 Y19.913 E6.66135
G0 X91.119 Y19.843
G0 F3600 X91.454 Y19.612
G1 F1800 X105.638 Y33.796 E7.66211
G0 X105.708 Y33.866
G0 F3600 X106.109 Y33.701
G1 F1800 X91.742 Y19.334 E8.67578
G0 X91.672 Y19.264
G0 F3600 X92.053 Y19.079
G1 F1800 X106.542 Y33.569 E9.69809
G0 X106.612 Y33.639
G0 F3600 X106.947 Y33.408
G1 F1800 X92.385 Y18.846 E10.72552
G0 X92.315 Y18.776
G0 F3600 X92.74 Y18.635
G1 F1800 X107.322 Y33.217 E11.75436
G0 X107.392 Y33.287
G0 F3600 X107.672 Y33.002
G1 F1800 X93.119 Y18.449 E12.78115
G0 X93.049 Y18.379
G0 F3600 X93.526 Y18.29
G1 F1800 X107.999 Y32.763 E13.8023
G0 X108.069 Y32.833
G0 F3600 X108.306 Y32.504
G1 F1800 X93.964 Y18.162 E14.8142
G0 X93.894 Y18.092
G0 F3600 X94.441 Y18.074
G1 F1800 X108.594 Y32.227 E15.81277
G0 X108.664 Y32.297
G0 F3600 X108.853 Y31.92
G1 F1800 X94.958 Y18.024 E16.79318
G0 X94.888 Y17.954
G0 F3600 X95.534 Y18.035
G1 F1800 X109.09 Y31.591 E17.74963
G0 X109.16 Y31.661
G0 F3600 X109.305 Y31.24
G1 F1800 X96.195 Y18.13 E18.67461
G0 X96.125 Y18.06
G0 F3600 X96.979 Y18.349
G1 F1800 X109.496 Y30.865 E19.55771
G0 X109.566 Y30.935
G0 F3600 X109.66 Y30.464
G1 F1800 X98.241 Y19.045 E20.36339
G0 X98.171 Y18.975
G0 F3600 X98.687 Y18.925
G1 F1800 X109.796 Y30.035 E21.14722
G0 X109.866 Y30.105
G0 F3600 X109.897 Y29.569
G1 F1800 X99.04 Y18.712 E21.91324
G0 X98.97 Y18.642
G0 F3600 X99.419 Y18.526
G1 F1800 X109.953 Y29.06 E22.65647
G0 X110.023 Y29.13
G0 F3600 X109.957 Y28.499
G1 F1800 X99.667 Y18.208 E23.38252
G0 X99.597 Y18.138
G0 F3600 X99.634 Y17.61
G1 F1800 X109.883 Y27.859 E24.10565
G0 X109.953 Y27.929
G0 F3600 X109.701 Y27.111
G1 F1800 X99.664 Y17.074 E24.81381
G0 X99.594 Y17.004
G0 F3600 X99.74 Y16.585
G1 F1800 X106.645 Y23.489 E25.30096
G0 X106.715 Y23.559
G0 F3600 X106.643 Y22.922
G1 F1800 X99.853 Y16.131 E25.78007
G0 X99.783 Y16.061
G0 F3600 X99.997 Y15.71
G1 F1800 X106.675 Y22.388 E26.25123
G0 X106.745 Y22.458
G0 F3600 X107.052 Y22.199
G1 F1800 X100.172 Y15.319 E26.73666
G0 X100.102 Y15.249
G0 F3600 X100.374 Y14.956
G1 F1800 X107.419 Y22 E27.23368
G0 X107.489 Y22.07
G0 F3600 X107.761 Y21.777
G1 F1800 X100.6 Y14.616 E27.73893
G0 X100.53 Y14.546
G0 F3600 X100.848 Y14.299
G1 F1800 X108.077 Y21.527 E28.24894
G0 X108.147 Y21.597
G0 F3600 X108.371 Y21.256
G1 F1800 X101.119 Y14.003 E28.76064
G0 X101.049 Y13.933
G0 F3600 X101.409 Y13.728
G1 F1800 X108.645 Y20.964 E29.27118
G0 X108.715 Y21.034
G0 F3600 X108.896 Y20.649
G1 F1800 X101.725 Y13.478 E29.77714
G0 X101.655 Y13.408
G0 F3600 X102.063 Y13.251
G1 F1800 X109.127 Y20.315 E30.27554
G0 X109.197 Y20.385
G0 F3600 X109.33 Y19.952
G1 F1800 X102.427 Y13.048 E30.76262
G0 X102.357 Y12.978
G0 F3600 X102.814 Y12.87
G1 F1800 X109.506 Y19.562 E31.23477
G0 X109.576 Y19.632
G0 F3600 X109.656 Y19.147
G1 F1800 X103.228 Y12.718 E31.68834
G0 X103.158 Y12.648
G0 F3600 X103.674 Y12.599
G1 F1800 X109.773 Y18.698 E32.11866
G0 X109.843 Y18.768
G0 F3600 X109.854 Y18.213
G1 F1800 X104.158 Y12.517 E32.52054
G0 X104.088 Y12.447
G0 F3600 X104.69 Y12.483
G1 F1800 X109.89 Y17.683 E32.88743
G0 X109.96 Y17.753
G0 F3600 X109.867 Y17.095
G1 F1800 X105.284 Y12.512 E33.21078
G0 X105.214 Y12.442
G0 F3600 X105.965 Y12.627
G1 F1800 X109.754 Y16.416 E33.47812
G0 X109.824 Y16.486
G0 F3600 X109.466 Y15.562
G1 F1800 X106.82 Y12.916 E33.66481
G0 X106.75 Y12.846
G0 F3600 X106.778 Y23.827
G0 X107.513 Y24.357
G1 F1800 X109.197 Y26.041 E33.78362
G0 X109.267 Y26.111
G0 F3600 X105.129 Y33.853
G1 F1800 X99.708 Y28.432 E34.1661
G0 X99.638 Y28.362
G0 F3600 X99.707 Y28.996
G1 F1800 X104.566 Y33.856 E34.50897
G0 X104.636 Y33.926
G0 F3600 X103.926 Y33.781
G1 F1800 X99.785 Y29.64 E34.80114
G0 X99.715 Y29.57
G0 F3600 X99.977 Y30.398
G1 F1800 X103.161 Y33.582 E35.02579
G0 X103.231 Y33.652
G0 F3600 X102.07 Y33.056
G1 F1800 X100.509 Y31.495 E35.13592
G0 X100.439 Y31.425
G0 F3600 X99.594 Y28.125
G0 X98.324 Y27.396
G0 X96.08 Y28.198
G1 F1800 X90.117 Y22.234 E35.55668
G0 X90.047 Y22.164
G0 F3600 X90.054 Y22.737
M104 S210
G1 F1800 X95.581 Y28.265 E35.94668
G0 X95.651 Y28.335
G0 F3600 X95.029 Y28.278
G1 F1800 X90.036 Y23.285 E36.29896
G0 X89.966 Y23.215
G0 F3600 X90.092 Y23.907
G1 F1800 X94.412 Y28.226 E36.60372
G0 X94.482 Y28.296
G0 F3600 X93.681 Y28.062
G1 F1800 X90.256 Y24.637 E36.84538
G0 X90.186 Y24.567
G0 F3600 X90.666 Y25.612
G1 F1800 X92.706 Y27.652 E36.98931
G0 X92.776 Y27.722
G0 F3600 X92.898 Y27.507
;TIME_ELAPSED:28.077990
;LAYER:1
M140 S60
M106 S255
G0 F5400 X92.946 Y27.42 Z0.5
G0 X93.714 Y26.128
;TYPE:WALL-INNER
G1 F2700 X93.414 Y25.962 E37.00071
G1 X93.14 Y25.772 E37.0118
G1 X92.912 Y25.579 E37.02174
G1 X92.675 Y25.336 E37.03303
G1 X92.48 Y25.088 E37.04352
G1 X92.306 Y24.819 E37.05418
G1 X92.149 Y24.512 E37.06564
G1 X92.031 Y24.214 E37.0763
G1 X91.947 Y23.924 E37.08635
G1 X91.883 Y23.574 E37.09818
G1 X91.859 Y23.26 E37.10865
G1 X91.866 Y22.951 E37.11893
G1 X91.904 Y22.602 E37.13061
G1 X91.975 Y22.28 E37.14158
G1 X92.062 Y22.003 E37.15123
G1 X92.202 Y21.682 E37.16288
G1 X92.359 Y21.4 E37.17362
G1 X92.547 Y21.127 E37.18464
G1 X92.744 Y20.894 E37.19479
G1 X92.985 Y20.662 E37.20592
G1 X93.237 Y20.461 E37.21664
G1 X93.515 Y20.283 E37.22762
G1 X93.795 Y20.14 E37.23807
G1 X94.104 Y20.018 E37.24912
G1 X94.418 Y19.928 E37.25999
G1 X94.722 Y19.872 E37.27027
G1 X95.068 Y19.844 E37.28182
G1 X95.398 Y19.851 E37.29279
G1 X95.689 Y19.883 E37.30253
G1 X96.041 Y19.959 E37.31451
G1 X96.316 Y20.047 E37.32411
G1 X96.637 Y20.188 E37.33577
G1 X96.92 Y20.345 E37.34654
G1 X98.435 Y21.385 E37.40766
G1 X99.691 Y20.445 E37.45983
G1 X99.958 Y20.286 E37.47017
G1 X101.605 Y19.513 E37.53068
G1 X101.455 Y17.711 E37.59082
G1 X101.462 Y17.383 E37.60174
G1 X101.494 Y17.09 E37.61154
G1 X101.569 Y16.746 E37.62325
G1 X101.66 Y16.46 E37.63323
G1 X101.797 Y16.146 E37.64463
G1 X101.951 Y15.869 E37.65517
G1 X102.146 Y15.585 E37.66663
G1 X102.354 Y15.341 E37.67729
G1 X102.578 Y15.124 E37.68766
G1 X102.835 Y14.919 E37.6986
G1 X103.11 Y14.742 E37.70947
G1 X103.384 Y14.603 E37.71969
G1 X103.706 Y14.475 E37.73122
G1 X103.989 Y14.393 E37.74102
G1 X104.338 Y14.329 E37.75282
G1 X104.665 Y14.303 E37.76373
G1 X104.993 Y14.31 E37.77464
G1 X105.291 Y14.343 E37.78461
G1 X105.632 Y14.418 E37.79623
G1 X105.914 Y14.507 E37.80606
G1 X106.238 Y14.649 E37.81783
G1 X106.515 Y14.803 E37.82837
G1 X106.769 Y14.977 E37.83861
G1 X107.036 Y15.203 E37.85024
G1 X107.247 Y15.423 E37.86038
G1 X107.465 Y15.696 E37.872
G1 X107.63 Y15.951 E37.8821
G1 X107.778 Y16.241 E37.89293
G1 X107.902 Y16.556 E37.90419
G1 X107.987 Y16.852 E37.91444
G1 X108.046 Y17.172 E37.92526
G1 X108.073 Y17.509 E37.9365
G1 X108.066 Y17.834 E37.94731
G1 X108.032 Y18.148 E37.95782
G1 X107.96 Y18.477 E37.96902
G1 X107.866 Y18.774 E37.97938
G1 X107.736 Y19.073 E37.99023
G1 X107.574 Y19.363 E38.00127
G1 X107.394 Y19.625 E38.01185
G1 X107.184 Y19.873 E38.02266
G1 X106.945 Y20.105 E38.03373
G1 X106.692 Y20.305 E38.04446
G1 X106.414 Y20.484 E38.05546
G1 X104.739 Y21.327 E38.11783
G1 X104.837 Y23.166 E38.17908
G1 X104.749 Y25.091 E38.24317
G1 X106.298 Y25.763 E38.29933
G1 X106.573 Y25.916 E38.3098
G1 X106.849 Y26.107 E38.32096
G1 X107.105 Y26.322 E38.33208
G1 X107.325 Y26.551 E38.34264
G1 X107.51 Y26.784 E38.35254
G1 X107.698 Y27.074 E38.36403
G1 X107.848 Y27.369 E38.37504
G1 X107.965 Y27.664 E38.38559
G1 X108.06 Y27.997 E38.39711
G1 X108.113 Y28.282 E38.40675
G1 X108.141 Y28.628 E38.4183
G1 X108.134 Y28.946 E38.42888
G1 X108.098 Y29.278 E38.43999
G1 X108.032 Y29.585 E38.45043
G1 X107.929 Y29.903 E38.46155
G1 X107.801 Y30.202 E38.47237
G1 X107.644 Y30.484 E38.4831
G1 X107.463 Y30.744 E38.49364
G1 X107.252 Y30.994 E38.50452
G1 X107.002 Y31.236 E38.51609
G1 X106.774 Y31.416 E38.52575
G1 X106.486 Y31.602 E38.53716
G1 X106.205 Y31.746 E38.54766
G1 X105.896 Y31.868 E38.55871
G1 X105.582 Y31.958 E38.56957
G1 X105.278 Y32.014 E38.57985
G1 X104.932 Y32.042 E38.5914
G1 X104.602 Y32.035 E38.60238
G1 X104.311 Y32.003 E38.61211
G1 X103.959 Y31.927 E38.62409
G1 X103.676 Y31.836 E38.63398
G1 X103.365 Y31.701 E38.64525
G1 X103.073 Y31.538 E38.65638
G1 X102.816 Y31.361 E38.66676
G1 X102.573 Y31.156 E38.67733
G1 X102.348 Y30.92 E38.68817
G1 X102.127 Y30.644 E38.69993
G1 X101.974 Y30.408 E38.70929
G1 X101.816 Y30.097 E38.72089
G1 X101.693 Y29.786 E38.73202
G1 X101.613 Y29.51 E38.74157
G1 X101.548 Y29.155 E38.75358
G1 X101.522 Y28.834 E38.76429
G1 X101.53 Y28.513 E38.77497
G1 X101.714 Y26.953 E38.82721
G1 X99.979 Y26.131 E38.89107
G1 X99.675 Y25.949 E38.90285
G1 X98.403 Y25.005 E38.95554
G1 X96.828 Y26.02 E39.01786
G1 X96.539 Y26.168 E39.02866
G1 X96.224 Y26.292 E39.03992
G1 X95.931 Y26.376 E39.05005
G1 X95.606 Y26.436 E39.06105
G1 X95.27 Y26.463 E39.07226
G1 X94.948 Y26.456 E39.08297
G1 X94.633 Y26.422 E39.09351
G1 X94.302 Y26.35 E39.10477
G1 X93.996 Y26.251 E39.11547
G1 X93.714 Y26.128 E39.1257
G0 F5400 X93.535 Y26.487
G1 F2700 X93.208 Y26.306 E39.13814
G1 X92.899 Y26.091 E39.15066
G1 X92.633 Y25.866 E39.16224
G1 X92.375 Y25.601 E39.17455
G1 X92.155 Y25.322 E39.18636
G1 X91.958 Y25.017 E39.19844
G1 X91.785 Y24.68 E39.21104
G1 X91.652 Y24.343 E39.22309
G1 X91.556 Y24.013 E39.23452
G1 X91.486 Y23.626 E39.2476
G1 X91.458 Y23.273 E39.25938
G1 X91.466 Y22.921 E39.27109
G1 X91.508 Y22.538 E39.2839
G1 X91.586 Y22.183 E39.29599
G1 X91.689 Y21.857 E39.30736
G1 X91.842 Y21.506 E39.3201
G1 X92.016 Y21.193 E39.33201
G1 X92.228 Y20.886 E39.34442
G1 X92.453 Y20.62 E39.35601
G1 X92.723 Y20.36 E39.36847
G1 X93.007 Y20.133 E39.38057
G1 X93.311 Y19.938 E39.39258
G1 X93.632 Y19.774 E39.40457
G1 X93.979 Y19.637 E39.41698
G1 X94.319 Y19.54 E39.42873
G1 X94.675 Y19.474 E39.44078
G1 X95.053 Y19.443 E39.45339
G1 X95.428 Y19.451 E39.46587
G1 X95.751 Y19.487 E39.47668
G1 X96.144 Y19.572 E39.49005
G1 X96.46 Y19.673 E39.50108
G1 X96.81 Y19.826 E39.51379
G1 X97.133 Y20.006 E39.52609
G1 X98.425 Y20.893 E39.57821
G1 X99.463 Y20.116 E39.62134
G1 X99.773 Y19.931 E39.63334
G1 X101.183 Y19.269 E39.68515
G1 X101.054 Y17.726 E39.73665
G1 X101.062 Y17.353 E39.74906
G1 X101.098 Y17.03 E39.75987
G1 X101.182 Y16.641 E39.77311
G1 X101.286 Y16.316 E39.78446
G1 X101.437 Y15.97 E39.79701
G1 X101.612 Y15.655 E39.809
G1 X101.825 Y15.345 E39.82151
G1 X102.059 Y15.071 E39.83349
G1 X102.317 Y14.821 E39.84544
G1 X102.602 Y14.594 E39.85756
G1 X102.909 Y14.396 E39.86971
G1 X103.221 Y14.237 E39.88136
G1 X103.574 Y14.097 E39.89399
G1 X103.905 Y14.001 E39.90545
G1 X104.284 Y13.932 E39.91826
G1 X104.65 Y13.902 E39.93048
G1 X105.023 Y13.91 E39.94289
G1 X105.355 Y13.947 E39.954
G1 X105.729 Y14.029 E39.96673
G1 X106.06 Y14.134 E39.97828
G1 X106.411 Y14.287 E39.99102
G1 X106.728 Y14.464 E40.00309
G1 X107.014 Y14.66 E40.01462
G1 X107.311 Y14.911 E40.02756
G1 X107.546 Y15.156 E40.03885
G1 X107.79 Y15.462 E40.05187
G1 X107.976 Y15.75 E40.06327
G1 X108.144 Y16.078 E40.07553
G1 X108.283 Y16.431 E40.08814
G1 X108.375 Y16.752 E40.09925
G1 X108.444 Y17.127 E40.11193
G1 X108.474 Y17.494 E40.12418
G1 X108.466 Y17.864 E40.13649
G1 X108.428 Y18.21 E40.14807
G1 X108.348 Y18.576 E40.16053
G1 X108.24 Y18.916 E40.17239
