;FLAVOR:RepRap
;TIME:1510
;Filament used: 1.56629m
;Layer height: 0.2
;Generated with Cura_SteamEngine master
M190 S60
M104 S215
M109 S215
G21 ;metric values
G90 ;absolute positioning
M82 ;set extruder to absolute mode
M107 ;start with the fan off
G28 X0 Y0 ;move X/Y to min endstops
G28 Z0 ;move Z to min endstops
G1 Z15.0 F9000 ;move the platform down 15mm
G92 E0 ;zero the extruded length
G1 F200 E3 ;extrude 3mm of feed stock
G92 E0 ;zero the extruded length again
G1 F9000
;Put printing message on LCD screen
M117 Printing...
;LAYER_COUNT:150
;LAYER:0
M107
G0 F3600 X73.582 Y25.177 Z0.3
;TYPE:WALL-OUTER
G1 F1800 X73.869 Y24.376 E0.04245
G1 X74.235 Y23.601 E0.08521
G1 X74.685 Y22.849 E0.12893
G1 X75.201 Y22.154 E0.17212
G1 X75.778 Y21.517 E0.215
G1 X76.414 Y20.941 E0.25781
G1 X77.109 Y20.425 E0.30099
G1 X77.853 Y19.98 E0.34424
G1 X78.64 Y19.607 E0.38769
G1 X79.441 Y19.321 E0.43012
G1 X80.156 Y19.141 E0.46691
G1 X80.903 Y17.561 E0.5541
G1 X81.999 Y15.728 E0.66065
G1 X82.653 Y14.845 E0.71547
G1 X82.575 Y14.711 E0.72321
G1 X82.37 Y13.89 E0.76542
G1 X82.244 Y13.038 E0.80839
G1 X82.2 Y12.173 E0.8516
G1 X82.244 Y11.309 E0.89476
G1 X82.37 Y10.457 E0.93773
G1 X82.582 Y9.61 E0.98129
G1 X82.869 Y8.809 E1.02374
G1 X83.235 Y8.034 E1.0665
G1 X83.685 Y7.282 E1.11023
G1 X84.201 Y6.587 E1.15341
G1 X84.778 Y5.95 E1.19629
G1 X85.414 Y5.374 E1.2391
G1 X86.109 Y4.858 E1.28228
G1 X86.853 Y4.413 E1.32554
G1 X87.64 Y4.04 E1.36899
G1 X88.441 Y3.754 E1.41142
G1 X89.284 Y3.543 E1.45477
G1 X90.136 Y3.417 E1.49774
G1 X91 Y3.373 E1.5409
G1 X91.865 Y3.417 E1.58411
G1 X92.717 Y3.543 E1.62708
G1 X93.56 Y3.754 E1.67044
G1 X94.361 Y4.04 E1.71287
G1 X95.148 Y4.413 E1.75632
G1 X95.892 Y4.858 E1.79957
G1 X96.587 Y5.374 E1.84276
G1 X97.205 Y5.935 E1.8844
G1 X97.403 Y6.274 E1.90399
G1 X97.863 Y6.206 E1.92718
G1 X99.986 Y6.1 E2.03323
G1 X102.107 Y6.201 E2.13917
G1 X102.598 Y6.273 E2.16393
G1 X102.795 Y5.935 E2.18345
G1 X103.413 Y5.374 E2.22509
G1 X104.108 Y4.858 E2.26827
G1 X104.852 Y4.413 E2.31152
G1 X105.639 Y4.04 E2.35497
G1 X106.44 Y3.754 E2.39741
G1 X107.283 Y3.543 E2.44076
G1 X108.135 Y3.417 E2.48373
G1 X108.999 Y3.373 E2.52689
G1 X109.864 Y3.417 E2.5701
G1 X110.716 Y3.543 E2.61307
G1 X111.559 Y3.754 E2.65643
G1 X112.36 Y4.04 E2.69886
G1 X113.147 Y4.413 E2.74231
G1 X113.891 Y4.858 E2.78556
G1 X114.586 Y5.374 E2.82875
G1 X115.222 Y5.95 E2.87155
G1 X115.799 Y6.587 E2.91443
G1 X116.315 Y7.282 E2.95762
G1 X116.765 Y8.034 E3.00134
G1 X117.131 Y8.809 E3.0441
G1 X117.418 Y9.61 E3.08655
G1 X117.63 Y10.457 E3.13011
G1 X117.756 Y11.309 E3.17308
G1 X117.8 Y12.173 E3.21624
G1 X117.756 Y13.038 E3.25945
G1 X117.63 Y13.89 E3.30242
G1 X117.424 Y14.712 E3.3447
G1 X117.346 Y14.845 E3.35239
G1 X117.989 Y15.713 E3.40628
G1 X119.073 Y17.517 E3.51128
G1 X119.844 Y19.141 E3.60097
G1 X120.559 Y19.321 E3.63776
G1 X121.36 Y19.607 E3.68019
G1 X122.147 Y19.98 E3.72364
G1 X122.891 Y20.425 E3.76689
G1 X123.586 Y20.941 E3.81008
G1 X124.222 Y21.517 E3.85289
G1 X124.799 Y22.154 E3.89577
G1 X125.315 Y22.849 E3.93895
G1 X125.765 Y23.601 E3.98267
G1 X126.131 Y24.376 E4.02543
G1 X126.418 Y25.177 E4.06788
G1 X126.63 Y26.024 E4.11144
G1 X126.756 Y26.876 E4.15441
G1 X126.8 Y27.74 E4.19757
G1 X126.756 Y28.605 E4.24078
G1 X126.63 Y29.457 E4.28375
G1 X126.419 Y30.3 E4.32711
G1 X126.131 Y31.105 E4.36976
G1 X125.765 Y31.88 E4.41252
G1 X125.315 Y32.631 E4.4562
G1 X124.799 Y33.327 E4.49943
G1 X124.222 Y33.963 E4.54227
G1 X123.586 Y34.539 E4.58508
G1 X122.891 Y35.056 E4.62829
G1 X122.143 Y35.504 E4.67179
G1 X121.364 Y35.872 E4.71477
G1 X120.559 Y36.16 E4.75743
G1 X119.844 Y36.339 E4.7942
G1 X119.097 Y37.92 E4.88144
G1 X118.001 Y39.753 E4.98799
G1 X117.347 Y40.636 E5.04281
G1 X117.425 Y40.77 E5.05054
G1 X117.63 Y41.588 E5.09262
G1 X117.756 Y42.442 E5.13568
G1 X117.8 Y43.307 E5.17889
G1 X117.757 Y44.168 E5.2219
G1 X117.631 Y45.021 E5.26492
G1 X117.419 Y45.867 E5.30843
G1 X117.131 Y46.672 E5.35109
G1 X116.765 Y47.447 E5.39385
G1 X116.315 Y48.198 E5.43753
G1 X115.799 Y48.894 E5.48075
G1 X115.223 Y49.528 E5.52349
G1 X114.586 Y50.106 E5.5664
G1 X113.891 Y50.623 E5.60961
G1 X113.143 Y51.071 E5.65311
G1 X112.364 Y51.439 E5.6961
G1 X111.557 Y51.728 E5.73886
G1 X110.719 Y51.937 E5.78195
G1 X109.864 Y52.064 E5.82508
G1 X109.006 Y52.107 E5.86793
G1 X108.142 Y52.065 E5.91109
G1 X107.287 Y51.939 E5.95421
G1 X106.449 Y51.73 E5.9973
G1 X105.642 Y51.442 E6.04004
G1 X104.859 Y51.073 E6.08323
G1 X104.114 Y50.627 E6.12655
G1 X103.419 Y50.111 E6.16973
G1 X102.8 Y49.55 E6.21141
G1 X102.599 Y49.206 E6.23129
G1 X102.137 Y49.274 E6.25459
G1 X100.014 Y49.38 E6.36064
G1 X97.893 Y49.279 E6.46657
G1 X97.402 Y49.207 E6.49133
G1 X97.205 Y49.545 E6.51085
G1 X96.587 Y50.106 E6.55249
G1 X95.892 Y50.623 E6.5957
G1 X95.144 Y51.071 E6.6392
G1 X94.365 Y51.439 E6.68219
G1 X93.558 Y51.728 E6.72495
G1 X92.72 Y51.937 E6.76804
G1 X91.865 Y52.064 E6.81117
G1 X91.006 Y52.107 E6.85407
G1 X90.143 Y52.065 E6.89718
G1 X89.288 Y51.939 E6.9403
G1 X88.45 Y51.73 E6.98339
G1 X87.643 Y51.442 E7.02613
G1 X86.86 Y51.073 E7.06932
G1 X86.115 Y50.627 E7.11264
G1 X85.42 Y50.111 E7.15582
G1 X84.783 Y49.535 E7.19867
G1 X84.205 Y48.898 E7.24158
G1 X83.683 Y48.194 E7.28531
G1 X83.245 Y47.465 E7.32774
G1 X82.875 Y46.68 E7.37103
G1 X82.583 Y45.87 E7.41399
G1 X82.372 Y45.031 E7.45715
G1 X82.246 Y44.179 E7.50012
G1 X82.201 Y43.314 E7.54333
G1 X82.243 Y42.45 E7.58649
G1 X82.368 Y41.598 E7.62945
G1 X82.574 Y40.777 E7.67168
G1 X82.656 Y40.638 E7.67973
G1 X82.01 Y39.768 E7.73379
G1 X80.926 Y37.962 E7.83888
G1 X80.07 Y36.157 E7.93854
G1 X79.422 Y36.153 E7.97087
G1 X78.636 Y35.872 E8.01252
G1 X77.857 Y35.504 E8.0555
G1 X77.109 Y35.056 E8.099
G1 X76.414 Y34.539 E8.14222
G1 X75.778 Y33.963 E8.18502
G1 X75.201 Y33.327 E8.22787
G1 X74.685 Y32.631 E8.27109
G1 X74.237 Y31.884 E8.31455
G1 X73.871 Y31.107 E8.3574
G1 X73.58 Y30.296 E8.40039
G1 X73.37 Y29.457 E8.44353
G1 X73.244 Y28.605 E8.4865
G1 X73.2 Y27.74 E8.52971
G1 X73.244 Y26.876 E8.57288
G1 X73.37 Y26.024 E8.61584
G1 X73.582 Y25.177 E8.6594
G0 F3600 X73.649 Y24.989
G0 X73.785 Y25.136
;TYPE:SKIN
G1 F1800 X97.72 Y49.071 E10.34815
G0 X97.79 Y49.141
G0 F3600 X97.228 Y49.145
G1 F1800 X73.665 Y25.582 E12.01065
G0 X73.595 Y25.512
G0 F3600 X73.552 Y26.034
G1 F1800 X97.002 Y49.484 E13.66517
G0 X97.072 Y49.554
G0 F3600 X96.706 Y49.754
G1 F1800 X73.477 Y26.525 E15.3041
G0 X73.407 Y26.455
G0 F3600 X73.416 Y27.03
G1 F1800 X96.404 Y50.017 E16.92599
G0 X96.474 Y50.087
G0 F3600 X96.079 Y50.259
G1 F1800 X73.389 Y27.568 E18.52693
G0 X73.319 Y27.498
G0 F3600 X73.401 Y28.146
G1 F1800 X95.751 Y50.496 E20.10384
G0 X95.821 Y50.566
G0 F3600 X95.397 Y50.708
G1 F1800 X73.448 Y28.759 E21.65246
G0 X73.378 Y28.689
G0 F3600 X73.546 Y29.423
G1 F1800 X80.1 Y35.976 E22.11485
G0 X80.17 Y36.046
G0 F3600 X80.256 Y36.133
G1 F1800 X95.042 Y50.919 E23.15808
G0 X95.112 Y50.989
G0 F3600 X94.658 Y51.101
G1 F1800 X80.767 Y37.21 E24.13817
G0 X80.697 Y37.14
G0 F3600 X81.404 Y38.412
G1 F1800 X94.273 Y51.281 E25.04614
G0 X94.343 Y51.351
G0 F3600 X93.856 Y51.429
G1 F1800 X82.345 Y39.919 E25.85827
G0 X82.275 Y39.849
G0 F3600 X82.695 Y40.636
G0 X82.734 Y40.873
G1 F1800 X93.434 Y51.573 E26.61321
G0 X93.504 Y51.643
G0 F3600 X92.981 Y51.686
G1 F1800 X82.621 Y41.326 E27.34417
G0 X82.551 Y41.256
G0 F3600 X82.52 Y41.791
G1 F1800 X92.514 Y51.784 E28.04926
G0 X92.584 Y51.854
G0 F3600 X92.021 Y51.857
G1 F1800 X82.447 Y42.284 E28.72473
G0 X82.377 Y42.214
G0 F3600 X82.405 Y42.807
G1 F1800 X91.498 Y51.9 E29.36629
G0 X91.568 Y51.97
G0 F3600 X90.955 Y51.923
G1 F1800 X82.382 Y43.35 E29.97116
G0 X82.312 Y43.28
G0 F3600 X82.413 Y43.946
G1 F1800 X90.361 Y51.894 E30.53193
G0 X90.431 Y51.964
G0 F3600 X89.721 Y51.821
G1 F1800 X82.486 Y44.585 E31.04244
G0 X82.416 Y44.515
G0 F3600 X82.62 Y45.285
G1 F1800 X89.023 Y51.688 E31.4942
G0 X89.093 Y51.758
G0 F3600 X88.232 Y51.462
G1 F1800 X82.849 Y46.08 E31.87397
G0 X82.779 Y46.01
G0 F3600 X83.242 Y47.038
G1 F1800 X87.273 Y51.069 E32.15838
G0 X87.343 Y51.139
G0 F3600 X85.83 Y50.192
G1 F1800 X84.118 Y48.48 E32.27917
G0 X84.048 Y48.41
G0 F3600 X82.695 Y40.636
G0 X80.091 Y36.124
G0 X79.53 Y35.972
G1 F1800 X73.734 Y30.177 E32.68807
G0 X73.664 Y30.107
G0 F3600 X74.041 Y31.049
G1 F1800 X78.693 Y35.701 E33.01629
G0 X78.763 Y35.771
G0 F3600 X77.516 Y35.09
G1 F1800 X74.649 Y32.222 E33.21861
G0 X74.579 Y32.152
G0 F3600 X73.935 Y24.72
G1 F1800 X98.333 Y49.119 E34.94006
G0 X98.403 Y49.189
G0 F3600 X98.928 Y49.148
G1 F1800 X74.095 Y24.315 E36.69216
G0 X74.025 Y24.245
G0 F3600 X74.276 Y23.93
G1 F1800 X99.522 Y49.176 E38.4734
G0 X99.592 Y49.246
G0 F3600 X100.107 Y49.195
G1 F1800 X74.469 Y23.557 E40.2823
G0 X74.399 Y23.487
G0 F3600 X74.681 Y23.204
G1 F1800 X100.645 Y49.167 E42.11417
G0 X100.715 Y49.237
G0 F3600 X101.184 Y49.141
G1 F1800 X74.9 Y22.857 E43.96864
G0 X74.83 Y22.787
G0 F3600 X75.142 Y22.534
G1 F1800 X101.722 Y49.114 E45.84401
G0 X101.792 Y49.184
G0 F3600 X102.249 Y49.074
G1 F1800 X75.388 Y22.213 E47.73919
G0 X75.318 Y22.143
G0 F3600 X75.656 Y21.916
G1 F1800 X104.221 Y50.481 E49.75461
G0 X104.291 Y50.551
G0 F3600 X105.467 Y51.161
G1 F1800 X75.928 Y21.622 E51.83875
G0 X75.858 Y21.552
G0 F3600 X76.225 Y21.353
G1 F1800 X106.389 Y51.517 E53.96698
G0 X106.459 Y51.587
G0 F3600 X107.159 Y51.722
G1 F1800 X76.522 Y21.085 E56.12858
G0 X76.452 Y21.015
G0 F3600 X76.846 Y20.844
G1 F1800 X107.84 Y51.837 E58.31534
G0 X107.91 Y51.907
G0 F3600 X108.468 Y51.9
G1 F1800 X77.171 Y20.602 E60.52355
G0 X77.101 Y20.532
G0 F3600 X77.522 Y20.388
G1 F1800 X109.058 Y51.924 E62.74859
G0 X109.128 Y51.994
G0 F3600 X109.596 Y51.896
G1 F1800 X77.876 Y20.176 E64.9866
G0 X77.806 Y20.106
G0 F3600 X78.254 Y19.989
G1 F1800 X110.11 Y51.845 E67.23422
G0 X110.18 Y51.915
G0 F3600 X110.603 Y51.772
G1 F1800 X78.638 Y19.807 E69.48952
G0 X78.568 Y19.737
G0 F3600 X79.048 Y19.651
G1 F1800 X111.062 Y51.665 E71.74828
G0 X111.132 Y51.735
G0 F3600 X111.514 Y51.551
G1 F1800 X79.466 Y19.503 E74.00944
G0 X79.396 Y19.433
G0 F3600 X79.915 Y19.387
G1 F1800 X111.931 Y51.403 E76.26834
G0 X112.001 Y51.473
G0 F3600 X112.343 Y51.249
G1 F1800 X80.315 Y19.221 E78.52809
G0 X80.245 Y19.151
G0 F3600 X80.497 Y18.837
G1 F1800 X112.727 Y51.067 E80.80209
G0 X112.797 Y51.137
G0 F3600 X113.106 Y50.881
G1 F1800 X80.678 Y18.452 E83.0901
G0 X80.608 Y18.382
G0 F3600 X80.859 Y18.068
G1 F1800 X113.46 Y50.669 E85.39027
G0 X113.53 Y50.739
G0 F3600 X113.813 Y50.456
G1 F1800 X81.041 Y17.684 E87.70251
G0 X80.971 Y17.614
G0 F3600 X81.25 Y17.328
G1 F1800 X114.137 Y50.215 E90.02287
G0 X114.207 Y50.285
G0 F3600 X114.461 Y49.973
G1 F1800 X81.462 Y16.974 E92.35113
G0 X81.392 Y16.904
G0 F3600 X81.673 Y16.619
G1 F1800 X114.758 Y49.704 E94.68545
G0 X114.828 Y49.774
G0 F3600 X115.055 Y49.435
G1 F1800 X81.885 Y16.266 E97.02574
G0 X81.815 Y16.196
G0 F3600 X82.097 Y15.912
G1 F1800 X115.329 Y49.143 E99.3704
G0 X115.399 Y49.213
G0 F3600 X115.598 Y48.847
G1 F1800 X82.33 Y15.579 E101.71764
G0 X82.26 Y15.509
G0 F3600 X82.571 Y15.255
G1 F1800 X115.845 Y48.528 E104.06526
G0 X115.915 Y48.598
G0 F3600 X116.086 Y48.204
G1 F1800 X82.812 Y14.929 E106.41296
G0 X82.742 Y14.859
G0 F3600 X82.626 Y14.178
G1 F1800 X116.307 Y47.859 E108.78934
G0 X116.377 Y47.929
G0 F3600 X116.519 Y47.506
G1 F1800 X82.489 Y13.476 E111.19034
G0 X82.419 Y13.406
G0 F3600 X82.413 Y12.833
G1 F1800 X116.714 Y47.135 E113.61049
G0 X116.784 Y47.205
G0 F3600 X116.895 Y46.75
G1 F1800 X82.382 Y12.237 E116.04557
G0 X82.312 Y12.167
G0 F3600 X82.404 Y11.693
G1 F1800 X117.057 Y46.346 E118.49053
G0 X117.127 Y46.416
G0 F3600 X117.205 Y45.929
G1 F1800 X82.445 Y11.169 E120.94303
G0 X82.375 Y11.099
G0 F3600 X82.518 Y10.676
G1 F1800 X117.328 Y45.486 E123.39907
G0 X117.398 Y45.556
G0 F3600 X117.441 Y45.034
G1 F1800 X82.616 Y10.209 E125.85616
G0 X82.546 Y10.139
G0 F3600 X82.73 Y9.756
G1 F1800 X117.519 Y44.545 E128.31071
G0 X117.589 Y44.615
G0 F3600 X117.581 Y44.042
G1 F1800 X82.87 Y9.331 E130.75976
G0 X82.8 Y9.261
G0 F3600 X83.02 Y8.915
G1 F1800 X117.608 Y43.504 E133.20017
G0 X117.678 Y43.574
G0 F3600 X117.599 Y42.929
G1 F1800 X83.198 Y8.528 E135.62734
G0 X83.128 Y8.458
G0 F3600 X83.38 Y8.144
G1 F1800 X117.555 Y42.318 E138.03854
G0 X117.625 Y42.388
G0 F3600 X117.456 Y41.654
G1 F1800 X83.59 Y7.788 E140.42797
G0 X83.52 Y7.718
G0 F3600 X83.802 Y7.434
G1 F1800 X117.272 Y40.905 E142.78949
G0 X117.342 Y40.975
G0 F3600 X117.313 Y40.38
G1 F1800 X84.038 Y7.105 E145.13722
G0 X83.968 Y7.035
G0 F3600 X84.28 Y6.781
G1 F1800 X117.553 Y40.054 E147.48481
G0 X117.623 Y40.124
G0 F3600 X117.794 Y39.729
G1 F1800 X84.541 Y6.477 E149.83096
G0 X84.471 Y6.407
G0 F3600 X84.809 Y6.179
G1 F1800 X118.012 Y39.382 E152.17361
G0 X118.082 Y39.452
G0 F3600 X118.224 Y39.028
G1 F1800 X85.098 Y5.902 E154.51082
G0 X85.028 Y5.832
G0 F3600 X85.395 Y5.633
G1 F1800 X118.436 Y38.674 E156.84205
G0 X118.506 Y38.744
G0 F3600 X118.647 Y38.32
G1 F1800 X85.707 Y5.38 E159.16614
G0 X85.637 Y5.31
G0 F3600 X86.032 Y5.139
G1 F1800 X118.858 Y37.965 E161.48219
G0 X118.928 Y38.035
G0 F3600 X119.052 Y37.594
G1 F1800 X86.37 Y4.911 E163.78812
G0 X86.3 Y4.841
G0 F3600 X86.724 Y4.7
G1 F1800 X119.233 Y37.209 E166.0818
G0 X119.303 Y37.279
G0 F3600 X119.415 Y36.825
G1 F1800 X87.09 Y4.5 E168.36251
G0 X87.02 Y4.43
G0 F3600 X87.474 Y4.319
G1 F1800 X119.597 Y36.441 E170.62892
G0 X119.667 Y36.511
G0 F3600 X119.868 Y36.147
G1 F1800 X87.87 Y4.149 E172.88656
G0 X87.8 Y4.079
G0 F3600 X88.287 Y4
G1 F1800 X120.32 Y36.033 E175.14666
G0 X120.39 Y36.103
G0 F3600 X120.751 Y35.899
G1 F1800 X88.722 Y3.869 E177.40651
G0 X88.652 Y3.799
G0 F3600 X89.174 Y3.756
G1 F1800 X121.169 Y35.75 E179.6639
G0 X121.239 Y35.82
G0 F3600 X121.562 Y35.578
G1 F1800 X89.654 Y3.67 E181.91518
G0 X89.584 Y3.6
G0 F3600 X90.147 Y3.597
G1 F1800 X121.946 Y35.397 E184.1588
G0 X122.016 Y35.467
G0 F3600 X122.308 Y35.193
G1 F1800 X90.685 Y3.57 E186.38998
G0 X90.615 Y3.5
G0 F3600 X91.247 Y3.566
G1 F1800 X122.662 Y34.981 E188.60648
G0 X122.732 Y35.051
G0 F3600 X122.998 Y34.751
G1 F1800 X91.843 Y3.597 E190.80459
G0 X91.773 Y3.527
G0 F3600 X92.507 Y3.694
G1 F1800 X123.322 Y34.509 E192.97876
G0 X123.392 Y34.579
G0 F3600 X123.631 Y34.253
G1 F1800 X93.237 Y3.859 E195.12322
G0 X93.167 Y3.789
G0 F3600 X94.072 Y4.128
G1 F1800 X123.928 Y33.984 E197.22972
G0 X123.998 Y34.054
G0 F3600 X124.214 Y33.704
G1 F1800 X95.11 Y4.601 E199.28313
G0 X95.04 Y4.531
G0 F3600 X97.514 Y6.439
G1 F1800 X124.483 Y33.407 E201.1859
G0 X124.553 Y33.477
G0 F3600 X124.742 Y33.101
G1 F1800 X98.019 Y6.378 E203.07136
G0 X97.949 Y6.308
G0 F3600 X98.558 Y6.351
G1 F1800 X124.983 Y32.776 E204.93578
G0 X125.053 Y32.846
G0 F3600 X125.216 Y32.444
G1 F1800 X99.097 Y6.325 E206.77862
G0 X99.027 Y6.255
G0 F3600 X99.635 Y6.297
G1 F1800 X125.428 Y32.09 E208.59845
G0 X125.498 Y32.16
G0 F3600 X125.635 Y31.732
G1 F1800 X100.194 Y6.29 E210.39349
G0 X100.124 Y6.22
G0 F3600 X100.788 Y6.318
G1 F1800 X125.817 Y31.348 E212.15946
G0 X125.887 Y31.418
G0 F3600 X125.993 Y30.958
G1 F1800 X101.382 Y6.346 E213.89593
G0 X101.312 Y6.276
G0 F3600 X101.976 Y6.375
G1 F1800 X126.142 Y30.541 E215.60097
G0 X126.212 Y30.611
G0 F3600 X126.279 Y30.112
G1 F1800 X102.625 Y6.458 E217.26989
G0 X102.555 Y6.388
G0 F3600 X102.879 Y6.146
G1 F1800 X126.393 Y29.661 E218.92896
G0 X126.463 Y29.731
G0 F3600 X126.487 Y29.189
G1 F1800 X103.151 Y5.853 E220.57544
G0 X103.081 Y5.783
G0 F3600 X103.448 Y5.584
G1 F1800 X126.56 Y28.696 E222.20612
G0 X126.63 Y28.766
G0 F3600 X126.597 Y28.168
G1 F1800 X103.765 Y5.336 E223.81704
G0 X103.695 Y5.266
G0 F3600 X104.09 Y5.095
G1 F1800 X126.613 Y27.618 E225.40616
G0 X126.683 Y27.688
G0 F3600 X126.582 Y27.022
G1 F1800 X104.434 Y4.873 E226.96886
G0 X104.364 Y4.803
G0 F3600 X104.788 Y4.661
G1 F1800 X126.499 Y26.372 E228.50069
G0 X126.569 Y26.442
G0 F3600 X126.353 Y25.661
G1 F1800 X120.078 Y19.386 E228.94342
G0 X120.008 Y19.316
G0 F3600 X120.886 Y19.629
G1 F1800 X126.111 Y24.854 E229.31207
G0 X126.181 Y24.924
G0 F3600 X125.693 Y23.869
G1 F1800 X121.874 Y20.051 E229.58149
G0 X121.804 Y19.981
G0 F3600 X123.465 Y21.076
G1 F1800 X124.664 Y22.275 E229.66608
G0 X124.734 Y22.345
G0 F3600 X119.819 Y19.171
G0 X119.473 Y18.781
G1 F1800 X105.159 Y4.467 E230.67601
G0 X105.089 Y4.397
G0 F3600 X105.543 Y4.285
G1 F1800 X118.962 Y17.704 E231.6228
G0 X119.032 Y17.774
