;FLAVOR:RepRap
;TIME:1659
;Filament used: 1.71062m
;Layer height: 0.2
;Generated with Cura_SteamEngine master
M190 S60
M104 S215
M109 S215
G21 ;metric values
G90 ;absolute positioning
M82 ;set extruder to absolute mode
M107 ;start with the fan off
G28 X0 Y0 ;move X/Y to min endstops
G28 Z0 ;move Z to min endstops
G1 Z15.0 F9000 ;move the platform down 15mm
G92 E0 ;zero the extruded length
G1 F200 E3 ;extrude 3mm of feed stock
G92 E0 ;zero the extruded length again
G1 F9000
;Put printing message on LCD screen
M117 Printing...
;LAYER_COUNT:175
;LAYER:0
M107
G0 F3600 X73.582 Y25.177 Z0.3
;TYPE:WALL-OUTER
G1 F1800 X73.869 Y24.376 E0.04245
G1 X74.235 Y23.601 E0.08521
G1 X74.685 Y22.849 E0.12893
G1 X75.201 Y22.154 E0.17212
G1 X75.778 Y21.517 E0.215
G1 X76.414 Y20.941 E0.25781
G1 X77.109 Y20.425 E0.30099
G1 X77.853 Y19.98 E0.34424
G1 X78.64 Y19.607 E0.38769
G1 X79.441 Y19.321 E0.43012
G1 X80.157 Y19.141 E0.46696
G1 X80.904 Y17.559 E0.55424
G1 X82 Y15.727 E0.66075
G1 X82.652 Y14.847 E0.71539
G1 X82.576 Y14.712 E0.72312
G1 X82.37 Y13.89 E0.76539
G1 X82.244 Y13.038 E0.80836
G1 X82.2 Y12.173 E0.85157
G1 X82.244 Y11.309 E0.89474
G1 X82.37 Y10.457 E0.9377
G1 X82.582 Y9.61 E0.98126
G1 X82.869 Y8.809 E1.02371
G1 X83.235 Y8.034 E1.06647
G1 X83.685 Y7.282 E1.1102
G1 X84.201 Y6.587 E1.15338
G1 X84.778 Y5.95 E1.19626
G1 X85.414 Y5.374 E1.23907
G1 X86.109 Y4.858 E1.28225
G1 X86.853 Y4.413 E1.32551
G1 X87.64 Y4.04 E1.36896
G1 X88.441 Y3.754 E1.41139
G1 X89.284 Y3.543 E1.45474
G1 X90.136 Y3.417 E1.49771
G1 X91 Y3.373 E1.54087
G1 X91.865 Y3.417 E1.58408
G1 X92.717 Y3.543 E1.62705
G1 X93.56 Y3.754 E1.67041
G1 X94.361 Y4.04 E1.71284
G1 X95.148 Y4.413 E1.75629
G1 X95.892 Y4.858 E1.79954
G1 X96.587 Y5.374 E1.84273
G1 X97.206 Y5.936 E1.88444
G1 X97.403 Y6.275 E1.904
G1 X97.867 Y6.206 E1.9274
G1 X99.988 Y6.1 E2.03335
G1 X102.108 Y6.201 E2.13924
G1 X102.598 Y6.273 E2.16395
G1 X102.795 Y5.935 E2.18347
G1 X103.413 Y5.374 E2.22511
G1 X104.108 Y4.858 E2.26829
G1 X104.852 Y4.413 E2.31155
G1 X105.639 Y4.04 E2.355
G1 X106.44 Y3.754 E2.39743
G1 X107.283 Y3.543 E2.44078
G1 X108.135 Y3.417 E2.48375
G1 X108.999 Y3.373 E2.52691
G1 X109.864 Y3.417 E2.57012
G1 X110.716 Y3.543 E2.61309
G1 X111.559 Y3.754 E2.65645
G1 X112.36 Y4.04 E2.69888
G1 X113.147 Y4.413 E2.74233
G1 X113.891 Y4.858 E2.78558
G1 X114.586 Y5.374 E2.82877
G1 X115.222 Y5.95 E2.87158
G1 X115.799 Y6.587 E2.91446
G1 X116.315 Y7.282 E2.95764
G1 X116.765 Y8.034 E3.00136
G1 X117.131 Y8.809 E3.04412
G1 X117.418 Y9.61 E3.08657
G1 X117.63 Y10.457 E3.13013
G1 X117.756 Y11.309 E3.1731
G1 X117.8 Y12.173 E3.21626
G1 X117.756 Y13.038 E3.25947
G1 X117.63 Y13.89 E3.30244
G1 X117.424 Y14.712 E3.34472
G1 X117.348 Y14.847 E3.35245
G1 X117.991 Y15.714 E3.4063
G1 X119.074 Y17.518 E3.51128
G1 X119.844 Y19.141 E3.6009
G1 X120.559 Y19.321 E3.63768
G1 X121.36 Y19.607 E3.68012
G1 X122.147 Y19.98 E3.72357
G1 X122.891 Y20.425 E3.76682
G1 X123.586 Y20.941 E3.81
G1 X124.222 Y21.517 E3.85281
G1 X124.799 Y22.154 E3.89569
G1 X125.315 Y22.849 E3.93888
G1 X125.765 Y23.601 E3.9826
G1 X126.131 Y24.376 E4.02536
G1 X126.418 Y25.177 E4.06781
G1 X126.63 Y26.024 E4.11137
G1 X126.756 Y26.876 E4.15434
G1 X126.8 Y27.74 E4.1975
G1 X126.756 Y28.605 E4.24071
G1 X126.63 Y29.457 E4.28368
G1 X126.419 Y30.3 E4.32703
G1 X126.131 Y31.105 E4.36969
G1 X125.765 Y31.88 E4.41245
G1 X125.315 Y32.631 E4.45613
G1 X124.799 Y33.327 E4.49935
G1 X124.222 Y33.963 E4.54219
G1 X123.586 Y34.539 E4.585
G1 X122.891 Y35.056 E4.62822
G1 X122.143 Y35.504 E4.67172
G1 X121.364 Y35.872 E4.7147
G1 X120.559 Y36.16 E4.75735
G1 X119.844 Y36.339 E4.79413
G1 X119.096 Y37.922 E4.88148
G1 X118 Y39.754 E4.98798
G1 X117.348 Y40.634 E5.04262
G1 X117.424 Y40.769 E5.05035
G1 X117.63 Y41.591 E5.09263
G1 X117.756 Y42.441 E5.1355
G1 X117.8 Y43.307 E5.17876
G1 X117.757 Y44.167 E5.22172
G1 X117.631 Y45.02 E5.26474
G1 X117.419 Y45.867 E5.3083
G1 X117.131 Y46.671 E5.35091
G1 X116.765 Y47.447 E5.39371
G1 X116.318 Y48.193 E5.4371
G1 X115.799 Y48.894 E5.48061
G1 X115.222 Y49.53 E5.52346
G1 X114.586 Y50.106 E5.56627
G1 X113.891 Y50.623 E5.60948
G1 X113.143 Y51.071 E5.65298
G1 X112.364 Y51.439 E5.69596
G1 X111.557 Y51.728 E5.73873
G1 X110.719 Y51.937 E5.78182
G1 X109.864 Y52.064 E5.82494
G1 X109.005 Y52.107 E5.86785
G1 X108.141 Y52.065 E5.91101
G1 X107.286 Y51.939 E5.95412
G1 X106.448 Y51.73 E5.99721
G1 X105.641 Y51.442 E6.03996
G1 X104.857 Y51.071 E6.08323
G1 X104.117 Y50.63 E6.12621
G1 X103.418 Y50.11 E6.16967
G1 X102.799 Y49.548 E6.21139
G1 X102.6 Y49.205 E6.23117
G1 X102.135 Y49.274 E6.25462
G1 X100.012 Y49.38 E6.36067
G1 X97.892 Y49.279 E6.46656
G1 X97.402 Y49.207 E6.49127
G1 X97.205 Y49.545 E6.51079
G1 X96.587 Y50.106 E6.55243
G1 X95.892 Y50.623 E6.59564
G1 X95.144 Y51.071 E6.63914
G1 X94.365 Y51.439 E6.68212
G1 X93.558 Y51.728 E6.72489
G1 X92.72 Y51.937 E6.76798
G1 X91.865 Y52.064 E6.8111
G1 X91.005 Y52.107 E6.85406
G1 X90.142 Y52.065 E6.89717
G1 X89.287 Y51.939 E6.94028
G1 X88.449 Y51.73 E6.98337
G1 X87.642 Y51.442 E7.02612
G1 X86.858 Y51.071 E7.06939
G1 X86.118 Y50.63 E7.11237
G1 X85.419 Y50.11 E7.15584
G1 X84.787 Y49.537 E7.1984
G1 X84.201 Y48.894 E7.2418
G1 X83.689 Y48.203 E7.28471
G1 X83.244 Y47.46 E7.32791
G1 X82.872 Y46.676 E7.37121
G1 X82.583 Y45.869 E7.41397
G1 X82.372 Y45.03 E7.45713
G1 X82.246 Y44.178 E7.5001
G1 X82.201 Y43.313 E7.54332
G1 X82.243 Y42.449 E7.58647
G1 X82.368 Y41.597 E7.62943
G1 X82.573 Y40.776 E7.67165
G1 X82.654 Y40.637 E7.67968
G1 X82.015 Y39.777 E7.73313
G1 X80.921 Y37.953 E7.83924
G1 X80.07 Y36.157 E7.9384
G1 X79.422 Y36.153 E7.97072
G1 X78.636 Y35.872 E8.01237
G1 X77.857 Y35.504 E8.05535
G1 X77.109 Y35.056 E8.09885
G1 X76.414 Y34.539 E8.14207
G1 X75.778 Y33.963 E8.18488
G1 X75.201 Y33.327 E8.22772
G1 X74.685 Y32.631 E8.27094
G1 X74.237 Y31.884 E8.3144
G1 X73.871 Y31.107 E8.35725
G1 X73.58 Y30.296 E8.40024
G1 X73.37 Y29.457 E8.44339
G1 X73.244 Y28.605 E8.48635
G1 X73.2 Y27.74 E8.52957
G1 X73.244 Y26.876 E8.57273
G1 X73.37 Y26.024 E8.6157
G1 X73.582 Y25.177 E8.65926
G0 F3600 X73.649 Y24.989
G0 X73.785 Y25.136
;TYPE:SKIN
G1 F1800 X97.72 Y49.071 E10.348
G0 X97.79 Y49.141
G0 F3600 X97.228 Y49.145
G1 F1800 X73.665 Y25.582 E12.0105
G0 X73.595 Y25.512
G0 F3600 X73.552 Y26.034
G1 F1800 X97.002 Y49.484 E13.66502
G0 X97.072 Y49.554
G0 F3600 X96.706 Y49.754
G1 F1800 X73.477 Y26.525 E15.30395
G0 X73.407 Y26.455
G0 F3600 X73.416 Y27.03
G1 F1800 X96.404 Y50.017 E16.92584
G0 X96.474 Y50.087
G0 F3600 X96.079 Y50.259
G1 F1800 X73.389 Y27.568 E18.52678
G0 X73.319 Y27.498
G0 F3600 X73.401 Y28.146
G1 F1800 X95.751 Y50.496 E20.10369
G0 X95.821 Y50.566
G0 F3600 X95.397 Y50.708
G1 F1800 X73.448 Y28.759 E21.65231
G0 X73.378 Y28.689
G0 F3600 X73.546 Y29.423
G1 F1800 X80.1 Y35.976 E22.1147
G0 X80.17 Y36.046
G0 F3600 X80.256 Y36.133
G1 F1800 X95.042 Y50.919 E23.15793
G0 X95.112 Y50.989
G0 F3600 X94.658 Y51.101
G1 F1800 X80.766 Y37.208 E24.13812
G0 X80.696 Y37.138
G0 F3600 X81.407 Y38.415
G1 F1800 X94.273 Y51.281 E25.04589
G0 X94.343 Y51.351
G0 F3600 X93.856 Y51.429
G1 F1800 X82.336 Y39.909 E25.85869
G0 X82.266 Y39.839
G0 F3600 X82.693 Y40.635
G0 X82.733 Y40.872
G1 F1800 X93.434 Y51.573 E26.6137
G0 X93.504 Y51.643
G0 F3600 X92.981 Y51.686
G1 F1800 X82.619 Y41.324 E27.3448
G0 X82.549 Y41.254
G0 F3600 X82.52 Y41.79
G1 F1800 X92.514 Y51.784 E28.04993
G0 X92.584 Y51.854
G0 F3600 X92.021 Y51.857
G1 F1800 X82.448 Y42.284 E28.72535
G0 X82.378 Y42.214
G0 F3600 X82.405 Y42.807
G1 F1800 X91.499 Y51.901 E29.36698
G0 X91.569 Y51.971
G0 F3600 X90.956 Y51.924
G1 F1800 X82.382 Y43.349 E29.97196
G0 X82.312 Y43.279
G0 F3600 X82.413 Y43.946
G1 F1800 X90.361 Y51.894 E30.53274
G0 X90.431 Y51.964
G0 F3600 X89.721 Y51.821
G1 F1800 X82.487 Y44.586 E31.04317
G0 X82.417 Y44.516
G0 F3600 X82.621 Y45.285
G1 F1800 X89.023 Y51.688 E31.4949
G0 X89.093 Y51.758
G0 F3600 X88.231 Y51.461
G1 F1800 X82.847 Y46.077 E31.87477
G0 X82.777 Y46.007
G0 F3600 X83.243 Y47.039
G1 F1800 X87.271 Y51.067 E32.15897
G0 X87.341 Y51.137
G0 F3600 X85.833 Y50.195
G1 F1800 X84.115 Y48.477 E32.28018
G0 X84.045 Y48.407
G0 F3600 X82.693 Y40.635
G0 X80.091 Y36.124
G0 X79.53 Y35.972
G1 F1800 X73.734 Y30.177 E32.68908
G0 X73.664 Y30.107
G0 F3600 X74.041 Y31.049
G1 F1800 X78.693 Y35.701 E33.01731
G0 X78.763 Y35.771
G0 F3600 X77.516 Y35.09
G1 F1800 X74.649 Y32.222 E33.21963
G0 X74.579 Y32.152
G0 F3600 X73.935 Y24.72
G1 F1800 X98.333 Y49.118 E34.94104
G0 X98.403 Y49.188
G0 F3600 X98.927 Y49.147
G1 F1800 X74.095 Y24.315 E36.69307
G0 X74.025 Y24.245
G0 F3600 X74.276 Y23.93
G1 F1800 X99.521 Y49.175 E38.47424
G0 X99.591 Y49.245
G0 F3600 X100.106 Y49.194
G1 F1800 X74.469 Y23.557 E40.28307
G0 X74.399 Y23.487
G0 F3600 X74.681 Y23.204
G1 F1800 X100.644 Y49.167 E42.1149
G0 X100.714 Y49.237
G0 F3600 X101.183 Y49.14
G1 F1800 X74.9 Y22.857 E43.96931
G0 X74.83 Y22.787
G0 F3600 X75.142 Y22.534
G1 F1800 X101.722 Y49.113 E45.84463
G0 X101.792 Y49.183
G0 F3600 X102.248 Y49.073
G1 F1800 X75.388 Y22.213 E47.73975
G0 X75.318 Y22.143
G0 F3600 X75.656 Y21.916
G1 F1800 X104.228 Y50.488 E49.75566
G0 X104.298 Y50.558
G0 F3600 X105.465 Y51.159
G1 F1800 X75.928 Y21.622 E51.83965
G0 X75.858 Y21.552
G0 F3600 X76.225 Y21.353
G1 F1800 X106.39 Y51.519 E53.96799
G0 X106.46 Y51.589
G0 F3600 X107.159 Y51.722
G1 F1800 X76.522 Y21.085 E56.1296
G0 X76.452 Y21.015
G0 F3600 X76.846 Y20.844
G1 F1800 X107.84 Y51.837 E58.31636
G0 X107.91 Y51.907
G0 F3600 X108.468 Y51.9
G1 F1800 X77.171 Y20.602 E60.52457
G0 X77.101 Y20.532
G0 F3600 X77.522 Y20.388
G1 F1800 X109.058 Y51.924 E62.7496
G0 X109.128 Y51.994
G0 F3600 X109.596 Y51.896
G1 F1800 X77.876 Y20.176 E64.98762
G0 X77.806 Y20.106
G0 F3600 X78.254 Y19.989
G1 F1800 X110.11 Y51.845 E67.23523
G0 X110.18 Y51.915
G0 F3600 X110.603 Y51.772
G1 F1800 X78.638 Y19.807 E69.49053
G0 X78.568 Y19.737
G0 F3600 X79.048 Y19.651
G1 F1800 X111.062 Y51.665 E71.7493
G0 X111.132 Y51.735
G0 F3600 X111.514 Y51.551
G1 F1800 X79.466 Y19.503 E74.01046
G0 X79.396 Y19.433
G0 F3600 X79.915 Y19.387
G1 F1800 X111.931 Y51.403 E76.26936
G0 X112.001 Y51.473
G0 F3600 X112.343 Y51.249
G1 F1800 X80.316 Y19.222 E78.52903
G0 X80.246 Y19.152
G0 F3600 X80.497 Y18.838
G1 F1800 X112.727 Y51.067 E80.803
G0 X112.797 Y51.137
G0 F3600 X113.106 Y50.881
G1 F1800 X80.679 Y18.454 E83.0909
G0 X80.609 Y18.384
G0 F3600 X80.86 Y18.069
G1 F1800 X113.46 Y50.669 E85.39101
G0 X113.53 Y50.739
G0 F3600 X113.813 Y50.456
G1 F1800 X81.042 Y17.685 E87.70318
G0 X80.972 Y17.615
G0 F3600 X81.25 Y17.328
G1 F1800 X114.137 Y50.215 E90.02353
G0 X114.207 Y50.285
G0 F3600 X114.461 Y49.973
G1 F1800 X81.462 Y16.974 E92.35179
G0 X81.392 Y16.904
G0 F3600 X81.674 Y16.62
G1 F1800 X114.759 Y49.705 E94.68612
G0 X114.829 Y49.775
G0 F3600 X115.056 Y49.436
G1 F1800 X81.885 Y16.266 E97.02647
G0 X81.815 Y16.196
G0 F3600 X82.097 Y15.912
G1 F1800 X115.329 Y49.143 E99.37114
G0 X115.399 Y49.213
G0 F3600 X115.598 Y48.847
G1 F1800 X82.331 Y15.58 E101.7183
G0 X82.261 Y15.51
G0 F3600 X82.571 Y15.255
G1 F1800 X115.845 Y48.528 E104.06593
G0 X115.915 Y48.598
G0 F3600 X116.085 Y48.203
G1 F1800 X82.812 Y14.929 E106.41355
G0 X82.742 Y14.859
G0 F3600 X82.626 Y14.178
G1 F1800 X116.307 Y47.859 E108.78993
G0 X116.377 Y47.929
G0 F3600 X116.519 Y47.506
G1 F1800 X82.489 Y13.476 E111.19093
G0 X82.419 Y13.406
G0 F3600 X82.413 Y12.833
G1 F1800 X116.713 Y47.134 E113.61101
G0 X116.783 Y47.204
G0 F3600 X116.894 Y46.749
G1 F1800 X82.382 Y12.237 E116.04602
G0 X82.312 Y12.167
G0 F3600 X82.404 Y11.693
G1 F1800 X117.056 Y46.345 E118.49091
G0 X117.126 Y46.415
G0 F3600 X117.205 Y45.929
G1 F1800 X82.445 Y11.169 E120.94341
G0 X82.375 Y11.099
G0 F3600 X82.518 Y10.676
G1 F1800 X117.328 Y45.486 E123.39945
G0 X117.398 Y45.556
G0 F3600 X117.441 Y45.033
G1 F1800 X82.616 Y10.209 E125.8565
G0 X82.546 Y10.139
G0 F3600 X82.73 Y9.756
G1 F1800 X117.518 Y44.544 E128.31099
G0 X117.588 Y44.614
G0 F3600 X117.581 Y44.042
G1 F1800 X82.87 Y9.331 E130.76003
G0 X82.8 Y9.261
G0 F3600 X83.02 Y8.915
G1 F1800 X117.608 Y43.504 E133.20044
G0 X117.678 Y43.574
G0 F3600 X117.599 Y42.929
G1 F1800 X83.198 Y8.528 E135.62762
G0 X83.128 Y8.458
G0 F3600 X83.38 Y8.144
G1 F1800 X117.555 Y42.318 E138.03881
G0 X117.625 Y42.388
G0 F3600 X117.456 Y41.654
G1 F1800 X83.59 Y7.788 E140.42824
G0 X83.52 Y7.718
G0 F3600 X83.802 Y7.434
G1 F1800 X117.272 Y40.904 E142.78973
G0 X117.342 Y40.974
G0 F3600 X117.312 Y40.379
G1 F1800 X84.038 Y7.105 E145.13739
G0 X83.968 Y7.035
G0 F3600 X84.28 Y6.781
G1 F1800 X117.553 Y40.054 E147.48498
G0 X117.623 Y40.124
G0 F3600 X117.794 Y39.729
G1 F1800 X84.541 Y6.477 E149.83112
G0 X84.471 Y6.407
G0 F3600 X84.809 Y6.179
G1 F1800 X118.012 Y39.382 E152.17377
G0 X118.082 Y39.452
G0 F3600 X118.224 Y39.028
G1 F1800 X85.098 Y5.902 E154.51099
G0 X85.028 Y5.832
G0 F3600 X85.395 Y5.633
G1 F1800 X118.436 Y38.674 E156.84221
G0 X118.506 Y38.744
G0 F3600 X118.647 Y38.32
G1 F1800 X85.707 Y5.38 E159.16631
G0 X85.637 Y5.31
G0 F3600 X86.032 Y5.139
G1 F1800 X118.859 Y37.966 E161.48243
G0 X118.929 Y38.036
G0 F3600 X119.052 Y37.594
G1 F1800 X86.37 Y4.911 E163.78836
G0 X86.3 Y4.841
G0 F3600 X86.724 Y4.7
G1 F1800 X119.234 Y37.21 E166.08211
G0 X119.304 Y37.28
G0 F3600 X119.415 Y36.825
G1 F1800 X87.09 Y4.5 E168.36282
G0 X87.02 Y4.43
G0 F3600 X87.474 Y4.319
G1 F1800 X119.597 Y36.441 E170.62923
G0 X119.667 Y36.511
G0 F3600 X119.868 Y36.147
G1 F1800 X87.87 Y4.149 E172.88686
G0 X87.8 Y4.079
G0 F3600 X88.287 Y4
G1 F1800 X120.32 Y36.033 E175.14697
G0 X120.39 Y36.103
G0 F3600 X120.751 Y35.899
G1 F1800 X88.722 Y3.869 E177.40682
G0 X88.652 Y3.799
G0 F3600 X89.174 Y3.756
G1 F1800 X121.169 Y35.75 E179.6642
G0 X121.239 Y35.82
G0 F3600 X121.562 Y35.578
G1 F1800 X89.654 Y3.67 E181.91549
G0 X89.584 Y3.6
G0 F3600 X90.147 Y3.597
G1 F1800 X121.946 Y35.397 E184.15911
G0 X122.016 Y35.467
G0 F3600 X122.308 Y35.193
G1 F1800 X90.685 Y3.57 E186.39029
G0 X90.615 Y3.5
G0 F3600 X91.247 Y3.566
G1 F1800 X122.662 Y34.981 E188.60678
G0 X122.732 Y35.051
G0 F3600 X122.998 Y34.751
G1 F1800 X91.843 Y3.597 E190.8049
G0 X91.773 Y3.527
G0 F3600 X92.507 Y3.694
G1 F1800 X123.322 Y34.509 E192.97907
G0 X123.392 Y34.579
G0 F3600 X123.631 Y34.253
G1 F1800 X93.237 Y3.859 E195.12353
G0 X93.167 Y3.789
G0 F3600 X94.072 Y4.128
G1 F1800 X123.928 Y33.984 E197.23003
G0 X123.998 Y34.054
G0 F3600 X124.214 Y33.704
G1 F1800 X95.11 Y4.601 E199.28344
G0 X95.04 Y4.531
G0 F3600 X97.515 Y6.44
G1 F1800 X124.483 Y33.407 E201.18614
G0 X124.553 Y33.477
G0 F3600 X124.742 Y33.101
G1 F1800 X98.02 Y6.379 E203.07152
G0 X97.95 Y6.309
G0 F3600 X98.558 Y6.351
G1 F1800 X124.983 Y32.776 E204.93595
G0 X125.053 Y32.846
G0 F3600 X125.216 Y32.444
G1 F1800 X99.097 Y6.325 E206.77879
G0 X99.027 Y6.255
G0 F3600 X99.636 Y6.298
G1 F1800 X125.428 Y32.09 E208.59855
G0 X125.498 Y32.16
G0 F3600 X125.635 Y31.732
G1 F1800 X100.194 Y6.29 E210.39359
G0 X100.124 Y6.22
G0 F3600 X100.788 Y6.318
G1 F1800 X125.817 Y31.348 E212.15955
G0 X125.887 Y31.418
G0 F3600 X125.993 Y30.958
G1 F1800 X101.382 Y6.346 E213.89603
G0 X101.312 Y6.276
G0 F3600 X101.976 Y6.375
G1 F1800 X126.142 Y30.541 E215.60107
G0 X126.212 Y30.611
G0 F3600 X126.279 Y30.112
G1 F1800 X102.626 Y6.46 E217.26988
G0 X102.556 Y6.39
G0 F3600 X102.879 Y6.146
G1 F1800 X126.393 Y29.661 E218.92896
G0 X126.463 Y29.731
G0 F3600 X126.487 Y29.189
G1 F1800 X103.151 Y5.853 E220.57544
G0 X103.081 Y5.783
G0 F3600 X103.448 Y5.584
G1 F1800 X126.56 Y28.696 E222.20611
G0 X126.63 Y28.766
G0 F3600 X126.597 Y28.168
G1 F1800 X103.765 Y5.336 E223.81703
G0 X103.695 Y5.266
G0 F3600 X104.09 Y5.095
G1 F1800 X126.613 Y27.618 E225.40615
G0 X126.683 Y27.688
G0 F3600 X126.582 Y27.022
G1 F1800 X104.434 Y4.873 E226.96885
G0 X104.364 Y4.803
G0 F3600 X104.788 Y4.661
G1 F1800 X126.499 Y26.372 E228.50068
G0 X126.569 Y26.442
G0 F3600 X126.353 Y25.661
G1 F1800 X120.078 Y19.386 E228.94341
G0 X120.008 Y19.316
G0 F3600 X120.886 Y19.629
G1 F1800 X126.111 Y24.854 E229.31207
G0 X126.181 Y24.924
G0 F3600 X125.693 Y23.869
G1 F1800 X121.874 Y20.051 E229.58148
G0 X121.804 Y19.981
G0 F3600 X123.465 Y21.076
G1 F1800 X124.664 Y22.275 E229.66608
G0 X124.734 Y22.345
G0 F3600 X119.819 Y19.171
G0 X119.474 Y18.782
G1 F1800 X105.159 Y4.467 E230.67608
G0 X105.089 Y4.397
G0 F3600 X105.543 Y4.285
G1 F1800 X118.963 Y17.705 E231.62293
G0 X119.033 Y17.775
G0 F3600 X118.148 Y16.324
