;FLAVOR:RepRap
;TIME:1085
;Filament used: 0.803822m
;Layer height: 0.2
;Generated with Cura_SteamEngine master
M190 S60
M104 S215
M109 S215
G21 ;metric values
G90 ;absolute positioning
M82 ;set extruder to absolute mode
M107 ;start with the fan off
G28 X0 Y0 ;move X/Y to min endstops
G28 Z0 ;move Z to min endstops
G1 Z15.0 F9000 ;move the platform down 15mm
G92 E0 ;zero the extruded length
G1 F200 E3 ;extrude 3mm of feed stock
G92 E0 ;zero the extruded length again
G1 F9000
;Put printing message on LCD screen
M117 Printing...
;LAYER_COUNT:172
;LAYER:0
M107
G0 F3600 X91.243 Y87.439 Z0.3
;TYPE:WALL-OUTER
G1 F1800 X91.604 Y87.113 E0.02427
G1 X92.001 Y86.818 E0.04894
G1 X92.426 Y86.564 E0.07364
G1 X92.877 Y86.35 E0.09855
G1 X93.328 Y86.189 E0.12244
G1 X93.81 Y86.069 E0.14722
G1 X94.295 Y85.997 E0.17168
G1 X94.788 Y85.972 E0.19631
G1 X95.281 Y85.997 E0.22094
G1 X95.766 Y86.069 E0.2454
G1 X96.248 Y86.189 E0.27018
G1 X96.699 Y86.35 E0.29407
G1 X97.15 Y86.564 E0.31898
G1 X97.575 Y86.818 E0.34368
G1 X97.972 Y87.113 E0.36836
G1 X98.315 Y87.424 E0.39145
G1 X98.453 Y87.66 E0.40509
G1 X98.771 Y87.613 E0.42113
G1 X99.992 Y87.551 E0.48213
G1 X101.213 Y87.61 E0.54311
G1 X101.548 Y87.658 E0.56
G1 X101.683 Y87.425 E0.57343
G1 X102.028 Y87.113 E0.59664
G1 X102.425 Y86.818 E0.62131
G1 X102.85 Y86.564 E0.64602
G1 X103.301 Y86.35 E0.67092
G1 X103.752 Y86.189 E0.69481
G1 X104.234 Y86.069 E0.71959
G1 X104.719 Y85.997 E0.74405
G1 X105.212 Y85.972 E0.76868
G1 X105.705 Y85.997 E0.79331
G1 X106.19 Y86.069 E0.81777
G1 X106.672 Y86.189 E0.84255
G1 X107.123 Y86.35 E0.86644
G1 X107.574 Y86.564 E0.89135
G1 X107.999 Y86.818 E0.91605
G1 X108.396 Y87.113 E0.94073
G1 X108.757 Y87.439 E0.96499
G1 X109.084 Y87.8 E0.98929
G1 X109.378 Y88.197 E1.01394
G1 X109.632 Y88.622 E1.03864
G1 X109.847 Y89.075 E1.06366
G1 X110.006 Y89.52 E1.08723
G1 X110.128 Y90.006 E1.11223
G1 X110.2 Y90.491 E1.1367
G1 X110.225 Y90.984 E1.16132
G1 X110.2 Y91.477 E1.18595
G1 X110.128 Y91.962 E1.21041
G1 X110.013 Y92.422 E1.23407
G1 X109.946 Y92.537 E1.24071
G1 X110.345 Y93.074 E1.27408
G1 X110.975 Y94.126 E1.33526
G1 X111.434 Y95.092 E1.38862
G1 X111.881 Y95.204 E1.41161
G1 X112.343 Y95.37 E1.4361
G1 X112.783 Y95.577 E1.46036
G1 X113.212 Y95.834 E1.48531
G1 X113.609 Y96.129 E1.50999
G1 X113.97 Y96.456 E1.53429
G1 X114.301 Y96.823 E1.55894
G1 X114.587 Y97.207 E1.58283
G1 X114.845 Y97.638 E1.60789
G1 X115.06 Y98.092 E1.63295
G1 X115.221 Y98.542 E1.6568
G1 X115.339 Y99.014 E1.68107
G1 X115.413 Y99.51 E1.70609
G1 X115.438 Y100 E1.73057
G1 X115.413 Y100.49 E1.75505
G1 X115.34 Y100.981 E1.77981
G1 X115.221 Y101.458 E1.80434
G1 X115.06 Y101.908 E1.82818
G1 X114.845 Y102.362 E1.85324
G1 X114.587 Y102.793 E1.8783
G1 X114.301 Y103.177 E1.90219
G1 X113.97 Y103.544 E1.92685
G1 X113.609 Y103.871 E1.95115
G1 X113.212 Y104.166 E1.97583
G1 X112.783 Y104.423 E2.00078
G1 X112.343 Y104.63 E2.02503
G1 X111.881 Y104.796 E2.04953
G1 X111.434 Y104.908 E2.07252
G1 X110.988 Y105.852 E2.12461
G1 X110.355 Y106.912 E2.1862
G1 X109.946 Y107.463 E2.22044
G1 X110.013 Y107.578 E2.22708
G1 X110.128 Y108.038 E2.25073
G1 X110.2 Y108.518 E2.27495
G1 X110.225 Y109.016 E2.29982
G1 X110.2 Y109.509 E2.32445
G1 X110.128 Y109.994 E2.34891
G1 X110.007 Y110.476 E2.37371
G1 X109.847 Y110.925 E2.39749
G1 X109.632 Y111.378 E2.4225
G1 X109.378 Y111.803 E2.4472
G1 X109.084 Y112.2 E2.47185
G1 X108.757 Y112.561 E2.49615
G1 X108.396 Y112.887 E2.52042
G1 X108 Y113.181 E2.54502
G1 X107.574 Y113.436 E2.56979
G1 X107.123 Y113.65 E2.5947
G1 X106.672 Y113.811 E2.61859
G1 X106.19 Y113.931 E2.64337
G1 X105.705 Y114.003 E2.66783
G1 X105.214 Y114.028 E2.69236
G1 X104.724 Y114.004 E2.71684
G1 X104.235 Y113.932 E2.7415
G1 X103.758 Y113.814 E2.76601
G1 X103.305 Y113.652 E2.79001
G1 X102.849 Y113.436 E2.81519
G1 X102.433 Y113.188 E2.83935
G1 X102.03 Y112.89 E2.86435
G1 X101.687 Y112.578 E2.88749
G1 X101.549 Y112.34 E2.90121
G1 X101.229 Y112.387 E2.91735
G1 X100.008 Y112.449 E2.97834
G1 X98.786 Y112.39 E3.03938
G1 X98.452 Y112.341 E3.05622
G1 X98.316 Y112.575 E3.06973
G1 X97.972 Y112.887 E3.09289
G1 X97.576 Y113.181 E3.1175
G1 X97.15 Y113.436 E3.14227
G1 X96.699 Y113.65 E3.16718
G1 X96.248 Y113.811 E3.19107
G1 X95.766 Y113.931 E3.21585
G1 X95.281 Y114.003 E3.24031
G1 X94.79 Y114.028 E3.26484
G1 X94.3 Y114.004 E3.28931
G1 X93.811 Y113.932 E3.31397
G1 X93.334 Y113.814 E3.33849
G1 X92.881 Y113.652 E3.36249
G1 X92.425 Y113.436 E3.38766
G1 X92.009 Y113.188 E3.41183
G1 X91.606 Y112.89 E3.43683
G1 X91.246 Y112.564 E3.46106
G1 X90.919 Y112.203 E3.48536
G1 X90.618 Y111.796 E3.51062
G1 X90.373 Y111.387 E3.5344
G1 X90.155 Y110.929 E3.55971
G1 X89.995 Y110.48 E3.58349
G1 X89.874 Y109.999 E3.60823
G1 X89.801 Y109.511 E3.63285
G1 X89.776 Y109.019 E3.65743
G1 X89.799 Y108.527 E3.682
G1 X89.871 Y108.042 E3.70646
G1 X89.986 Y107.582 E3.73012
G1 X90.053 Y107.462 E3.73698
G1 X89.655 Y106.926 E3.77028
G1 X89.023 Y105.87 E3.83168
G1 X88.511 Y104.791 E3.89127
G1 X88.097 Y104.788 E3.91192
G1 X87.657 Y104.63 E3.93525
G1 X87.217 Y104.423 E3.95951
G1 X86.788 Y104.166 E3.98446
G1 X86.391 Y103.871 E4.00913
G1 X86.03 Y103.544 E4.03343
G1 X85.699 Y103.177 E4.05809
G1 X85.413 Y102.793 E4.08198
G1 X85.155 Y102.362 E4.10704
G1 X84.94 Y101.908 E4.1321
G1 X84.779 Y101.458 E4.15594
G1 X84.66 Y100.981 E4.18047
G1 X84.587 Y100.49 E4.20523
G1 X84.562 Y100 E4.22971
G1 X84.587 Y99.51 E4.25419
G1 X84.661 Y99.014 E4.27921
G1 X84.779 Y98.542 E4.30348
G1 X84.94 Y98.092 E4.32733
G1 X85.155 Y97.638 E4.35239
G1 X85.413 Y97.207 E4.37745
G1 X85.699 Y96.823 E4.40134
G1 X86.03 Y96.456 E4.42599
G1 X86.391 Y96.129 E4.45029
G1 X86.788 Y95.834 E4.47497
G1 X87.217 Y95.577 E4.49992
G1 X87.657 Y95.37 E4.52418
G1 X88.119 Y95.204 E4.54867
G1 X88.566 Y95.092 E4.57166
G1 X89.012 Y94.148 E4.62375
G1 X89.648 Y93.084 E4.68559
G1 X90.054 Y92.537 E4.71958
G1 X89.987 Y92.422 E4.72622
G1 X89.872 Y91.962 E4.74988
G1 X89.8 Y91.477 E4.77434
G1 X89.775 Y90.984 E4.79896
G1 X89.8 Y90.491 E4.82359
G1 X89.872 Y90.006 E4.84805
G1 X89.994 Y89.52 E4.87305
G1 X90.153 Y89.075 E4.89663
G1 X90.368 Y88.622 E4.92165
G1 X90.622 Y88.197 E4.94635
G1 X90.916 Y87.8 E4.97099
G1 X91.243 Y87.439 E4.99529
G0 F3600 X91.391 Y87.305
G0 X91.451 Y87.491
;TYPE:SKIN
G1 F1800 X110.416 Y106.457 E6.33341
G0 X110.486 Y106.527
G0 F3600 X110.205 Y106.811
G1 F1800 X91.174 Y87.78 E7.67615
G0 X91.104 Y87.71
G0 F3600 X90.921 Y88.093
G1 F1800 X109.965 Y107.136 E9.01977
G0 X110.035 Y107.206
G0 F3600 X109.752 Y107.49
G1 F1800 X90.692 Y88.429 E10.3646
G0 X90.622 Y88.359
G0 F3600 X90.487 Y88.789
G1 F1800 X109.982 Y108.285 E11.74011
G0 X110.052 Y108.355
G0 F3600 X110.037 Y108.906
G1 F1800 X90.306 Y89.175 E13.13224
G0 X90.236 Y89.105
G0 F3600 X90.159 Y89.593
G1 F1800 X110.021 Y109.455 E14.53361
G0 X110.091 Y109.525
G0 F3600 X109.952 Y109.952
G1 F1800 X90.046 Y90.046 E15.93808
G0 X89.976 Y89.976
G0 F3600 X89.977 Y90.543
G1 F1800 X109.839 Y110.404 E17.33942
G0 X109.909 Y110.474
G0 F3600 X109.692 Y110.824
G1 F1800 X89.96 Y91.092 E18.73162
G0 X89.89 Y91.022
G0 F3600 X90.017 Y91.714
G1 F1800 X109.512 Y111.209 E20.1071
G0 X109.582 Y111.279
G0 F3600 X109.307 Y111.57
G1 F1800 X90.246 Y92.509 E21.45195
G0 X90.176 Y92.439
G0 F3600 X90.034 Y92.862
G1 F1800 X109.077 Y111.906 E22.79557
G0 X109.147 Y111.976
G0 F3600 X108.824 Y112.218
G1 F1800 X89.794 Y93.188 E24.13824
G0 X89.724 Y93.118
G0 F3600 X89.582 Y93.542
G1 F1800 X108.547 Y112.507 E25.47633
G0 X108.617 Y112.577
G0 F3600 X108.246 Y112.772
G1 F1800 X89.371 Y93.896 E26.8081
G0 X89.301 Y93.826
G0 F3600 X89.16 Y94.251
G1 F1800 X107.922 Y113.013 E28.13186
G0 X107.992 Y113.083
G0 F3600 X107.57 Y113.226
G1 F1800 X88.979 Y94.636 E29.44352
G0 X88.909 Y94.566
G0 F3600 X88.797 Y95.02
G1 F1800 X107.193 Y113.415 E30.74142
G0 X107.263 Y113.485
G0 F3600 X106.789 Y113.577
G1 F1800 X88.504 Y95.292 E32.03152
G0 X88.434 Y95.222
G0 F3600 X88.061 Y95.415
G1 F1800 X106.35 Y113.704 E33.32191
G0 X106.42 Y113.774
G0 F3600 X105.875 Y113.794
G1 F1800 X87.65 Y95.57 E34.60775
G0 X87.58 Y95.5
G0 F3600 X87.269 Y95.754
G1 F1800 X105.354 Y113.839 E35.88374
G0 X105.424 Y113.909
G0 F3600 X104.774 Y113.825
G1 F1800 X86.916 Y95.967 E37.14372
G0 X86.846 Y95.897
G0 F3600 X86.589 Y96.206
G1 F1800 X104.094 Y113.711 E38.37879
G0 X104.164 Y113.781
G0 F3600 X103.236 Y113.419
G1 F1800 X86.285 Y96.467 E39.57481
G0 X86.215 Y96.397
G0 F3600 X86.004 Y96.752
G1 F1800 X101.425 Y112.174 E40.66288
G0 X101.495 Y112.244
G0 F3600 X100.907 Y112.221
G1 F1800 X85.745 Y97.058 E41.73268
G0 X85.675 Y96.988
G0 F3600 X85.511 Y97.391
G1 F1800 X100.369 Y112.248 E42.78096
G0 X100.439 Y112.318
G0 F3600 X99.813 Y112.258
G1 F1800 X85.301 Y97.746 E43.80486
G0 X85.231 Y97.676
G0 F3600 X85.12 Y98.131
G1 F1800 X99.218 Y112.229 E44.79955
G0 X99.288 Y112.299
G0 F3600 X98.603 Y112.179
G1 F1800 X84.968 Y98.544 E45.76157
G0 X84.898 Y98.474
G0 F3600 X84.85 Y98.992
G1 F1800 X98.227 Y112.369 E46.70539
G0 X98.297 Y112.439
G0 F3600 X97.952 Y112.66
G1 F1800 X84.772 Y99.48 E47.63531
G0 X84.702 Y99.41
G0 F3600 X84.743 Y100.017
G1 F1800 X97.636 Y112.91 E48.54498
G0 X97.706 Y112.98
G0 F3600 X97.297 Y113.136
G1 F1800 X84.789 Y100.629 E49.42745
G0 X84.719 Y100.559
G0 F3600 X84.934 Y101.339
G1 F1800 X88.202 Y104.607 E49.65803
G0 X88.272 Y104.677
G0 F3600 X87.278 Y104.249
G1 F1800 X85.328 Y102.299 E49.79561
G0 X85.258 Y102.229
G0 F3600 X88.532 Y104.758
G0 X89.002 Y105.406
G1 F1800 X96.933 Y113.337 E50.35518
G0 X97.003 Y113.407
G0 F3600 X96.542 Y113.513
G1 F1800 X89.729 Y106.7 E50.83588
G0 X89.659 Y106.63
G0 F3600 X90.092 Y107.46
G0 X90.146 Y107.682
G1 F1800 X96.12 Y113.656 E51.25738
G0 X96.19 Y113.726
G0 F3600 X95.661 Y113.763
G1 F1800 X90.038 Y108.139 E51.65414
G0 X89.968 Y108.069
G0 F3600 X89.973 Y108.641
G1 F1800 X95.159 Y113.827 E52.02005
G0 X95.229 Y113.897
G0 F3600 X94.604 Y113.837
G1 F1800 X89.965 Y109.198 E52.34735
G0 X89.895 Y109.128
G0 F3600 X90.03 Y109.829
G1 F1800 X93.973 Y113.772 E52.62555
G0 X94.043 Y113.842
G0 F3600 X93.215 Y113.579
G1 F1800 X90.224 Y110.589 E52.83655
G0 X90.154 Y110.519
G0 F3600 X90.772 Y111.702
G1 F1800 X92.104 Y113.035 E52.93056
G0 X92.174 Y113.105
G0 F3600 X110.628 Y106.102
G1 F1800 X91.752 Y87.227 E54.26233
G0 X91.682 Y87.157
G0 F3600 X92.077 Y86.986
G1 F1800 X110.838 Y105.747 E55.58602
G0 X110.908 Y105.817
G0 F3600 X111.02 Y105.363
G1 F1800 X92.429 Y86.772 E56.89772
G0 X92.359 Y86.702
G0 F3600 X92.806 Y86.583
G1 F1800 X111.201 Y104.978 E58.19558
G0 X111.271 Y105.048
G0 F3600 X111.494 Y104.706
G1 F1800 X93.21 Y86.421 E59.48565
G0 X93.14 Y86.351
G0 F3600 X93.648 Y86.294
G1 F1800 X111.937 Y104.583 E60.77604
G0 X112.007 Y104.653
G0 F3600 X112.347 Y104.428
G1 F1800 X94.124 Y86.204 E62.06181
G0 X94.054 Y86.134
G0 F3600 X94.646 Y86.16
G1 F1800 X112.729 Y104.243 E63.33766
G0 X112.799 Y104.313
G0 F3600 X113.083 Y104.032
G1 F1800 X95.226 Y86.175 E64.59757
G0 X95.156 Y86.105
G0 F3600 X95.906 Y86.289
G1 F1800 X113.41 Y103.793 E65.83257
G0 X113.48 Y103.863
G0 F3600 X113.714 Y103.531
G1 F1800 X96.762 Y86.58 E67.02859
G0 X96.692 Y86.51
G0 F3600 X98.572 Y87.824
G1 F1800 X113.994 Y103.246 E68.1167
G0 X114.064 Y103.316
G0 F3600 X114.253 Y102.939
G1 F1800 X99.091 Y87.777 E69.18646
G0 X99.021 Y87.707
G0 F3600 X99.629 Y87.75
G1 F1800 X114.487 Y102.608 E70.23477
G0 X114.557 Y102.678
G0 F3600 X114.697 Y102.252
G1 F1800 X100.186 Y87.741 E71.2586
G0 X100.116 Y87.671
G0 F3600 X100.781 Y87.77
G1 F1800 X114.878 Y101.867 E72.25322
G0 X114.948 Y101.937
G0 F3600 X115.031 Y101.454
G1 F1800 X101.394 Y87.817 E73.21538
G0 X101.324 Y87.747
G0 F3600 X101.771 Y87.628
G1 F1800 X115.148 Y101.006 E74.15924
G0 X115.218 Y101.076
G0 F3600 X115.225 Y100.518
G1 F1800 X102.046 Y87.338 E75.08912
G0 X101.976 Y87.268
G0 F3600 X102.362 Y87.088
G1 F1800 X115.255 Y99.982 E75.99883
G0 X115.325 Y100.052
G0 F3600 X115.209 Y99.37
G1 F1800 X102.702 Y86.863 E76.88126
G0 X102.632 Y86.793
G0 F3600 X103.066 Y86.661
G1 F1800 X110.995 Y94.591 E77.44073
G0 X111.065 Y94.661
G0 F3600 X111.409 Y95.122
G0 X111.766 Y95.361
G1 F1800 X115.063 Y98.659 E77.67339
G0 X115.133 Y98.729
G0 F3600 X114.67 Y97.7
G1 F1800 X112.72 Y95.75 E77.81097
G0 X112.65 Y95.68
G0 F3600 X111.409 Y95.122
G0 X110.269 Y93.299
G1 F1800 X103.456 Y86.486 E78.29167
G0 X103.386 Y86.416
G0 F3600 X103.878 Y86.342
G1 F1800 X109.853 Y92.317 E78.71323
G0 X109.923 Y92.387
G0 F3600 X109.96 Y91.858
M104 S210
G1 F1800 X104.337 Y86.235 E79.10997
G0 X104.267 Y86.165
G0 F3600 X104.839 Y86.172
G1 F1800 X110.025 Y91.357 E79.47583
G0 X110.095 Y91.427
G0 F3600 X110.034 Y90.8
G1 F1800 X105.395 Y86.162 E79.8031
G0 X105.325 Y86.092
G0 F3600 X106.026 Y86.227
G1 F1800 X109.969 Y90.17 E80.0813
G0 X110.039 Y90.24
G0 F3600 X109.775 Y89.41
G1 F1800 X106.785 Y86.421 E80.29223
G0 X106.715 Y86.351
G0 F3600 X107.897 Y86.967
G1 F1800 X109.228 Y88.298 E80.38614
G0 X109.298 Y88.368
G0 F3600 X109.088 Y88.492
;TIME_ELAPSED:58.158360
;LAYER:1
M140 S60
M106 S255
G0 F5400 X109.003 Y88.542 Z0.5
G0 X107.713 Y89.309
;TYPE:WALL-INNER
G1 F2700 X107.87 Y89.571 E80.3963
G1 X107.99 Y89.823 E80.40558
G1 X108.089 Y90.101 E80.4154
G1 X108.164 Y90.396 E80.42552
G1 X108.21 Y90.722 E80.43647
G1 X108.225 Y90.984 E80.4452
G1 X108.21 Y91.244 E80.45386
G1 X108.163 Y91.569 E80.46478
G1 X108.132 Y91.691 E80.46897
G1 X107.578 Y92.705 E80.5074
G1 X108.68 Y94.188 E80.56885
G1 X109.206 Y95.063 E80.60281
G1 X110.034 Y96.802 E80.66687
G1 X111.309 Y97.121 E80.71058
G1 X111.556 Y97.211 E80.71933
G1 X111.84 Y97.345 E80.72977
G1 X112.101 Y97.501 E80.73989
G1 X112.341 Y97.679 E80.74982
G1 X112.562 Y97.878 E80.75971
G1 X112.75 Y98.088 E80.76909
G1 X112.92 Y98.316 E80.77855
G1 X113.074 Y98.573 E80.78851
G1 X113.213 Y98.869 E80.79939
G1 X113.308 Y99.133 E80.80872
G1 X113.369 Y99.377 E80.81709
G1 X113.423 Y99.75 E80.82962
G1 X113.438 Y100 E80.83795
G1 X113.423 Y100.252 E80.84635
G1 X113.37 Y100.618 E80.85865
G1 X113.308 Y100.868 E80.86722
G1 X113.213 Y101.131 E80.87652
G1 X113.074 Y101.427 E80.88739
G1 X112.92 Y101.684 E80.89736
G1 X112.75 Y101.912 E80.90682
G1 X112.562 Y102.122 E80.91619
G1 X112.341 Y102.321 E80.92608
G1 X112.101 Y102.499 E80.93602
G1 X111.84 Y102.655 E80.94613
G1 X111.556 Y102.789 E80.95658
G1 X111.31 Y102.879 E80.96529
G1 X110.029 Y103.198 E81.0092
G1 X109.206 Y104.936 E81.07316
G1 X108.697 Y105.786 E81.10611
G1 X107.551 Y107.339 E81.17031
G1 X108.143 Y108.346 E81.20916
G1 X108.163 Y108.425 E81.21187
G1 X108.21 Y108.75 E81.22279
G1 X108.222 Y108.973 E81.23022
G1 X108.206 Y109.315 E81.2416
G1 X108.163 Y109.609 E81.25149
G1 X108.089 Y109.896 E81.26135
G1 X107.991 Y110.176 E81.27121
G1 X107.873 Y110.424 E81.28035
G1 X107.713 Y110.69 E81.29067
G1 X107.541 Y110.924 E81.30033
G1 X107.344 Y111.143 E81.31013
G1 X107.117 Y111.347 E81.32028
G1 X106.892 Y111.514 E81.3296
G1 X106.622 Y111.676 E81.34007
G1 X106.382 Y111.79 E81.34891
G1 X106.072 Y111.901 E81.35986
G1 X105.831 Y111.961 E81.36812
G1 X105.468 Y112.013 E81.38032
G1 X105.259 Y112.025 E81.38728
G1 X104.913 Y112.009 E81.3988
G1 X104.604 Y111.963 E81.40919
G1 X104.332 Y111.896 E81.41851
G1 X104.076 Y111.805 E81.42754
G1 X103.785 Y111.667 E81.43826
G1 X103.537 Y111.518 E81.44788
G1 X103.317 Y111.355 E81.45699
G1 X103.264 Y111.307 E81.45936
G1 X102.599 Y110.165 E81.50332
G1 X101.006 Y110.396 E81.55685
G1 X100.056 Y110.446 E81.5885
G1 X98.973 Y110.396 E81.62455
G1 X97.402 Y110.166 E81.67736
G1 X96.741 Y111.304 E81.72114
G1 X96.468 Y111.514 E81.73259
G1 X96.198 Y111.676 E81.74306
G1 X95.958 Y111.79 E81.7519
G1 X95.648 Y111.901 E81.76285
G1 X95.407 Y111.961 E81.77111
G1 X95.044 Y112.013 E81.78331
G1 X94.835 Y112.025 E81.79027
G1 X94.489 Y112.009 E81.80179
G1 X94.18 Y111.963 E81.81218
G1 X93.908 Y111.896 E81.8215
G1 X93.652 Y111.805 E81.83054
G1 X93.361 Y111.667 E81.84125
G1 X93.113 Y111.518 E81.85087
G1 X92.893 Y111.355 E81.85998
G1 X92.655 Y111.14 E81.87065
G1 X92.474 Y110.941 E81.87959
G1 X92.282 Y110.68 E81.89037
G1 X92.137 Y110.438 E81.89975
G1 X92.003 Y110.155 E81.91017
G1 X91.924 Y109.935 E81.91794
G1 X91.838 Y109.596 E81.92957
G1 X91.791 Y109.278 E81.94027
G1 X91.779 Y109.056 E81.94766
G1 X91.794 Y108.709 E81.95921
G1 X91.836 Y108.423 E81.96883
G1 X91.852 Y108.359 E81.97102
G1 X92.457 Y107.341 E82.01041
G1 X91.319 Y105.812 E82.0738
