;FLAVOR:RepRap
;TIME:789
;Filament used: 0.614005m
;Layer height: 0.2
;Generated with Cura_SteamEngine master
M190 S60
M104 S215
M109 S215
G21 ;metric values
G90 ;absolute positioning
M82 ;set extruder to absolute mode
M107 ;start with the fan off
G28 X0 Y0 ;move X/Y to min endstops
G28 Z0 ;move Z to min endstops
G1 Z15.0 F9000 ;move the platform down 15mm
G92 E0 ;zero the extruded length
G1 F200 E3 ;extrude 3mm of feed stock
G92 E0 ;zero the extruded length again
G1 F9000
;Put printing message on LCD screen
M117 Printing...
;LAYER_COUNT:115
;LAYER:0
M107
G0 F3600 X91.243 Y87.439 Z0.3
;TYPE:WALL-OUTER
G1 F1800 X91.604 Y87.113 E0.02427
G1 X92.001 Y86.818 E0.04894
G1 X92.426 Y86.564 E0.07364
G1 X92.877 Y86.35 E0.09855
G1 X93.328 Y86.189 E0.12244
G1 X93.81 Y86.069 E0.14722
G1 X94.295 Y85.997 E0.17168
G1 X94.788 Y85.972 E0.19631
G1 X95.281 Y85.997 E0.22094
G1 X95.766 Y86.069 E0.2454
G1 X96.248 Y86.189 E0.27018
G1 X96.699 Y86.35 E0.29407
G1 X97.15 Y86.564 E0.31898
G1 X97.575 Y86.818 E0.34368
G1 X97.972 Y87.113 E0.36836
G1 X98.316 Y87.424 E0.39149
G1 X98.453 Y87.659 E0.40506
G1 X98.767 Y87.614 E0.42089
G1 X99.989 Y87.552 E0.48193
G1 X101.209 Y87.609 E0.54287
G1 X101.548 Y87.659 E0.55996
G1 X101.684 Y87.425 E0.57346
G1 X102.028 Y87.113 E0.59663
G1 X102.425 Y86.818 E0.62131
G1 X102.85 Y86.564 E0.64601
G1 X103.301 Y86.35 E0.67092
G1 X103.752 Y86.189 E0.69481
G1 X104.234 Y86.069 E0.71959
G1 X104.719 Y85.997 E0.74405
G1 X105.212 Y85.972 E0.76868
G1 X105.705 Y85.997 E0.7933
G1 X106.19 Y86.069 E0.81777
G1 X106.672 Y86.189 E0.84255
G1 X107.123 Y86.35 E0.86644
G1 X107.574 Y86.564 E0.89134
G1 X107.999 Y86.818 E0.91605
G1 X108.396 Y87.113 E0.94072
G1 X108.757 Y87.439 E0.96499
G1 X109.084 Y87.8 E0.98929
G1 X109.378 Y88.197 E1.01394
G1 X109.632 Y88.622 E1.03864
G1 X109.847 Y89.075 E1.06365
G1 X110.006 Y89.52 E1.08723
G1 X110.128 Y90.006 E1.11223
G1 X110.2 Y90.491 E1.13669
G1 X110.225 Y90.984 E1.16132
G1 X110.2 Y91.477 E1.18595
G1 X110.128 Y91.962 E1.21041
G1 X110.013 Y92.422 E1.23406
G1 X109.946 Y92.537 E1.2407
G1 X110.343 Y93.071 E1.2739
G1 X110.973 Y94.123 E1.33508
G1 X111.433 Y95.092 E1.38859
G1 X111.879 Y95.203 E1.41152
G1 X112.343 Y95.37 E1.43612
G1 X112.783 Y95.577 E1.46038
G1 X113.212 Y95.834 E1.48533
G1 X113.609 Y96.129 E1.51001
G1 X113.97 Y96.456 E1.53431
G1 X114.301 Y96.823 E1.55897
G1 X114.587 Y97.207 E1.58285
G1 X114.845 Y97.638 E1.60791
G1 X115.06 Y98.092 E1.63298
G1 X115.221 Y98.542 E1.65682
G1 X115.339 Y99.014 E1.68109
G1 X115.413 Y99.51 E1.70611
G1 X115.438 Y100 E1.73059
G1 X115.413 Y100.49 E1.75507
G1 X115.34 Y100.981 E1.77983
G1 X115.221 Y101.458 E1.80436
G1 X115.06 Y101.908 E1.8282
G1 X114.845 Y102.362 E1.85327
G1 X114.587 Y102.793 E1.87833
G1 X114.301 Y103.177 E1.90221
G1 X113.97 Y103.544 E1.92687
G1 X113.609 Y103.871 E1.95117
G1 X113.212 Y104.166 E1.97585
G1 X112.783 Y104.423 E2.0008
G1 X112.343 Y104.63 E2.02506
G1 X111.881 Y104.796 E2.04955
G1 X111.434 Y104.908 E2.07254
G1 X110.99 Y105.849 E2.12445
G1 X110.357 Y106.909 E2.18605
G1 X109.946 Y107.463 E2.22046
G1 X110.013 Y107.578 E2.2271
G1 X110.128 Y108.038 E2.25076
G1 X110.2 Y108.519 E2.27502
G1 X110.225 Y109.016 E2.29985
G1 X110.201 Y109.503 E2.32417
G1 X110.128 Y109.994 E2.34894
G1 X110.007 Y110.476 E2.37373
G1 X109.847 Y110.925 E2.39751
G1 X109.634 Y111.375 E2.42235
G1 X109.381 Y111.798 E2.44694
G1 X109.084 Y112.2 E2.47188
G1 X108.757 Y112.561 E2.49618
G1 X108.396 Y112.887 E2.52044
G1 X108 Y113.181 E2.54505
G1 X107.574 Y113.436 E2.56982
G1 X107.123 Y113.65 E2.59473
G1 X106.672 Y113.811 E2.61862
G1 X106.19 Y113.931 E2.6434
G1 X105.705 Y114.003 E2.66786
G1 X105.215 Y114.028 E2.69234
G1 X104.724 Y114.004 E2.71686
G1 X104.239 Y113.933 E2.74132
G1 X103.757 Y113.813 E2.7661
G1 X103.302 Y113.651 E2.7902
G1 X102.858 Y113.441 E2.8147
G1 X102.43 Y113.185 E2.83958
G1 X102.032 Y112.89 E2.8643
G1 X101.688 Y112.579 E2.88743
G1 X101.549 Y112.339 E2.90127
G1 X101.231 Y112.386 E2.91731
G1 X100.011 Y112.448 E2.97825
G1 X98.791 Y112.391 E3.03918
G1 X98.452 Y112.341 E3.05628
G1 X98.316 Y112.575 E3.06978
G1 X97.972 Y112.887 E3.09295
G1 X97.576 Y113.181 E3.11756
G1 X97.15 Y113.436 E3.14233
G1 X96.699 Y113.65 E3.16723
G1 X96.248 Y113.811 E3.19112
G1 X95.766 Y113.931 E3.21591
G1 X95.281 Y114.003 E3.24037
G1 X94.791 Y114.028 E3.26485
G1 X94.3 Y114.004 E3.28937
G1 X93.815 Y113.933 E3.31383
G1 X93.333 Y113.813 E3.33861
G1 X92.878 Y113.651 E3.3627
G1 X92.434 Y113.441 E3.38721
G1 X92.006 Y113.185 E3.41209
G1 X91.608 Y112.89 E3.4368
G1 X91.247 Y112.564 E3.46107
G1 X90.92 Y112.204 E3.48533
G1 X90.619 Y111.798 E3.51055
G1 X90.374 Y111.39 E3.53429
G1 X90.158 Y110.935 E3.55942
G1 X89.994 Y110.477 E3.58369
G1 X89.874 Y109.999 E3.60828
G1 X89.802 Y109.514 E3.63274
G1 X89.776 Y109.02 E3.65742
G1 X89.799 Y108.528 E3.68199
G1 X89.87 Y108.043 E3.70645
G1 X89.985 Y107.584 E3.73006
G1 X90.056 Y107.466 E3.73693
G1 X89.657 Y106.929 E3.7703
G1 X89.027 Y105.877 E3.83148
G1 X88.511 Y104.791 E3.89146
G1 X88.097 Y104.788 E3.91212
G1 X87.657 Y104.63 E3.93544
G1 X87.217 Y104.423 E3.9597
G1 X86.788 Y104.166 E3.98465
G1 X86.391 Y103.871 E4.00933
G1 X86.03 Y103.544 E4.03363
G1 X85.699 Y103.177 E4.05829
G1 X85.413 Y102.793 E4.08217
G1 X85.155 Y102.362 E4.10723
G1 X84.94 Y101.908 E4.1323
G1 X84.779 Y101.458 E4.15614
G1 X84.66 Y100.981 E4.18067
G1 X84.587 Y100.49 E4.20543
G1 X84.562 Y100 E4.22991
G1 X84.587 Y99.51 E4.25439
G1 X84.661 Y99.014 E4.27941
G1 X84.779 Y98.542 E4.30368
G1 X84.94 Y98.092 E4.32753
G1 X85.155 Y97.638 E4.35259
G1 X85.413 Y97.207 E4.37765
G1 X85.699 Y96.823 E4.40154
G1 X86.03 Y96.456 E4.42619
G1 X86.391 Y96.129 E4.45049
G1 X86.788 Y95.834 E4.47517
G1 X87.217 Y95.577 E4.50012
G1 X87.657 Y95.37 E4.52438
G1 X88.119 Y95.204 E4.54887
G1 X88.566 Y95.092 E4.57186
G1 X89.01 Y94.151 E4.62377
G1 X89.643 Y93.091 E4.68537
G1 X90.054 Y92.537 E4.71978
G1 X89.987 Y92.422 E4.72642
G1 X89.872 Y91.962 E4.75008
G1 X89.8 Y91.477 E4.77454
G1 X89.775 Y90.984 E4.79917
G1 X89.8 Y90.491 E4.82379
G1 X89.872 Y90.006 E4.84825
G1 X89.994 Y89.52 E4.87325
G1 X90.153 Y89.075 E4.89683
G1 X90.368 Y88.622 E4.92185
G1 X90.622 Y88.197 E4.94655
G1 X90.916 Y87.8 E4.97119
G1 X91.243 Y87.439 E4.99549
G0 F3600 X91.391 Y87.305
G0 X91.451 Y87.491
;TYPE:SKIN
G1 F1800 X110.416 Y106.457 E6.33361
G0 X110.486 Y106.527
G0 F3600 X110.205 Y106.811
G1 F1800 X91.174 Y87.78 E7.67635
G0 X91.104 Y87.71
G0 F3600 X90.921 Y88.093
G1 F1800 X109.965 Y107.136 E9.01997
G0 X110.035 Y107.206
G0 F3600 X109.752 Y107.49
G1 F1800 X90.692 Y88.429 E10.3648
G0 X90.622 Y88.359
G0 F3600 X90.487 Y88.789
G1 F1800 X109.982 Y108.285 E11.74031
G0 X110.052 Y108.355
G0 F3600 X110.039 Y108.907
G1 F1800 X90.306 Y89.175 E13.13254
G0 X90.236 Y89.105
G0 F3600 X90.159 Y89.593
G1 F1800 X110.022 Y109.456 E14.53399
G0 X110.092 Y109.526
G0 F3600 X109.952 Y109.952
G1 F1800 X90.046 Y90.046 E15.93846
G0 X89.976 Y89.976
G0 F3600 X89.977 Y90.543
G1 F1800 X109.839 Y110.404 E17.3398
G0 X109.909 Y110.474
G0 F3600 X109.692 Y110.824
G1 F1800 X89.96 Y91.092 E18.732
G0 X89.89 Y91.022
G0 F3600 X90.017 Y91.714
G1 F1800 X109.512 Y111.209 E20.10747
G0 X109.582 Y111.279
G0 F3600 X109.307 Y111.57
G1 F1800 X90.246 Y92.509 E21.45233
G0 X90.176 Y92.439
G0 F3600 X90.034 Y92.862
G1 F1800 X109.077 Y111.906 E22.79595
G0 X109.147 Y111.976
G0 F3600 X108.825 Y112.219
G1 F1800 X89.794 Y93.188 E24.13869
G0 X89.724 Y93.118
G0 F3600 X89.582 Y93.542
G1 F1800 X108.547 Y112.507 E25.47677
G0 X108.617 Y112.577
G0 F3600 X108.246 Y112.772
G1 F1800 X89.371 Y93.896 E26.80854
G0 X89.301 Y93.826
G0 F3600 X89.159 Y94.25
G1 F1800 X107.922 Y113.013 E28.13237
G0 X107.992 Y113.083
G0 F3600 X107.57 Y113.226
G1 F1800 X88.978 Y94.635 E29.44411
G0 X88.908 Y94.565
G0 F3600 X88.797 Y95.02
G1 F1800 X107.193 Y113.415 E30.74201
G0 X107.263 Y113.485
G0 F3600 X106.789 Y113.577
G1 F1800 X88.504 Y95.292 E32.03211
G0 X88.434 Y95.222
G0 F3600 X88.061 Y95.415
G1 F1800 X106.35 Y113.704 E33.3225
G0 X106.42 Y113.774
G0 F3600 X105.875 Y113.794
G1 F1800 X87.65 Y95.57 E34.60834
G0 X87.58 Y95.5
G0 F3600 X87.269 Y95.754
G1 F1800 X105.353 Y113.839 E35.8843
G0 X105.423 Y113.909
G0 F3600 X104.774 Y113.825
G1 F1800 X86.916 Y95.967 E37.14427
G0 X86.846 Y95.897
G0 F3600 X86.589 Y96.206
G1 F1800 X104.093 Y113.71 E38.37928
G0 X104.163 Y113.78
G0 F3600 X103.238 Y113.42
G1 F1800 X86.285 Y96.467 E39.5754
G0 X86.215 Y96.397
G0 F3600 X86.004 Y96.752
G1 F1800 X101.425 Y112.174 E40.66347
G0 X101.495 Y112.244
G0 F3600 X100.906 Y112.22
G1 F1800 X85.745 Y97.058 E41.7332
G0 X85.675 Y96.988
G0 F3600 X85.511 Y97.391
G1 F1800 X100.368 Y112.248 E42.78144
G0 X100.438 Y112.318
G0 F3600 X99.812 Y112.257
G1 F1800 X85.301 Y97.746 E43.80527
G0 X85.231 Y97.676
G0 F3600 X85.12 Y98.131
G1 F1800 X99.219 Y112.229 E44.79999
G0 X99.289 Y112.299
G0 F3600 X98.603 Y112.18
G1 F1800 X84.968 Y98.544 E45.76205
G0 X84.898 Y98.474
G0 F3600 X84.85 Y98.992
G1 F1800 X98.227 Y112.369 E46.70587
G0 X98.297 Y112.439
G0 F3600 X97.952 Y112.66
G1 F1800 X84.772 Y99.48 E47.63579
G0 X84.702 Y99.41
G0 F3600 X84.743 Y100.017
G1 F1800 X97.636 Y112.91 E48.54546
G0 X97.706 Y112.98
G0 F3600 X97.297 Y113.136
G1 F1800 X84.789 Y100.629 E49.42793
G0 X84.719 Y100.559
G0 F3600 X84.934 Y101.339
G1 F1800 X88.202 Y104.607 E49.65851
G0 X88.272 Y104.677
G0 F3600 X87.278 Y104.249
G1 F1800 X85.328 Y102.299 E49.79609
G0 X85.258 Y102.229
G0 F3600 X88.532 Y104.758
G0 X89.004 Y105.409
G1 F1800 X96.933 Y113.337 E50.35549
G0 X97.003 Y113.407
G0 F3600 X96.542 Y113.513
G1 F1800 X89.729 Y106.7 E50.83619
G0 X89.659 Y106.63
G0 F3600 X90.095 Y107.465
G0 X90.145 Y107.681
G1 F1800 X96.12 Y113.656 E51.25775
G0 X96.19 Y113.726
G0 F3600 X95.661 Y113.763
G1 F1800 X90.037 Y108.139 E51.65456
G0 X89.967 Y108.069
G0 F3600 X89.973 Y108.641
G1 F1800 X95.159 Y113.827 E52.02046
G0 X95.229 Y113.897
G0 F3600 X94.604 Y113.837
G1 F1800 X89.965 Y109.198 E52.34776
G0 X89.895 Y109.128
G0 F3600 X90.03 Y109.829
G1 F1800 X93.974 Y113.773 E52.62603
G0 X94.044 Y113.843
G0 F3600 X93.215 Y113.579
G1 F1800 X90.225 Y110.59 E52.83696
G0 X90.155 Y110.52
G0 F3600 X90.774 Y111.705
G1 F1800 X92.098 Y113.028 E52.93034
G0 X92.168 Y113.098
G0 F3600 X110.628 Y106.102
G1 F1800 X91.752 Y87.227 E54.26211
G0 X91.682 Y87.157
G0 F3600 X92.077 Y86.986
G1 F1800 X110.838 Y105.747 E55.5858
G0 X110.908 Y105.817
G0 F3600 X111.02 Y105.363
G1 F1800 X92.429 Y86.772 E56.89749
G0 X92.359 Y86.702
G0 F3600 X92.806 Y86.583
G1 F1800 X111.201 Y104.978 E58.19536
G0 X111.271 Y105.048
G0 F3600 X111.494 Y104.706
G1 F1800 X93.21 Y86.421 E59.48543
G0 X93.14 Y86.351
G0 F3600 X93.648 Y86.294
G1 F1800 X111.937 Y104.583 E60.77582
G0 X112.007 Y104.653
G0 F3600 X112.347 Y104.428
G1 F1800 X94.124 Y86.204 E62.06158
G0 X94.054 Y86.134
G0 F3600 X94.646 Y86.16
G1 F1800 X112.729 Y104.243 E63.33744
G0 X112.799 Y104.313
G0 F3600 X113.083 Y104.032
G1 F1800 X95.226 Y86.175 E64.59735
G0 X95.156 Y86.105
G0 F3600 X95.906 Y86.289
G1 F1800 X113.41 Y103.793 E65.83235
G0 X113.48 Y103.863
G0 F3600 X113.714 Y103.531
G1 F1800 X96.762 Y86.58 E67.02837
G0 X96.692 Y86.51
G0 F3600 X98.572 Y87.824
G1 F1800 X113.994 Y103.246 E68.11647
G0 X114.064 Y103.316
G0 F3600 X114.253 Y102.939
G1 F1800 X99.092 Y87.778 E69.18616
G0 X99.022 Y87.708
G0 F3600 X99.63 Y87.751
G1 F1800 X114.487 Y102.608 E70.23441
G0 X114.557 Y102.678
G0 F3600 X114.697 Y102.252
G1 F1800 X100.187 Y87.742 E71.25816
G0 X100.117 Y87.672
G0 F3600 X100.78 Y87.769
G1 F1800 X114.878 Y101.867 E72.25285
G0 X114.948 Y101.937
G0 F3600 X115.031 Y101.454
G1 F1800 X101.395 Y87.819 E73.21491
G0 X101.325 Y87.749
G0 F3600 X101.772 Y87.63
G1 F1800 X115.148 Y101.006 E74.15866
G0 X115.218 Y101.076
G0 F3600 X115.225 Y100.518
G1 F1800 X102.046 Y87.339 E75.08851
G0 X101.976 Y87.269
G0 F3600 X102.362 Y87.088
G1 F1800 X115.255 Y99.982 E75.99822
G0 X115.325 Y100.052
G0 F3600 X115.209 Y99.37
G1 F1800 X102.702 Y86.863 E76.88065
G0 X102.632 Y86.793
G0 F3600 X103.066 Y86.661
G1 F1800 X110.994 Y94.589 E77.44002
G0 X111.064 Y94.659
G0 F3600 X111.408 Y95.122
G0 X111.765 Y95.36
G1 F1800 X115.063 Y98.659 E77.67274
G0 X115.133 Y98.729
G0 F3600 X114.67 Y97.7
G1 F1800 X112.72 Y95.75 E77.81033
G0 X112.65 Y95.68
G0 F3600 X111.408 Y95.122
G0 X110.269 Y93.299
G1 F1800 X103.456 Y86.486 E78.29102
G0 X103.386 Y86.416
G0 F3600 X103.878 Y86.342
G1 F1800 X109.853 Y92.317 E78.71259
G0 X109.923 Y92.387
G0 F3600 X109.96 Y91.858
M104 S210
G1 F1800 X104.337 Y86.235 E79.10932
G0 X104.267 Y86.165
G0 F3600 X104.839 Y86.172
G1 F1800 X110.025 Y91.357 E79.47519
G0 X110.095 Y91.427
G0 F3600 X110.034 Y90.8
G1 F1800 X105.395 Y86.162 E79.80246
G0 X105.325 Y86.092
G0 F3600 X106.026 Y86.227
G1 F1800 X109.969 Y90.17 E80.08066
G0 X110.039 Y90.24
G0 F3600 X109.775 Y89.41
G1 F1800 X106.785 Y86.421 E80.29158
G0 X106.715 Y86.351
G0 F3600 X107.897 Y86.967
G1 F1800 X109.228 Y88.298 E80.38549
G0 X109.298 Y88.368
G0 F3600 X109.088 Y88.492
;TIME_ELAPSED:58.158190
;LAYER:1
M140 S60
M106 S255
G0 F5400 X109.003 Y88.542 Z0.5
G0 X107.717 Y89.316
;TYPE:WALL-INNER
G1 F2700 X107.87 Y89.571 E80.39538
G1 X107.99 Y89.823 E80.40467
G1 X108.089 Y90.101 E80.41448
G1 X108.164 Y90.396 E80.42461
G1 X108.21 Y90.722 E80.43556
G1 X108.225 Y90.984 E80.44428
G1 X108.211 Y91.233 E80.45258
G1 X108.16 Y91.585 E80.46441
G1 X108.143 Y91.654 E80.46677
G1 X107.548 Y92.67 E80.50593
G1 X108.677 Y94.184 E80.56875
G1 X109.201 Y95.058 E80.60264
G1 X110.034 Y96.802 E80.66693
G1 X111.309 Y97.121 E80.71064
G1 X111.556 Y97.211 E80.71938
G1 X111.84 Y97.345 E80.72983
G1 X112.101 Y97.501 E80.73994
G1 X112.341 Y97.679 E80.74988
G1 X112.562 Y97.878 E80.75977
G1 X112.75 Y98.088 E80.76914
G1 X112.92 Y98.316 E80.7786
G1 X113.074 Y98.573 E80.78857
G1 X113.213 Y98.869 E80.79945
G1 X113.308 Y99.133 E80.80878
G1 X113.369 Y99.377 E80.81714
G1 X113.423 Y99.75 E80.82968
G1 X113.438 Y100 E80.83801
G1 X113.423 Y100.252 E80.8464
G1 X113.37 Y100.618 E80.8587
G1 X113.308 Y100.868 E80.86727
G1 X113.213 Y101.131 E80.87657
G1 X113.074 Y101.427 E80.88745
G1 X112.92 Y101.684 E80.89741
G1 X112.75 Y101.912 E80.90687
G1 X112.562 Y102.122 E80.91625
G1 X112.343 Y102.319 E80.92604
G1 X112.092 Y102.504 E80.93642
G1 X111.855 Y102.646 E80.9456
G1 X111.553 Y102.789 E80.95672
G1 X111.299 Y102.882 E80.96571
G1 X110.028 Y103.198 E81.00928
G1 X109.208 Y104.935 E81.07316
G1 X108.704 Y105.779 E81.10586
G1 X107.578 Y107.306 E81.16896
G1 X108.135 Y108.314 E81.20727
G1 X108.163 Y108.425 E81.21107
G1 X108.21 Y108.754 E81.22213
G1 X108.222 Y108.981 E81.22969
G1 X108.207 Y109.301 E81.24034
G1 X108.161 Y109.616 E81.25093
G1 X108.092 Y109.89 E81.26033
G1 X107.999 Y110.152 E81.26958
G1 X107.871 Y110.425 E81.2796
G1 X107.718 Y110.681 E81.28952
G1 X107.53 Y110.937 E81.30009
G1 X107.345 Y111.141 E81.30925
G1 X107.122 Y111.342 E81.31923
G1 X106.89 Y111.514 E81.32884
G1 X106.623 Y111.674 E81.33919
G1 X106.371 Y111.795 E81.34849
G1 X106.078 Y111.899 E81.35883
G1 X105.829 Y111.961 E81.36736
G1 X105.468 Y112.013 E81.37949
G1 X105.26 Y112.025 E81.38642
G1 X104.912 Y112.009 E81.39801
G1 X104.611 Y111.964 E81.40813
G1 X104.363 Y111.904 E81.41662
G1 X104.047 Y111.791 E81.42778
G1 X103.795 Y111.672 E81.43705
G1 X103.55 Y111.526 E81.44654
G1 X103.267 Y111.308 E81.45842
G1 X102.596 Y110.159 E81.50267
G1 X101.038 Y110.396 E81.55509
G1 X100.064 Y110.446 E81.58753
G1 X98.971 Y110.396 E81.62392
G1 X97.403 Y110.171 E81.6766
G1 X96.743 Y111.301 E81.72013
G1 X96.698 Y111.342 E81.72215
G1 X96.466 Y111.514 E81.73176
G1 X96.199 Y111.674 E81.74211
G1 X95.947 Y111.795 E81.75141
G1 X95.654 Y111.899 E81.76175
G1 X95.405 Y111.961 E81.77029
G1 X95.044 Y112.013 E81.78242
G1 X94.836 Y112.025 E81.78935
G1 X94.488 Y112.009 E81.80093
G1 X94.187 Y111.964 E81.81106
G1 X93.939 Y111.904 E81.81954
G1 X93.623 Y111.791 E81.8307
G1 X93.371 Y111.672 E81.83997
G1 X93.126 Y111.526 E81.84946
G1 X92.883 Y111.345 E81.85954
G1 X92.665 Y111.149 E81.86929
G1 X92.454 Y110.918 E81.87969
G1 X92.293 Y110.699 E81.88873
G1 X92.142 Y110.447 E81.8985
G1 X92.013 Y110.177 E81.90846
G1 X91.913 Y109.898 E81.91832
G1 X91.83 Y109.57 E81.92957
G1 X91.791 Y109.313 E81.93821
G1 X91.778 Y109.066 E81.94644
G1 X91.794 Y108.721 E81.95793
G1 X91.857 Y108.345 E81.97061
G1 X92.442 Y107.322 E82.0098
G1 X91.32 Y105.812 E82.07237
G1 X90.796 Y104.94 E82.10621
G1 X89.781 Y102.801 E82.18496
