;FLAVOR:RepRap
;TIME:550
;Filament used: 0.501523m
;Layer height: 0.2
;Generated with Cura_SteamEngine master
M190 S60
M104 S215
M109 S215
G21 ;metric values
G90 ;absolute positioning
M82 ;set extruder to absolute mode
M107 ;start with the fan off
G28 X0 Y0 ;move X/Y to min endstops
G28 Z0 ;move Z to min endstops
G1 Z15.0 F9000 ;move the platform down 15mm
G92 E0 ;zero the extruded length
G1 F200 E3 ;extrude 3mm of feed stock
G92 E0 ;zero the extruded length again
G1 F9000
;Put printing message on LCD screen
M117 Printing...
;LAYER_COUNT:60
;LAYER:0
M107
G0 F3600 X90.342 Y86.153 Z0.3
;TYPE:WALL-OUTER
G1 F1800 X90.745 Y85.786 E0.02719
G1 X91.186 Y85.46 E0.05455
G1 X91.639 Y85.188 E0.08092
G1 X92.146 Y84.948 E0.1089
G1 X92.646 Y84.769 E0.1354
G1 X93.178 Y84.636 E0.16275
G1 X93.715 Y84.557 E0.18983
G1 X94.259 Y84.529 E0.21701
G1 X94.804 Y84.557 E0.24424
G1 X95.34 Y84.636 E0.27127
G1 X95.873 Y84.769 E0.29867
G1 X96.376 Y84.949 E0.32533
G1 X96.875 Y85.185 E0.35287
G1 X97.333 Y85.46 E0.37952
G1 X97.778 Y85.79 E0.40716
G1 X98.161 Y86.138 E0.43297
G1 X98.305 Y86.386 E0.44728
G1 X98.631 Y86.337 E0.46373
G1 X99.977 Y86.269 E0.53097
G1 X101.322 Y86.332 E0.59814
G1 X101.695 Y86.387 E0.61695
G1 X101.838 Y86.139 E0.63123
G1 X102.226 Y85.786 E0.6574
G1 X102.667 Y85.46 E0.68477
G1 X103.125 Y85.185 E0.71142
G1 X103.624 Y84.949 E0.73896
G1 X104.127 Y84.769 E0.76561
G1 X104.66 Y84.636 E0.79302
G1 X105.196 Y84.557 E0.82005
G1 X105.741 Y84.529 E0.84727
G1 X106.285 Y84.557 E0.87445
G1 X106.822 Y84.636 E0.90153
G1 X107.354 Y84.769 E0.92889
G1 X107.854 Y84.948 E0.95538
G1 X108.361 Y85.188 E0.98337
G1 X108.814 Y85.46 E1.00973
G1 X109.255 Y85.786 E1.03709
G1 X109.658 Y86.153 E1.06428
G1 X110.025 Y86.556 E1.09148
G1 X110.353 Y87 E1.11902
G1 X110.623 Y87.45 E1.1452
G1 X110.864 Y87.959 E1.17329
G1 X111.043 Y88.459 E1.19979
G1 X111.174 Y88.986 E1.22688
G1 X111.254 Y89.525 E1.25407
G1 X111.282 Y90.07 E1.28129
G1 X111.254 Y90.615 E1.30852
G1 X111.174 Y91.154 E1.33571
G1 X111.048 Y91.661 E1.36177
G1 X110.98 Y91.782 E1.36869
G1 X111.409 Y92.36 E1.40461
G1 X112.093 Y93.497 E1.4708
G1 X112.607 Y94.577 E1.53048
G1 X113.095 Y94.7 E1.55558
G1 X113.595 Y94.878 E1.58206
G1 X114.102 Y95.118 E1.61005
G1 X114.555 Y95.39 E1.63641
G1 X115.001 Y95.721 E1.66412
G1 X115.393 Y96.076 E1.6905
G1 X115.766 Y96.486 E1.71816
G1 X116.094 Y96.93 E1.7457
G1 X116.364 Y97.38 E1.77188
G1 X116.605 Y97.889 E1.79998
G1 X116.782 Y98.383 E1.82616
G1 X116.916 Y98.919 E1.85372
G1 X116.995 Y99.456 E1.8808
G1 X117.023 Y100 E1.90797
G1 X116.995 Y100.544 E1.93515
G1 X116.916 Y101.081 E1.96223
G1 X116.783 Y101.613 E1.98959
G1 X116.605 Y102.111 E2.01597
G1 X116.365 Y102.618 E2.04396
G1 X116.094 Y103.07 E2.07025
G1 X115.766 Y103.514 E2.09779
G1 X115.395 Y103.922 E2.1253
G1 X115.001 Y104.279 E2.15183
G1 X114.555 Y104.61 E2.17954
G1 X114.102 Y104.882 E2.2059
G1 X113.595 Y105.122 E2.23389
G1 X113.095 Y105.3 E2.26036
G1 X112.606 Y105.423 E2.28552
G1 X112.121 Y106.452 E2.34227
G1 X111.433 Y107.606 E2.4093
G1 X110.979 Y108.221 E2.44744
G1 X111.048 Y108.34 E2.4543
G1 X111.174 Y108.846 E2.48032
G1 X111.254 Y109.385 E2.5075
G1 X111.282 Y109.93 E2.53473
G1 X111.254 Y110.475 E2.56196
G1 X111.174 Y111.014 E2.58914
G1 X111.043 Y111.541 E2.61623
G1 X110.864 Y112.041 E2.64273
G1 X110.624 Y112.548 E2.67071
G1 X110.353 Y113 E2.69701
G1 X110.025 Y113.444 E2.72455
G1 X109.658 Y113.847 E2.75174
G1 X109.255 Y114.214 E2.77893
G1 X108.814 Y114.54 E2.80629
G1 X108.361 Y114.812 E2.83266
G1 X107.854 Y115.052 E2.86064
G1 X107.354 Y115.231 E2.88714
G1 X106.822 Y115.364 E2.91449
G1 X106.285 Y115.443 E2.94157
G1 X105.75 Y115.471 E2.9683
G1 X105.206 Y115.444 E2.99548
G1 X104.667 Y115.366 E3.02265
G1 X104.139 Y115.235 E3.04979
G1 X103.634 Y115.055 E3.07653
G1 X103.139 Y114.822 E3.10383
G1 X102.669 Y114.54 E3.13117
G1 X102.23 Y114.217 E3.15837
G1 X101.847 Y113.87 E3.18415
G1 X101.697 Y113.613 E3.199
G1 X101.369 Y113.663 E3.21555
G1 X100.023 Y113.731 E3.28279
G1 X98.678 Y113.668 E3.34996
G1 X98.305 Y113.613 E3.36877
G1 X98.162 Y113.862 E3.3831
G1 X97.778 Y114.21 E3.40895
G1 X97.333 Y114.54 E3.43659
G1 X96.875 Y114.815 E3.46324
G1 X96.376 Y115.051 E3.49078
G1 X95.873 Y115.231 E3.51744
G1 X95.34 Y115.364 E3.54484
G1 X94.804 Y115.443 E3.57187
G1 X94.268 Y115.471 E3.59865
G1 X93.725 Y115.444 E3.62578
G1 X93.185 Y115.366 E3.653
G1 X92.658 Y115.235 E3.68009
G1 X92.152 Y115.055 E3.70688
G1 X91.658 Y114.822 E3.73413
G1 X91.188 Y114.54 E3.76148
G1 X90.749 Y114.217 E3.78867
G1 X90.354 Y113.859 E3.81526
G1 X89.982 Y113.452 E3.84277
G1 X89.654 Y113.009 E3.87027
G1 X89.382 Y112.557 E3.89659
G1 X89.143 Y112.054 E3.92438
G1 X88.961 Y111.548 E3.9512
G1 X88.829 Y111.021 E3.97831
G1 X88.747 Y110.483 E4.00546
G1 X88.719 Y109.939 E4.03263
G1 X88.745 Y109.395 E4.05981
G1 X88.824 Y108.856 E4.08698
G1 X88.949 Y108.348 E4.11308
G1 X89.023 Y108.221 E4.12042
G1 X88.597 Y107.65 E4.15596
G1 X87.906 Y106.501 E4.22285
G1 X87.333 Y105.296 E4.28942
G1 X86.886 Y105.293 E4.31172
G1 X86.405 Y105.122 E4.33719
G1 X85.898 Y104.882 E4.36517
G1 X85.445 Y104.61 E4.39154
G1 X84.999 Y104.279 E4.41925
G1 X84.605 Y103.922 E4.44577
G1 X84.234 Y103.514 E4.47328
G1 X83.906 Y103.07 E4.50082
G1 X83.635 Y102.618 E4.52712
G1 X83.395 Y102.111 E4.5551
G1 X83.217 Y101.613 E4.58149
G1 X83.084 Y101.081 E4.60884
G1 X83.005 Y100.544 E4.63592
G1 X82.977 Y100 E4.6631
G1 X83.005 Y99.456 E4.69028
G1 X83.084 Y98.919 E4.71736
G1 X83.218 Y98.383 E4.74492
G1 X83.395 Y97.889 E4.7711
G1 X83.636 Y97.38 E4.7992
G1 X83.906 Y96.93 E4.82538
G1 X84.234 Y96.486 E4.85292
G1 X84.607 Y96.076 E4.88057
G1 X84.999 Y95.721 E4.90696
G1 X85.445 Y95.39 E4.93467
G1 X85.898 Y95.118 E4.96103
G1 X86.405 Y94.878 E4.98901
G1 X86.905 Y94.7 E5.01549
G1 X87.394 Y94.577 E5.04065
G1 X87.879 Y93.548 E5.0974
G1 X88.567 Y92.394 E5.16443
G1 X89.021 Y91.779 E5.20257
G1 X88.952 Y91.66 E5.20943
G1 X88.826 Y91.154 E5.23545
G1 X88.746 Y90.615 E5.26263
G1 X88.718 Y90.07 E5.28986
G1 X88.746 Y89.525 E5.31708
G1 X88.826 Y88.986 E5.34427
G1 X88.957 Y88.459 E5.37136
G1 X89.136 Y87.959 E5.39786
G1 X89.377 Y87.45 E5.42595
G1 X89.647 Y87 E5.45213
G1 X89.975 Y86.556 E5.47967
G1 X90.342 Y86.153 E5.50687
G0 F3600 X90.489 Y86.019
G0 X90.646 Y86.12
;TYPE:SKIN
G1 F1800 X111.562 Y107.036 E6.9826
G0 X111.632 Y107.106
G0 F3600 X111.773 Y106.682
G1 F1800 X90.95 Y85.859 E8.45178
G0 X90.88 Y85.789
G0 F3600 X91.275 Y85.618
G1 F1800 X111.981 Y106.324 E9.9127
G0 X112.051 Y106.394
G0 F3600 X112.162 Y105.94
G1 F1800 X91.627 Y85.405 E11.36155
G0 X91.557 Y85.335
G0 F3600 X92.003 Y85.215
G1 F1800 X112.343 Y105.555 E12.79665
G0 X112.413 Y105.625
G0 F3600 X112.594 Y105.24
G1 F1800 X92.401 Y85.047 E14.22138
G0 X92.331 Y84.977
G0 F3600 X92.828 Y84.909
G1 F1800 X113.045 Y105.126 E15.6478
G0 X113.115 Y105.196
G0 F3600 X113.463 Y104.978
G1 F1800 X93.287 Y84.802 E17.07132
G0 X93.217 Y84.732
G0 F3600 X93.785 Y84.734
G1 F1800 X113.851 Y104.8 E18.48709
G0 X113.921 Y104.87
G0 F3600 X114.218 Y104.601
G1 F1800 X94.33 Y84.714 E19.89026
G0 X94.26 Y84.644
G0 F3600 X94.941 Y84.759
G1 F1800 X114.561 Y104.379 E21.27455
G0 X114.631 Y104.449
G0 F3600 X114.886 Y104.138
G1 F1800 X95.645 Y84.897 E22.63211
G0 X95.575 Y84.827
G0 F3600 X96.54 Y85.226
G1 F1800 X115.183 Y103.869 E23.94747
G0 X115.253 Y103.939
G0 F3600 X115.46 Y103.581
G1 F1800 X98.428 Y86.549 E25.14917
G0 X98.358 Y86.479
G0 F3600 X98.946 Y86.501
G1 F1800 X115.719 Y103.274 E26.3326
G0 X115.789 Y103.344
G0 F3600 X115.957 Y102.946
G1 F1800 X99.484 Y86.474 E27.49482
G0 X99.414 Y86.404
G0 F3600 X100.028 Y86.451
G1 F1800 X116.169 Y102.593 E28.63369
G0 X116.239 Y102.663
G0 F3600 X116.356 Y102.214
G1 F1800 X100.622 Y86.479 E29.74385
G0 X100.552 Y86.409
G0 F3600 X101.215 Y86.508
G1 F1800 X116.521 Y101.813 E30.82373
G0 X116.591 Y101.883
G0 F3600 X116.654 Y101.381
G1 F1800 X101.813 Y86.539 E31.87088
G0 X101.743 Y86.469
G0 F3600 X102.038 Y86.199
G1 F1800 X116.757 Y100.918 E32.90939
G0 X116.827 Y100.988
G0 F3600 X116.82 Y100.415
G1 F1800 X102.335 Y85.93 E33.93138
G0 X102.265 Y85.86
G0 F3600 X102.659 Y85.689
G1 F1800 X116.835 Y99.864 E34.93154
G0 X116.905 Y99.934
G0 F3600 X116.781 Y99.245
G1 F1800 X103.003 Y85.467 E35.90365
G0 X102.933 Y85.397
G0 F3600 X103.37 Y85.268
G1 F1800 X112.16 Y94.058 E36.52383
G0 X112.23 Y94.128
G0 F3600 X112.582 Y94.607
G0 X112.953 Y94.851
G1 F1800 X116.632 Y98.53 E36.78341
G0 X116.702 Y98.6
G0 F3600 X116.269 Y97.601
G1 F1800 X113.88 Y95.212 E36.95196
G0 X113.81 Y95.142
G0 F3600 X112.582 Y94.607
G0 X111.458 Y92.79
G1 F1800 X103.759 Y85.091 E37.49517
G0 X103.689 Y85.021
G0 F3600 X104.175 Y84.941
G1 F1800 X110.86 Y91.627 E37.96687
G0 X110.93 Y91.697
G0 F3600 X110.981 Y91.182
G1 F1800 X104.628 Y84.829 E38.41511
G0 X104.558 Y84.759
G0 F3600 X105.115 Y84.75
G1 F1800 X111.059 Y90.694 E38.83449
G0 X111.129 Y90.764
G0 F3600 X111.096 Y90.166
G1 F1800 X105.645 Y84.714 E39.21912
G0 X105.575 Y84.644
G0 F3600 X106.231 Y84.735
G1 F1800 X111.075 Y89.579 E39.56089
G0 X111.145 Y89.649
G0 F3600 X110.969 Y88.907
G1 F1800 X106.904 Y84.842 E39.8477
G0 X106.834 Y84.772
G0 F3600 X107.717 Y85.09
G1 F1800 X110.72 Y88.092 E40.05954
G0 X110.79 Y88.162
G0 F3600 X109.945 Y86.752
G1 F1800 X109.059 Y85.866 E40.12205
G0 X108.989 Y85.796
G0 F3600 X101.712 Y86.423
G0 X90.359 Y86.399
G1 F1800 X111.35 Y107.391 E41.60312
G0 X111.42 Y107.461
G0 F3600 X111.12 Y107.726
G1 F1800 X90.092 Y86.698 E43.08676
G0 X90.022 Y86.628
G0 F3600 X89.852 Y87.023
G1 F1800 X110.88 Y108.052 E44.57043
G0 X110.95 Y108.122
G0 F3600 X110.948 Y108.685
G1 F1800 X89.632 Y87.37 E46.07435
G0 X89.562 Y87.3
G0 F3600 X89.437 Y87.74
G1 F1800 X111.068 Y109.371 E47.60054
G0 X111.138 Y109.441
G0 F3600 X111.099 Y109.967
G1 F1800 X89.263 Y88.132 E49.14115
G0 X89.193 Y88.062
G0 F3600 X89.118 Y88.552
G1 F1800 X111.068 Y110.502 E50.68984
G0 X111.138 Y110.572
G0 F3600 X110.993 Y110.993
G1 F1800 X89.004 Y89.004 E52.24128
G0 X88.934 Y88.934
G0 F3600 X88.932 Y89.497
G1 F1800 X110.881 Y111.447 E53.78994
G0 X110.951 Y111.517
G0 F3600 X110.735 Y111.867
G1 F1800 X88.9 Y90.031 E55.33055
G0 X88.83 Y89.961
G0 F3600 X88.93 Y90.627
G1 F1800 X110.561 Y112.258 E56.85674
G0 X110.631 Y112.328
G0 F3600 X110.365 Y112.627
G1 F1800 X89.05 Y91.313 E58.36059
G0 X88.98 Y91.243
G0 F3600 X89.118 Y91.947
G1 F1800 X110.146 Y112.975 E59.84423
G0 X110.216 Y113.045
G0 F3600 X109.906 Y113.3
G1 F1800 X88.879 Y92.273 E61.3278
G0 X88.809 Y92.203
G0 F3600 X88.648 Y92.608
G1 F1800 X109.639 Y113.598 E62.80879
G0 X109.709 Y113.668
G0 F3600 X109.353 Y113.878
G1 F1800 X88.437 Y92.962 E64.28453
G0 X88.367 Y92.892
G0 F3600 X88.225 Y93.316
G1 F1800 X109.049 Y114.14 E65.75377
G0 X109.119 Y114.21
G0 F3600 X108.724 Y114.38
G1 F1800 X88.017 Y93.673 E67.21476
G0 X87.947 Y93.603
G0 F3600 X87.836 Y94.058
G1 F1800 X108.371 Y114.594 E68.66365
G0 X108.441 Y114.664
G0 F3600 X107.995 Y114.783
G1 F1800 X87.655 Y94.443 E70.09875
G0 X87.585 Y94.373
G0 F3600 X87.405 Y94.759
G1 F1800 X107.597 Y114.951 E71.5234
G0 X107.667 Y115.021
G0 F3600 X107.17 Y115.09
G1 F1800 X86.953 Y94.873 E72.94982
G0 X86.883 Y94.803
G0 F3600 X86.535 Y95.021
G1 F1800 X106.711 Y115.196 E74.37331
G0 X106.781 Y115.266
G0 F3600 X106.213 Y115.264
G1 F1800 X86.148 Y95.199 E75.78901
G0 X86.078 Y95.129
G0 F3600 X85.781 Y95.397
G1 F1800 X105.667 Y115.284 E77.19211
G0 X105.737 Y115.354
G0 F3600 X105.056 Y115.239
G1 F1800 X85.437 Y95.619 E78.57637
G0 X85.367 Y95.549
G0 F3600 X85.113 Y95.861
G1 F1800 X104.354 Y115.102 E79.93393
G0 X104.424 Y115.172
G0 F3600 X103.46 Y114.774
G1 F1800 X84.816 Y96.129 E81.2494
G0 X84.746 Y96.059
G0 F3600 X84.538 Y96.417
G1 F1800 X101.57 Y113.449 E82.4511
G0 X101.64 Y113.519
G0 F3600 X101.053 Y113.498
G1 F1800 X84.28 Y96.725 E83.63452
G0 X84.21 Y96.655
G0 F3600 X84.041 Y97.051
G1 F1800 X100.514 Y113.525 E84.79682
G0 X100.584 Y113.595
G0 F3600 X99.97 Y113.547
G1 F1800 X83.828 Y97.405 E85.93572
G0 X83.758 Y97.335
G0 F3600 X83.642 Y97.785
G1 F1800 X99.376 Y113.518 E87.0458
G0 X99.446 Y113.588
G0 F3600 X98.782 Y113.49
G1 F1800 X83.478 Y98.186 E88.12558
G0 X83.408 Y98.116
G0 F3600 X83.344 Y98.618
G1 F1800 X98.185 Y113.458 E89.17266
G0 X98.255 Y113.528
G0 F3600 X97.961 Y113.801
G1 F1800 X83.242 Y99.081 E90.2112
G0 X83.172 Y99.011
G0 F3600 X83.179 Y99.583
G1 F1800 X97.664 Y114.069 E91.23323
G0 X97.734 Y114.139
G0 F3600 X97.339 Y114.31
G1 F1800 X83.164 Y100.134 E92.23339
G0 X83.094 Y100.064
G0 F3600 X83.217 Y100.754
G1 F1800 X96.995 Y114.532 E93.2055
G0 X97.065 Y114.602
G0 F3600 X96.628 Y114.73
G1 F1800 X87.839 Y105.941 E93.82561
G0 X87.769 Y105.871
G0 F3600 X87.354 Y105.263
G0 X87.01 Y105.112
G1 F1800 X83.367 Y101.469 E94.08265
G0 X83.297 Y101.399
G0 F3600 X83.731 Y102.398
G1 F1800 X86.119 Y104.786 E94.25113
G0 X86.189 Y104.856
G0 F3600 X87.354 Y105.263
G0 X88.54 Y107.207
G1 F1800 X96.239 Y114.906 E94.79434
G0 X96.309 Y114.976
G0 F3600 X95.824 Y115.057
G1 F1800 X89.14 Y108.374 E95.2659
G0 X89.07 Y108.304
G0 F3600 X89.017 Y108.816
G1 F1800 X95.371 Y115.17 E95.71421
G0 X95.441 Y115.24
G0 F3600 X94.883 Y115.248
M104 S210
G1 F1800 X88.939 Y109.304 E96.13359
G0 X88.869 Y109.234
G0 F3600 X88.903 Y109.834
G1 F1800 X94.353 Y115.283 E96.51808
G0 X94.423 Y115.353
G0 F3600 X93.768 Y115.264
G1 F1800 X88.922 Y110.418 E96.85999
G0 X88.852 Y110.348
G0 F3600 X89.033 Y111.094
G1 F1800 X93.096 Y115.157 E97.14666
G0 X93.166 Y115.227
G0 F3600 X92.283 Y114.91
G1 F1800 X89.282 Y111.909 E97.35839
G0 X89.212 Y111.839
G0 F3600 X90.055 Y113.248
G1 F1800 X90.943 Y114.136 E97.42105
G0 X91.013 Y114.206
G0 F3600 X91.153 Y114.018
;TIME_ELAPSED:69.638713
;LAYER:1
M140 S60
M106 S255
G0 F5400 X91.212 Y113.937 Z0.5
G0 X92.305 Y112.877
;TYPE:WALL-INNER
G1 F2700 X92.016 Y112.665 E97.43297
G1 X91.764 Y112.436 E97.44429
G1 X91.541 Y112.192 E97.45529
G1 X91.309 Y111.881 E97.46819
G1 X91.149 Y111.616 E97.47849
G1 X91.004 Y111.311 E97.48972
G1 X90.873 Y110.953 E97.5024
G1 X90.789 Y110.615 E97.51398
G1 X90.74 Y110.293 E97.52482
G1 X90.722 Y109.975 E97.53541
G1 X90.739 Y109.582 E97.54849
G1 X90.791 Y109.232 E97.56026
G1 X90.822 Y109.106 E97.56458
G1 X91.403 Y108.071 E97.60406
G1 X90.276 Y106.555 E97.66688
G1 X89.645 Y105.506 E97.7076
G1 X88.603 Y103.306 E97.78857
G1 X87.236 Y103.296 E97.83403
G1 X87.166 Y103.271 E97.83651
G1 X86.855 Y103.122 E97.84797
G1 X86.535 Y102.93 E97.86039
G1 X86.284 Y102.744 E97.87078
G1 X86.02 Y102.506 E97.8826
G1 X85.793 Y102.253 E97.89391
G1 X85.564 Y101.944 E97.9067
G1 X85.409 Y101.685 E97.91674
G1 X85.243 Y101.334 E97.92965
G1 X85.131 Y101.025 E97.94058
G1 X85.052 Y100.708 E97.95145
G1 X84.995 Y100.311 E97.96479
G1 X84.977 Y100 E97.97515
G1 X84.995 Y99.689 E97.98551
G1 X85.052 Y99.292 E97.99885
G1 X85.133 Y98.966 E98.01002
G1 X85.24 Y98.672 E98.02043
G1 X85.412 Y98.308 E98.03382
G1 X85.563 Y98.056 E98.04359
G1 X85.789 Y97.749 E98.05627
G1 X86.02 Y97.494 E98.06771
G1 X86.284 Y97.256 E98.07953
G1 X86.535 Y97.07 E98.08993
G1 X86.857 Y96.876 E98.10243
G1 X87.165 Y96.73 E98.11377
G1 X87.482 Y96.618 E98.12495
G1 X88.797 Y96.288 E98.17004
G1 X89.663 Y94.458 E98.23738
G1 X90.248 Y93.481 E98.27525
G1 X91.411 Y91.914 E98.34016
G1 X90.824 Y90.901 E98.3791
G1 X90.796 Y90.787 E98.383
G1 X90.736 Y90.378 E98.39675
G1 X90.718 Y90.07 E98.40701
G1 X90.736 Y89.759 E98.41737
G1 X90.795 Y89.349 E98.43115
G1 X90.87 Y89.048 E98.44147
G1 X90.981 Y88.742 E98.4523
G1 X91.153 Y88.378 E98.46569
G1 X91.301 Y88.131 E98.47526
G1 X91.534 Y87.815 E98.48832
G1 X91.758 Y87.567 E98.49944
G1 X92.014 Y87.336 E98.5109
G1 X92.298 Y87.125 E98.52267
G1 X92.581 Y86.955 E98.53365
G1 X92.925 Y86.793 E98.5463
G1 X93.225 Y86.685 E98.5569
G1 X93.551 Y86.604 E98.56808
G1 X93.948 Y86.547 E98.58142
G1 X94.259 Y86.529 E98.59178
G1 X94.569 Y86.547 E98.60211
G1 X94.971 Y86.606 E98.61562
G1 X95.284 Y86.683 E98.62634
G1 X95.612 Y86.8 E98.63792
G1 X95.929 Y86.951 E98.6496
G1 X96.239 Y87.137 E98.66163
G1 X96.493 Y87.325 E98.67214
G1 X96.585 Y87.409 E98.67628
G1 X97.261 Y88.554 E98.7205
G1 X98.823 Y88.329 E98.77299
G1 X100 Y88.272 E98.81219
G1 X101.177 Y88.329 E98.85138
G1 X102.745 Y88.554 E98.90407
G1 X103.411 Y87.411 E98.94806
G1 X103.492 Y87.339 E98.95167
G1 X103.781 Y87.126 E98.96361
G1 X104.072 Y86.951 E98.9749
G1 X104.392 Y86.799 E98.98669
G1 X104.716 Y86.683 E98.99813
G1 X105.029 Y86.606 E99.00885
