;FLAVOR:RepRap
;TIME:2848
;Filament used: 1.39957m
;Layer height: 0.1
;Generated with Cura_SteamEngine master
M104 S215
M109 S215
G21 ;metric values
G90 ;absolute positioning
M82 ;set extruder to absolute mode
M107 ;start with the fan off
G28 X0 Y0 ;move X/Y to min endstops
G28 Z0 ;move Z to min endstops
G1 Z15.0 F9000 ;move the platform down 15mm
G92 E0 ;zero the extruded length
G1 F200 E3 ;extrude 3mm of feed stock
G92 E0 ;zero the extruded length again
G1 F9000
;Put printing message on LCD screen
M117 Printing...
;LAYER_COUNT:38
;LAYER:0
M107
G1 F1500 E-6.5
G0 F3600 X14.62 Y17.66 Z0.3
;TYPE:WALL-INNER
G1 F1500 E0
G1 F1800 X19.42 Y17.66 E0.23947
G1 X19.42 Y12.86 E0.47895
G1 X23.82 Y12.86 E0.69846
G1 X23.82 Y17.66 E0.93794
G1 X28.62 Y17.66 E1.17741
G1 X28.62 Y22.061 E1.39698
G1 X14.62 Y22.061 E2.09544
G1 X14.62 Y17.66 E2.31501
G0 F3600 X14.69 Y17.73
G0 X19.448 Y17.688
G0 X19.52 Y17.26
G0 X19.02 Y17.26
;TYPE:WALL-OUTER
G1 F1800 X19.02 Y12.46 E2.55448
G1 X24.22 Y12.46 E2.81391
G1 X24.22 Y17.26 E3.05338
G1 X29.02 Y17.26 E3.29285
G1 X29.02 Y22.461 E3.55233
G1 X14.22 Y22.461 E4.29071
G1 X14.22 Y17.26 E4.55019
G1 X19.02 Y17.26 E4.78966
G0 F3600 X19.02 Y17.06
G0 X19.598 Y17.336
;TYPE:SKIN
G1 F1800 X24.143 Y21.88 E5.1103
G0 X24.213 Y21.95
G0 F3600 X24.709 Y21.88
G1 F1800 X19.598 Y16.77 E5.47087
G0 X19.528 Y16.7
G0 F3600 X19.598 Y16.204
G1 F1800 X25.274 Y21.88 E5.87134
G0 X25.344 Y21.95
G0 F3600 X25.84 Y21.88
G1 F1800 X19.598 Y15.639 E6.31172
G0 X19.528 Y15.569
G0 F3600 X19.598 Y15.073
G1 F1800 X26.406 Y21.88 E6.79202
G0 X26.476 Y21.95
G0 F3600 X26.971 Y21.88
G1 F1800 X19.598 Y14.507 E7.31223
G0 X19.528 Y14.437
G0 F3600 X19.598 Y13.942
G1 F1800 X27.537 Y21.88 E7.87233
G0 X27.607 Y21.95
G0 F3600 X28.103 Y21.88
G1 F1800 X24.062 Y17.839 E8.15744
G0 X23.992 Y17.769
G0 F3600 X24.627 Y17.839
G1 F1800 X28.439 Y21.65 E8.42637
G0 X28.509 Y21.72
G0 F3600 X28.439 Y21.085
G1 F1800 X25.193 Y17.839 E8.65539
G0 X25.123 Y17.769
G0 F3600 X25.759 Y17.839
G1 F1800 X28.439 Y20.519 E8.84448
G0 X28.509 Y20.589
G0 F3600 X28.439 Y19.953
G1 F1800 X26.324 Y17.839 E8.99367
G0 X26.254 Y17.769
G0 F3600 X26.89 Y17.839
G1 F1800 X28.439 Y19.388 E9.10296
G0 X28.509 Y19.458
G0 F3600 X28.439 Y18.822
G1 F1800 X27.456 Y17.839 E9.17231
G0 X27.386 Y17.769
G0 F3600 X28.021 Y17.839
G1 F1800 X28.439 Y18.256 E9.20177
G0 F3600 X23.792 Y17.688
G0 X23.639 Y17.416
G1 F1800 X19.598 Y13.376 E9.48685
G0 X19.528 Y13.306
G0 F3600 X19.827 Y13.039
G1 F1800 X23.639 Y16.851 E9.75581
G0 X23.709 Y16.921
G0 F3600 X23.639 Y16.285
G1 F1800 X20.393 Y13.039 E9.98483
G0 X20.323 Y12.969
G0 F3600 X20.959 Y13.039
G1 F1800 X23.639 Y15.719 E10.17392
G0 X23.709 Y15.789
G0 F3600 X23.639 Y15.154
G1 F1800 X21.525 Y13.039 E10.32311
G0 X21.455 Y12.969
G0 F3600 X22.09 Y13.039
G1 F1800 X23.639 Y14.588 E10.4324
G0 X23.709 Y14.658
G0 F3600 X23.639 Y14.022
G1 F1800 X22.656 Y13.039 E10.50175
G0 X22.586 Y12.969
G0 F3600 X23.222 Y13.039
G1 F1800 X23.639 Y13.456 E10.53118
G0 F3600 X19.537 Y17.84
G1 F1800 X23.577 Y21.88 E10.81622
G0 X23.647 Y21.95
G0 F3600 X23.012 Y21.88
G1 F1800 X18.971 Y17.84 E11.1013
G0 X18.901 Y17.77
G0 F3600 X18.405 Y17.84
G1 F1800 X22.446 Y21.88 E11.38638
G0 X22.516 Y21.95
G0 F3600 X21.88 Y21.88
G1 F1800 X17.84 Y17.84 E11.67142
G0 X17.77 Y17.77
G0 F3600 X17.274 Y17.84
G1 F1800 X21.315 Y21.88 E11.9565
G0 X21.385 Y21.95
G0 F3600 X20.749 Y21.88
G1 F1800 X16.708 Y17.839 E12.24161
G0 X16.638 Y17.769
G0 F3600 X16.142 Y17.839
G1 F1800 X20.183 Y21.88 E12.52673
G0 X20.253 Y21.95
G0 F3600 X19.617 Y21.88
G1 F1800 X15.576 Y17.839 E12.81184
G0 X15.506 Y17.769
G0 F3600 X15.011 Y17.839
G1 F1800 X19.052 Y21.88 E13.09696
G0 X19.122 Y21.95
G0 F3600 X18.486 Y21.88
G1 F1800 X14.799 Y18.193 E13.3571
G0 X14.729 Y18.123
G0 F3600 X14.799 Y18.759
G1 F1800 X17.92 Y21.88 E13.5773
G0 X17.99 Y21.95
G0 F3600 X17.355 Y21.88
G1 F1800 X14.799 Y19.325 E13.7576
G0 X14.729 Y19.255
G0 F3600 X14.799 Y19.89
G1 F1800 X16.789 Y21.88 E13.89801
G0 X16.859 Y21.95
G0 F3600 X16.223 Y21.88
G1 F1800 X14.799 Y20.456 E13.99848
G0 X14.729 Y20.386
G0 F3600 X14.799 Y21.022
G1 F1800 X15.658 Y21.88 E14.05905
G0 X15.728 Y21.95
G0 F3600 X15.092 Y21.88
G1 F1800 X14.799 Y21.587 E14.07972
G0 F3600 X15.02 Y21.587
G1 F1500 E7.57972
G0 F3600 X19.49 Y22.041
G0 X19.49 Y23.326
G0 X19.49 Y24.135
G0 X19.49 Y25.42
G0 X19.49 Y25.47
G0 X19.42 Y25.4
;TYPE:WALL-INNER
G1 F1500 E14.07972
G1 F1800 X23.82 Y25.4 E14.29924
G1 X23.82 Y30.2 E14.53871
G1 X28.62 Y30.2 E14.77819
G1 X28.62 Y34.601 E14.99775
G1 X14.62 Y34.601 E15.69622
G1 X14.62 Y30.2 E15.91578
G1 X19.42 Y30.2 E16.15526
G1 X19.42 Y25.4 E16.39473
G0 F3600 X19.49 Y25.47
G0 X19.52 Y29.8
G0 X19.02 Y29.8
;TYPE:WALL-OUTER
G1 F1800 X19.02 Y25 E16.6342
G1 X24.22 Y25 E16.89363
G1 X24.22 Y29.8 E17.1331
G1 X29.02 Y29.8 E17.37258
G1 X29.02 Y35.001 E17.63206
G1 X14.22 Y35.001 E18.37043
G1 X14.22 Y29.8 E18.62991
G1 X19.02 Y29.8 E18.86938
G0 F3600 X19.02 Y29.6
G0 X19.6 Y29.782
;TYPE:SKIN
G1 F1800 X24.238 Y34.42 E19.19662
G0 X24.308 Y34.49
G0 F3600 X24.803 Y34.42
G1 F1800 X19.6 Y29.216 E19.56375
G0 X19.53 Y29.146
G0 F3600 X19.6 Y28.651
G1 F1800 X25.369 Y34.42 E19.97079
G0 X25.439 Y34.49
G0 F3600 X25.935 Y34.42
G1 F1800 X19.6 Y28.085 E20.41776
G0 X19.53 Y28.015
G0 F3600 X19.6 Y27.519
G1 F1800 X26.5 Y34.42 E20.90462
G0 X26.57 Y34.49
G0 F3600 X27.066 Y34.42
G1 F1800 X19.6 Y26.954 E21.43139
G0 X19.53 Y26.884
G0 F3600 X19.6 Y26.388
G1 F1800 X27.632 Y34.42 E21.99809
G0 X27.702 Y34.49
G0 F3600 X28.198 Y34.42
G1 F1800 X24.156 Y30.379 E22.28324
G0 X24.086 Y30.309
G0 F3600 X24.722 Y30.379
G1 F1800 X28.44 Y34.097 E22.54557
G0 X28.51 Y34.167
G0 F3600 X28.44 Y33.531
G1 F1800 X25.288 Y30.379 E22.76796
G0 X25.218 Y30.309
G0 F3600 X25.853 Y30.379
G1 F1800 X28.44 Y32.966 E22.95048
G0 X28.51 Y33.036
G0 F3600 X28.44 Y32.4
G1 F1800 X26.419 Y30.379 E23.09308
G0 X26.349 Y30.309
G0 F3600 X26.985 Y30.379
G1 F1800 X28.44 Y31.834 E23.19573
G0 X28.51 Y31.904
G0 F3600 X28.44 Y31.268
G1 F1800 X27.551 Y30.379 E23.25846
G0 X27.481 Y30.309
G0 F3600 X28.116 Y30.379
G1 F1800 X28.44 Y30.703 E23.28132
G0 F3600 X23.792 Y30.228
G0 X23.639 Y29.862
G1 F1800 X19.6 Y25.822 E23.56633
G0 X19.53 Y25.752
G0 F3600 X19.922 Y25.579
G1 F1800 X23.639 Y29.296 E23.82858
G0 X23.709 Y29.366
G0 F3600 X23.639 Y28.731
G1 F1800 X20.488 Y25.579 E24.05094
G0 X20.418 Y25.509
G0 F3600 X21.054 Y25.579
G1 F1800 X23.639 Y28.165 E24.23336
G0 X23.709 Y28.235
G0 F3600 X23.639 Y27.599
G1 F1800 X21.619 Y25.579 E24.37588
G0 X21.549 Y25.509
G0 F3600 X22.185 Y25.579
G1 F1800 X23.639 Y27.034 E24.4785
G0 X23.709 Y27.104
G0 F3600 X23.639 Y26.468
G1 F1800 X22.751 Y25.579 E24.54119
G0 X22.681 Y25.509
G0 F3600 X23.316 Y25.579
G1 F1800 X23.639 Y25.902 E24.56398
G0 F3600 X19.6 Y30.348
G1 F1800 X23.672 Y34.42 E24.85128
G0 X23.742 Y34.49
G0 F3600 X23.106 Y34.42
G1 F1800 X19.065 Y30.379 E25.1364
G0 X18.995 Y30.309
G0 F3600 X18.5 Y30.379
G1 F1800 X22.541 Y34.42 E25.42151
G0 X22.611 Y34.49
G0 F3600 X21.975 Y34.42
G1 F1800 X17.934 Y30.379 E25.70662
G0 X17.864 Y30.309
G0 F3600 X17.368 Y30.379
G1 F1800 X21.409 Y34.42 E25.99174
G0 X21.479 Y34.49
G0 F3600 X20.844 Y34.42
G1 F1800 X16.802 Y30.379 E26.27689
G0 X16.732 Y30.309
G0 F3600 X16.237 Y30.379
G1 F1800 X20.278 Y34.42 E26.562
G0 X20.348 Y34.49
G0 F3600 X19.712 Y34.42
G1 F1800 X15.671 Y30.379 E26.84712
G0 X15.601 Y30.309
G0 F3600 X15.105 Y30.379
G1 F1800 X19.147 Y34.42 E27.13227
G0 X19.217 Y34.49
G0 F3600 X18.581 Y34.42
G1 F1800 X14.799 Y30.638 E27.39911
G0 X14.729 Y30.568
G0 F3600 X14.799 Y31.204
G1 F1800 X18.015 Y34.42 E27.62601
G0 X18.085 Y34.49
G0 F3600 X17.449 Y34.42
G1 F1800 X14.799 Y31.77 E27.81299
G0 X14.729 Y31.7
G0 F3600 X14.799 Y32.335
G1 F1800 X16.884 Y34.42 E27.96009
G0 X16.954 Y34.49
G0 F3600 X16.318 Y34.42
G1 F1800 X14.799 Y32.901 E28.06727
G0 X14.729 Y32.831
G0 F3600 X14.799 Y33.467
G1 F1800 X15.752 Y34.42 E28.13451
G0 X15.822 Y34.49
G0 F3600 X15.187 Y34.42
G1 F1800 X14.799 Y34.033 E28.16185
G0 F3600 X15.02 Y34.033
G1 F1500 E21.66185
G0 F3600 X19.49 Y34.581
G0 X19.49 Y35.866
G0 X19.49 Y36.675
G0 X19.49 Y37.96
G0 X19.49 Y38.01
G0 X19.42 Y37.94
;TYPE:WALL-INNER
G1 F1500 E28.16185
G1 F1800 X23.82 Y37.94 E28.38136
G1 X23.82 Y42.74 E28.62084
G1 X28.62 Y42.74 E28.86031
G1 X28.62 Y47.141 E29.07988
G1 X14.62 Y47.141 E29.77834
G1 X14.62 Y42.74 E29.99791
G1 X19.42 Y42.74 E30.23738
G1 X19.42 Y37.94 E30.47685
G0 F3600 X19.49 Y38.01
G0 X19.52 Y42.34
G0 X19.02 Y42.34
;TYPE:WALL-OUTER
G1 F1800 X19.02 Y37.54 E30.71633
G1 X24.22 Y37.54 E30.97575
G1 X24.22 Y42.34 E31.21523
G1 X29.02 Y42.34 E31.4547
G1 X29.02 Y47.541 E31.71418
G1 X14.22 Y47.541 E32.45255
G1 X14.22 Y42.34 E32.71203
G1 X19.02 Y42.34 E32.95151
G0 F3600 X19.02 Y42.14
G0 X19.6 Y42.227
;TYPE:SKIN
G1 F1800 X24.332 Y46.96 E33.28541
G0 X24.402 Y47.03
G0 F3600 X23.767 Y46.96
G1 F1800 X19.6 Y42.793 E33.57941
G0 X19.53 Y42.723
G0 F3600 X19.16 Y42.919
G1 F1800 X23.201 Y46.96 E33.86453
G0 X23.271 Y47.03
G0 F3600 X22.635 Y46.96
G1 F1800 X18.594 Y42.919 E34.14964
G0 X18.524 Y42.849
G0 F3600 X18.029 Y42.919
G1 F1800 X22.07 Y46.96 E34.43476
G0 X22.14 Y47.03
G0 F3600 X21.504 Y46.96
G1 F1800 X17.463 Y42.919 E34.71987
G0 X17.393 Y42.849
G0 F3600 X16.897 Y42.919
G1 F1800 X20.938 Y46.96 E35.00499
G0 X21.008 Y47.03
G0 F3600 X20.373 Y46.96
G1 F1800 X16.332 Y42.919 E35.2901
G0 X16.262 Y42.849
G0 F3600 X15.766 Y42.919
G1 F1800 X19.807 Y46.96 E35.57521
G0 X19.877 Y47.03
G0 F3600 X19.241 Y46.96
G1 F1800 X15.2 Y42.919 E35.86033
G0 X15.13 Y42.849
G0 F3600 X14.799 Y43.084
G1 F1800 X18.676 Y46.96 E36.13384
G0 X18.746 Y47.03
G0 F3600 X18.11 Y46.96
G1 F1800 X14.799 Y43.649 E36.36745
G0 X14.729 Y43.579
G0 F3600 X14.799 Y44.215
G1 F1800 X17.544 Y46.96 E36.56112
G0 X17.614 Y47.03
G0 F3600 X16.979 Y46.96
G1 F1800 X14.799 Y44.781 E36.7149
G0 X14.729 Y44.711
G0 F3600 X14.799 Y45.346
G1 F1800 X16.413 Y46.96 E36.82877
G0 X16.483 Y47.03
G0 F3600 X15.847 Y46.96
G1 F1800 X14.799 Y45.912 E36.90271
G0 X14.729 Y45.842
G0 F3600 X14.799 Y46.478
G1 F1800 X15.281 Y46.96 E36.93672
G0 F3600 X19.448 Y42.768
G0 X19.6 Y41.662
G1 F1800 X24.898 Y46.96 E37.31052
G0 X24.968 Y47.03
G0 F3600 X25.464 Y46.96
G1 F1800 X19.6 Y41.096 E37.72426
G0 X19.53 Y41.026
G0 F3600 X19.6 Y40.53
G1 F1800 X26.03 Y46.96 E38.17793
G0 X26.1 Y47.03
G0 F3600 X26.595 Y46.96
G1 F1800 X19.6 Y39.964 E38.6715
G0 X19.53 Y39.894
G0 F3600 X19.6 Y39.399
G1 F1800 X27.161 Y46.96 E39.20497
G0 X27.231 Y47.03
G0 F3600 X27.727 Y46.96
G1 F1800 X23.686 Y42.919 E39.49009
G0 X23.616 Y42.849
G0 F3600 X23.639 Y42.873
G1 F1800 X19.6 Y38.833 E39.7751
G0 X19.53 Y38.763
G0 F3600 X19.6 Y38.267
G1 F1800 X23.639 Y42.307 E40.0601
G0 X23.709 Y42.377
G0 F3600 X23.639 Y41.741
G1 F1800 X20.017 Y38.119 E40.31566
G0 X19.947 Y38.049
G0 F3600 X20.583 Y38.119
G1 F1800 X23.639 Y41.176 E40.53131
G0 X23.709 Y41.246
G0 F3600 X23.639 Y40.61
G1 F1800 X21.148 Y38.119 E40.70706
G0 X21.078 Y38.049
G0 F3600 X21.714 Y38.119
G1 F1800 X23.639 Y40.044 E40.84288
G0 X23.709 Y40.114
G0 F3600 X23.639 Y39.479
G1 F1800 X22.28 Y38.119 E40.9388
G0 X22.21 Y38.049
G0 F3600 X22.845 Y38.119
G1 F1800 X23.639 Y38.913 E40.99482
G0 X23.709 Y38.983
G0 F3600 X23.639 Y38.347
G1 F1800 X23.411 Y38.119 E41.01091
G0 F3600 X23.792 Y42.768
G0 X24.252 Y42.919
G1 F1800 X28.292 Y46.96 E41.29599
G0 X28.362 Y47.03
G0 F3600 X28.44 Y46.542
G1 F1800 X24.818 Y42.919 E41.55157
G0 X24.748 Y42.849
G0 F3600 X25.383 Y42.919
G1 F1800 X28.44 Y45.976 E41.76726
G0 X28.51 Y46.046
G0 F3600 X28.44 Y45.411
G1 F1800 X25.949 Y42.919 E41.94305
G0 X25.879 Y42.849
G0 F3600 X26.515 Y42.919
G1 F1800 X28.44 Y44.845 E42.07891
G0 X28.51 Y44.915
G0 F3600 X28.44 Y44.279
G1 F1800 X27.08 Y42.919 E42.17486
G0 X27.01 Y42.849
G0 F3600 X27.646 Y42.919
G1 F1800 X28.44 Y43.714 E42.23092
G0 X28.51 Y43.784
G0 F3600 X28.44 Y43.148
G1 F1800 X28.212 Y42.919 E42.24704
G0 F3600 X28.212 Y43.14
G1 F1500 E35.74704
G0 F3600 X28.6 Y42.81
G0 X29.885 Y42.81
G0 X32.275 Y42.81
G0 X33.56 Y42.81
G0 X33.61 Y42.81
G0 X33.54 Y42.74
;TYPE:WALL-INNER
G1 F1500 E42.24704
G1 F1800 X38.34 Y42.74 E42.48651
G1 X38.34 Y37.94 E42.72598
G1 X42.74 Y37.94 E42.9455
G1 X42.74 Y42.74 E43.18497
G1 X47.54 Y42.74 E43.42445
G1 X47.54 Y47.141 E43.64401
G1 X33.54 Y47.141 E44.34248
G1 X33.54 Y42.74 E44.56204
G0 F3600 X33.61 Y42.81
G0 X38.368 Y42.768
G0 X38.44 Y42.34
G0 X37.94 Y42.34
;TYPE:WALL-OUTER
G1 F1800 X37.94 Y37.54 E44.80152
G1 X43.14 Y37.54 E45.06095
G1 X43.14 Y42.34 E45.30042
G1 X47.94 Y42.34 E45.53989
G1 X47.94 Y47.541 E45.79937
G1 X33.14 Y47.541 E46.53775
G1 X33.14 Y42.34 E46.79723
G1 X37.94 Y42.34 E47.0367
G0 F3600 X37.94 Y42.14
G0 X38.518 Y41.913
;TYPE:SKIN
G1 F1800 X43.566 Y46.96 E47.39283
G0 X43.636 Y47.03
G0 F3600 X44.131 Y46.96
G1 F1800 X38.518 Y41.347 E47.78885
G0 X38.448 Y41.277
G0 F3600 X38.518 Y40.781
G1 F1800 X44.697 Y46.96 E48.22482
G0 X44.767 Y47.03
G0 F3600 X45.263 Y46.96
G1 F1800 X38.518 Y40.215 E48.70071
G0 X38.448 Y40.145
G0 F3600 X38.518 Y39.65
G1 F1800 X45.829 Y46.96 E49.21651
G0 X45.899 Y47.03
G0 F3600 X46.394 Y46.96
G1 F1800 X38.518 Y39.084 E49.7722
G0 X38.448 Y39.014
G0 F3600 X38.518 Y38.518
G1 F1800 X42.56 Y42.56 E50.05739
G0 X42.63 Y42.63
G0 F3600 X42.919 Y42.919
G1 F1800 X46.96 Y46.96 E50.3425
G0 X47.03 Y47.03
G0 F3600 X47.359 Y46.794
G1 F1800 X43.485 Y42.919 E50.61587
G0 X43.415 Y42.849
G0 F3600 X44.051 Y42.919
G1 F1800 X47.359 Y46.228 E50.8493
G0 X47.429 Y46.298
G0 F3600 X47.359 Y45.662
G1 F1800 X44.617 Y42.919 E51.0428
G0 X44.547 Y42.849
G0 F3600 X45.182 Y42.919
G1 F1800 X47.359 Y45.097 E51.19643
G0 X47.429 Y45.167
G0 F3600 X47.359 Y44.531
G1 F1800 X45.748 Y42.919 E51.31013
G0 X45.678 Y42.849
G0 F3600 X46.314 Y42.919
G1 F1800 X47.359 Y43.965 E51.3839
G0 X47.429 Y44.035
G0 F3600 X47.359 Y43.4
G1 F1800 X46.879 Y42.919 E51.4178
G0 F3600 X42.712 Y42.768
G0 X42.56 Y41.994
G1 F1800 X38.685 Y38.12 E51.69117
G0 X38.615 Y38.05
G0 F3600 X39.251 Y38.12
G1 F1800 X42.56 Y41.428 E51.9246
G0 X42.63 Y41.498
G0 F3600 X42.56 Y40.862
G1 F1800 X39.817 Y38.12 E52.1181
G0 X39.747 Y38.05
G0 F3600 X40.382 Y38.12
G1 F1800 X42.56 Y40.297 E52.27173
G0 X42.63 Y40.367
G0 F3600 X42.56 Y39.731
G1 F1800 X40.948 Y38.12 E52.38543
G0 X40.878 Y38.05
G0 F3600 X41.514 Y38.12
G1 F1800 X42.56 Y39.165 E52.4592
G0 X42.63 Y39.235
G0 F3600 X42.56 Y38.6
G1 F1800 X42.079 Y38.12 E52.4931
G0 F3600 X38.518 Y42.478
G1 F1800 X43 Y46.96 E52.80933
G0 X43.07 Y47.03
G0 F3600 X42.434 Y46.96
G1 F1800 X38.393 Y42.919 E53.09444
G0 X38.323 Y42.849
G0 F3600 X37.828 Y42.919
G1 F1800 X41.869 Y46.96 E53.37956
G0 X41.939 Y47.03
G0 F3600 X41.303 Y46.96
G1 F1800 X37.262 Y42.919 E53.66467
G0 X37.192 Y42.849
G0 F3600 X36.696 Y42.919
G1 F1800 X40.737 Y46.96 E53.94979
G0 X40.807 Y47.03
G0 F3600 X40.172 Y46.96
G1 F1800 X36.131 Y42.919 E54.2349
G0 X36.061 Y42.849
G0 F3600 X35.565 Y42.919
G1 F1800 X39.606 Y46.96 E54.52002
G0 X39.676 Y47.03
G0 F3600 X39.04 Y46.96
G1 F1800 X34.999 Y42.919 E54.80513
G0 X34.929 Y42.849
G0 F3600 X34.433 Y42.919
G1 F1800 X38.475 Y46.96 E55.09028
G0 X38.545 Y47.03
G0 F3600 X37.909 Y46.96
G1 F1800 X33.868 Y42.919 E55.37539
G0 X33.798 Y42.849
G0 F3600 X33.719 Y43.336
G1 F1800 X37.343 Y46.96 E55.63109
G0 X37.413 Y47.03
G0 F3600 X36.778 Y46.96
G1 F1800 X33.719 Y43.902 E55.84688
G0 X33.649 Y43.832
G0 F3600 X33.719 Y44.467
G1 F1800 X36.212 Y46.96 E56.02278
G0 X36.282 Y47.03
G0 F3600 X35.646 Y46.96
G1 F1800 X33.719 Y45.033 E56.15874
G0 X33.649 Y44.963
G0 F3600 X33.719 Y45.599
G1 F1800 X35.08 Y46.96 E56.25476
G0 X35.15 Y47.03
G0 F3600 X34.515 Y46.96
G1 F1800 X33.719 Y46.164 E56.31092
G0 X33.649 Y46.094
G0 F3600 X33.719 Y46.73
G1 F1800 X33.949 Y46.96 E56.32715
G0 F3600 X33.949 Y46.741
G1 F1500 E49.82715
G0 F3600 X47.52 Y47.071
G0 X48.805 Y47.071
G0 X51.195 Y47.071
G0 X52.48 Y47.071
G0 X52.53 Y47.071
G0 X52.46 Y47.141
;TYPE:WALL-INNER
G1 F1500 E56.32715
G1 F1800 X52.46 Y42.74 E56.54672
G1 X57.26 Y42.74 E56.78619
G1 X57.26 Y37.94 E57.02566
G1 X61.66 Y37.94 E57.24518
G1 X61.66 Y42.74 E57.48465
G1 X66.46 Y42.74 E57.72413
G1 X66.46 Y47.141 E57.94369
G1 X52.46 Y47.141 E58.64216
G0 F3600 X52.06 Y47.541
;TYPE:WALL-OUTER
G1 F1800 X52.06 Y42.34 E58.90164
G1 X56.86 Y42.34 E59.14111
G1 X56.86 Y37.54 E59.38058
G1 X62.06 Y37.54 E59.64001
G1 X62.06 Y42.34 E59.87948
G1 X66.86 Y42.34 E60.11896
G1 X66.86 Y47.541 E60.37844
