;FLAVOR:RepRap
;TIME:2188
;Filament used: 1.10715m
;Layer height: 0.1
;Generated with Cura_SteamEngine master
M104 S215
M109 S215
G21 ;metric values
G90 ;absolute positioning
M82 ;set extruder to absolute mode
M107 ;start with the fan off
G28 X0 Y0 ;move X/Y to min endstops
G28 Z0 ;move Z to min endstops
G1 Z15.0 F9000 ;move the platform down 15mm
G92 E0 ;zero the extruded length
G1 F200 E3 ;extrude 3mm of feed stock
G92 E0 ;zero the extruded length again
G1 F9000
;Put printing message on LCD screen
M117 Printing...
;LAYER_COUNT:38
;LAYER:0
M107
G1 F1500 E-6.5
G0 F3600 X32.86 Y29.74 Z0.3
;TYPE:WALL-INNER
G1 F1500 E0
G1 F1800 X37.66 Y29.74 E0.23947
G1 X37.66 Y24.94 E0.47895
G1 X42.06 Y24.94 E0.69846
G1 X42.06 Y34.141 E1.1575
G1 X32.86 Y34.141 E1.61649
G1 X32.86 Y29.74 E1.83606
G0 F3600 X32.93 Y29.81
G0 X37.688 Y29.768
G0 X37.76 Y29.34
G0 X37.26 Y29.34
;TYPE:WALL-OUTER
G1 F1800 X37.26 Y24.54 E2.07553
G1 X42.46 Y24.54 E2.33496
G1 X42.46 Y34.541 E2.83391
G1 X32.46 Y34.541 E3.33282
G1 X32.46 Y29.34 E3.59229
G1 X37.26 Y29.34 E3.83177
G0 F3600 X37.26 Y29.14
G0 X37.839 Y29.354
;TYPE:SKIN
G1 F1800 X41.879 Y33.394 E4.11681
G0 X41.949 Y33.464
G0 F3600 X41.879 Y32.828
G1 F1800 X37.839 Y28.788 E4.40185
G0 X37.769 Y28.718
G0 F3600 X37.839 Y28.222
G1 F1800 X41.879 Y32.263 E4.68693
G0 X41.949 Y32.333
G0 F3600 X41.879 Y31.697
G1 F1800 X37.839 Y27.657 E4.97198
G0 X37.769 Y27.587
G0 F3600 X37.839 Y27.091
G1 F1800 X41.879 Y31.131 E5.25702
G0 X41.949 Y31.201
G0 F3600 X41.879 Y30.566
G1 F1800 X37.839 Y26.525 E5.5421
G0 X37.769 Y26.455
G0 F3600 X37.839 Y25.96
G1 F1800 X41.879 Y30 E5.82714
G0 X41.949 Y30.07
G0 F3600 X41.879 Y29.434
G1 F1800 X37.839 Y25.394 E6.11219
G0 X37.769 Y25.324
G0 F3600 X38.13 Y25.119
G1 F1800 X41.879 Y28.869 E6.37674
G0 X41.949 Y28.939
G0 F3600 X41.879 Y28.303
G1 F1800 X38.696 Y25.119 E6.60135
G0 X38.626 Y25.049
G0 F3600 X39.262 Y25.119
G1 F1800 X41.879 Y27.737 E6.78603
G0 X41.949 Y27.807
G0 F3600 X41.879 Y27.171
G1 F1800 X39.827 Y25.119 E6.93081
G0 X39.757 Y25.049
G0 F3600 X40.393 Y25.119
G1 F1800 X41.879 Y26.606 E7.03569
G0 X41.949 Y26.676
G0 F3600 X41.879 Y26.04
G1 F1800 X40.959 Y25.119 E7.10063
G0 X40.889 Y25.049
G0 F3600 X41.524 Y25.119
G1 F1800 X41.879 Y25.474 E7.12568
G0 F3600 X37.839 Y29.919
G1 F1800 X41.879 Y33.96 E7.41076
G0 X41.949 Y34.03
G0 F3600 X41.314 Y33.96
G1 F1800 X37.273 Y29.919 E7.69587
G0 X37.203 Y29.849
G0 F3600 X36.708 Y29.919
G1 F1800 X40.748 Y33.96 E7.98095
G0 X40.818 Y34.03
G0 F3600 X40.182 Y33.96
G1 F1800 X36.142 Y29.919 E8.26603
G0 X36.072 Y29.849
G0 F3600 X35.576 Y29.919
G1 F1800 X39.617 Y33.96 E8.55115
G0 X39.687 Y34.03
G0 F3600 X39.051 Y33.96
G1 F1800 X35.01 Y29.919 E8.83626
G0 X34.94 Y29.849
G0 F3600 X34.445 Y29.919
G1 F1800 X38.485 Y33.96 E9.12134
G0 X38.555 Y34.03
G0 F3600 X37.92 Y33.96
G1 F1800 X33.879 Y29.919 E9.40646
G0 X33.809 Y29.849
G0 F3600 X33.313 Y29.919
G1 F1800 X37.354 Y33.96 E9.69157
G0 X37.424 Y34.03
G0 F3600 X36.788 Y33.96
G1 F1800 X33.039 Y30.211 E9.95608
G0 X32.969 Y30.141
G0 F3600 X33.039 Y30.776
G1 F1800 X36.222 Y33.96 E10.18069
G0 X36.292 Y34.03
G0 F3600 X35.657 Y33.96
G1 F1800 X33.039 Y31.342 E10.36541
G0 X32.969 Y31.272
G0 F3600 X33.039 Y31.908
G1 F1800 X35.091 Y33.96 E10.51019
G0 X35.161 Y34.03
G0 F3600 X34.525 Y33.96
G1 F1800 X33.039 Y32.473 E10.61507
G0 X32.969 Y32.403
G0 F3600 X33.039 Y33.039
G1 F1800 X33.96 Y33.96 E10.68005
G0 X34.03 Y34.03
G0 F3600 X33.394 Y33.96
G1 F1800 X33.039 Y33.605 E10.7051
G0 F3600 X33.26 Y33.605
G1 F1500 E4.2051
G0 F3600 X42.04 Y34.071
G0 X43.325 Y34.071
G0 X44.135 Y34.071
G0 X45.42 Y34.071
G0 X45.47 Y34.071
G0 X45.4 Y34.141
;TYPE:WALL-INNER
G1 F1500 E10.7051
G1 F1800 X45.4 Y29.74 E10.92466
G1 X50.2 Y29.74 E11.16414
G1 X50.2 Y24.94 E11.40361
G1 X54.601 Y24.94 E11.62318
G1 X54.601 Y34.141 E12.08222
G1 X45.4 Y34.141 E12.54126
G0 F3600 X45 Y34.541
;TYPE:WALL-OUTER
G1 F1800 X45 Y29.34 E12.80074
G1 X49.8 Y29.34 E13.04021
G1 X49.8 Y24.54 E13.27968
G1 X55.001 Y24.54 E13.53916
G1 X55.001 Y34.541 E14.03811
G1 X45 Y34.541 E14.53706
G0 F3600 X45 Y34.341
G0 X45.47 Y34.071
G0 X45.578 Y33.699
;TYPE:SKIN
G1 F1800 X45.84 Y33.96 E14.55551
G0 F3600 X46.406 Y33.96
G1 F1800 X45.578 Y33.133 E14.6139
G0 X45.508 Y33.063
G0 F3600 X45.578 Y32.567
G1 F1800 X46.971 Y33.96 E14.71218
G0 X47.041 Y34.03
G0 F3600 X47.537 Y33.96
G1 F1800 X45.578 Y32.002 E14.85037
G0 X45.508 Y31.932
G0 F3600 X45.578 Y31.436
G1 F1800 X48.103 Y33.96 E15.02848
G0 X48.173 Y34.03
G0 F3600 X48.668 Y33.96
G1 F1800 X45.578 Y30.87 E15.2465
G0 X45.508 Y30.8
G0 F3600 X45.578 Y30.305
G1 F1800 X49.234 Y33.96 E15.50441
G0 X49.304 Y34.03
G0 F3600 X49.8 Y33.96
G1 F1800 X45.759 Y29.919 E15.78953
G0 X45.689 Y29.849
G0 F3600 X46.324 Y29.919
G1 F1800 X50.365 Y33.96 E16.07464
G0 X50.435 Y34.03
G0 F3600 X50.931 Y33.96
G1 F1800 X46.89 Y29.919 E16.35976
G0 X46.82 Y29.849
G0 F3600 X47.456 Y29.919
G1 F1800 X51.497 Y33.96 E16.64487
G0 X51.567 Y34.03
G0 F3600 X52.062 Y33.96
G1 F1800 X48.021 Y29.919 E16.92999
G0 X47.951 Y29.849
G0 F3600 X48.587 Y29.919
G1 F1800 X52.628 Y33.96 E17.2151
G0 X52.698 Y34.03
G0 F3600 X53.194 Y33.96
G1 F1800 X49.153 Y29.919 E17.50022
G0 X49.083 Y29.849
G0 F3600 X49.718 Y29.919
G1 F1800 X53.759 Y33.96 E17.78533
G0 X53.829 Y34.03
G0 F3600 X54.325 Y33.96
G1 F1800 X50.284 Y29.919 E18.07044
G0 X50.214 Y29.849
G0 F3600 X50.379 Y29.448
G1 F1800 X54.42 Y33.489 E18.35556
G0 X54.49 Y33.559
G0 F3600 X54.42 Y32.924
G1 F1800 X50.379 Y28.883 E18.64067
G0 X50.309 Y28.813
G0 F3600 X50.379 Y28.317
G1 F1800 X54.42 Y32.358 E18.92579
G0 X54.49 Y32.428
G0 F3600 X54.42 Y31.792
G1 F1800 X50.379 Y27.751 E19.2109
G0 X50.309 Y27.681
G0 F3600 X50.379 Y27.186
G1 F1800 X54.42 Y31.227 E19.49602
G0 X54.49 Y31.297
G0 F3600 X54.42 Y30.661
G1 F1800 X50.379 Y26.62 E19.78113
G0 X50.309 Y26.55
G0 F3600 X50.379 Y26.054
G1 F1800 X54.42 Y30.095 E20.06624
G0 X54.49 Y30.165
G0 F3600 X54.42 Y29.53
G1 F1800 X50.379 Y25.489 E20.35136
G0 X50.309 Y25.419
G0 F3600 X50.575 Y25.119
G1 F1800 X54.42 Y28.964 E20.62264
G0 X54.49 Y29.034
G0 F3600 X54.42 Y28.398
G1 F1800 X51.141 Y25.119 E20.854
G0 X51.071 Y25.049
G0 F3600 X51.707 Y25.119
G1 F1800 X54.42 Y27.833 E21.04545
G0 X54.49 Y27.903
G0 F3600 X54.42 Y27.267
G1 F1800 X52.272 Y25.119 E21.197
G0 X52.202 Y25.049
G0 F3600 X52.838 Y25.119
G1 F1800 X54.42 Y26.701 E21.30862
G0 X54.49 Y26.771
G0 F3600 X54.42 Y26.136
G1 F1800 X53.404 Y25.119 E21.38034
G0 X53.334 Y25.049
G0 F3600 X53.969 Y25.119
G1 F1800 X54.42 Y25.57 E21.41216
G0 F3600 X54.201 Y25.57
G1 F1500 E14.91216
G0 F3600 X54.581 Y29.81
G0 X55.866 Y29.81
G0 X56.676 Y29.81
G0 X57.961 Y29.81
G0 X58.011 Y29.81
G0 X57.941 Y29.74
;TYPE:WALL-INNER
G1 F1500 E21.41216
G1 F1800 X62.74 Y29.74 E21.65158
G1 X62.74 Y24.94 E21.89106
G1 X67.141 Y24.94 E22.11062
G1 X67.141 Y34.141 E22.56966
G1 X57.941 Y34.141 E23.02865
G1 X57.941 Y29.74 E23.24822
G0 F3600 X58.011 Y29.81
G0 X62.768 Y29.768
G0 X62.84 Y29.34
G0 X62.34 Y29.34
;TYPE:WALL-OUTER
G1 F1800 X62.34 Y24.54 E23.48769
G1 X67.541 Y24.54 E23.74717
G1 X67.541 Y34.541 E24.24612
G1 X57.541 Y34.541 E24.74502
G1 X57.541 Y29.34 E25.0045
G1 X62.34 Y29.34 E25.24393
G0 F3600 X62.34 Y29.14
G0 X62.919 Y28.977
;TYPE:SKIN
G1 F1800 X66.96 Y33.019 E25.52908
G0 X67.03 Y33.089
G0 F3600 X66.96 Y32.454
G1 F1800 X62.919 Y28.412 E25.81423
G0 X62.849 Y28.342
G0 F3600 X62.919 Y27.846
G1 F1800 X66.96 Y31.888 E26.09938
G0 X67.03 Y31.958
G0 F3600 X66.96 Y31.322
G1 F1800 X62.919 Y27.28 E26.38453
G0 X62.849 Y27.21
G0 F3600 X62.919 Y26.715
G1 F1800 X66.96 Y30.757 E26.66967
G0 X67.03 Y30.827
G0 F3600 X66.96 Y30.191
G1 F1800 X62.919 Y26.149 E26.95482
G0 X62.849 Y26.079
G0 F3600 X62.919 Y25.583
G1 F1800 X66.96 Y29.625 E27.23997
G0 X67.03 Y29.695
G0 F3600 X66.96 Y29.059
G1 F1800 X63.02 Y25.119 E27.51796
G0 X62.95 Y25.049
G0 F3600 X63.586 Y25.119
G1 F1800 X66.96 Y28.494 E27.75605
G0 X67.03 Y28.564
G0 F3600 X66.96 Y27.928
G1 F1800 X64.152 Y25.119 E27.95421
G0 X64.082 Y25.049
G0 F3600 X64.717 Y25.119
G1 F1800 X66.96 Y27.362 E28.11246
G0 X67.03 Y27.432
G0 F3600 X66.96 Y26.797
G1 F1800 X65.283 Y25.119 E28.23082
G0 X65.213 Y25.049
G0 F3600 X65.849 Y25.119
G1 F1800 X66.96 Y26.231 E28.30924
G0 X67.03 Y26.301
G0 F3600 X66.96 Y25.665
G1 F1800 X66.415 Y25.119 E28.34773
G0 F3600 X62.919 Y29.543
G1 F1800 X66.96 Y33.585 E28.63288
G0 X67.03 Y33.655
G0 F3600 X66.77 Y33.96
G1 F1800 X62.729 Y29.919 E28.91799
G0 X62.659 Y29.849
G0 F3600 X62.163 Y29.919
G1 F1800 X66.204 Y33.96 E29.20311
G0 X66.274 Y34.03
G0 F3600 X65.639 Y33.96
G1 F1800 X61.598 Y29.919 E29.48822
G0 X61.528 Y29.849
G0 F3600 X61.032 Y29.919
G1 F1800 X65.073 Y33.96 E29.77334
G0 X65.143 Y34.03
G0 F3600 X64.507 Y33.96
G1 F1800 X60.466 Y29.919 E30.05845
G0 X60.396 Y29.849
G0 F3600 X59.901 Y29.919
G1 F1800 X63.942 Y33.96 E30.34357
G0 X64.012 Y34.03
G0 F3600 X63.376 Y33.96
G1 F1800 X59.335 Y29.919 E30.62868
G0 X59.265 Y29.849
G0 F3600 X58.769 Y29.919
G1 F1800 X62.81 Y33.96 E30.91379
G0 X62.88 Y34.03
G0 F3600 X62.245 Y33.96
G1 F1800 X58.204 Y29.919 E31.19891
G0 X58.134 Y29.849
G0 F3600 X58.119 Y30.401
G1 F1800 X61.679 Y33.96 E31.45005
G0 X61.749 Y34.03
G0 F3600 X61.113 Y33.96
G1 F1800 X58.119 Y30.967 E31.66126
G0 X58.049 Y30.897
G0 F3600 X58.119 Y31.532
G1 F1800 X60.548 Y33.96 E31.8326
G0 X60.618 Y34.03
G0 F3600 X59.982 Y33.96
G1 F1800 X58.119 Y32.098 E31.96401
G0 X58.049 Y32.028
G0 F3600 X58.119 Y32.664
G1 F1800 X59.416 Y33.96 E32.05549
G0 X59.486 Y34.03
G0 F3600 X58.851 Y33.96
G1 F1800 X58.119 Y33.229 E32.1071
G0 X58.049 Y33.159
G0 F3600 X58.119 Y33.795
G1 F1800 X58.285 Y33.96 E32.11877
G0 F3600 X58.341 Y33.741
G1 F1500 E25.61877
G0 F3600 X62.81 Y34.121
G0 X62.81 Y35.406
G0 X62.81 Y37.315
G0 X62.81 Y38.6
G0 X62.81 Y38.65
G0 X62.74 Y38.58
;TYPE:WALL-INNER
G1 F1500 E32.11877
G1 F1800 X67.141 Y38.58 E32.33834
G1 X67.141 Y47.781 E32.79738
G1 X57.941 Y47.781 E33.25637
G1 X57.941 Y43.38 E33.47594
G1 X62.74 Y43.38 E33.71536
G1 X62.74 Y38.58 E33.95483
G0 F3600 X62.81 Y38.65
G0 X62.84 Y42.98
G0 X62.34 Y42.98
;TYPE:WALL-OUTER
G1 F1800 X62.34 Y38.18 E34.19431
G1 X67.541 Y38.18 E34.45379
G1 X67.541 Y48.181 E34.95274
G1 X57.541 Y48.181 E35.45164
G1 X57.541 Y42.98 E35.71112
G1 X62.34 Y42.98 E35.95054
G0 F3600 X62.34 Y42.78
G0 X62.919 Y42.554
;TYPE:SKIN
G1 F1800 X66.96 Y46.596 E36.23569
G0 X67.03 Y46.666
G0 F3600 X66.96 Y47.161
G1 F1800 X62.919 Y43.12 E36.52081
G0 X62.849 Y43.05
G0 F3600 X62.793 Y43.559
G1 F1800 X66.834 Y47.601 E36.80596
G0 X66.904 Y47.671
G0 F3600 X66.268 Y47.601
G1 F1800 X62.227 Y43.559 E37.0911
G0 X62.157 Y43.489
G0 F3600 X61.661 Y43.559
G1 F1800 X65.702 Y47.601 E37.37625
G0 X65.772 Y47.671
G0 F3600 X65.137 Y47.601
G1 F1800 X61.096 Y43.559 E37.6614
G0 X61.026 Y43.489
G0 F3600 X60.53 Y43.559
G1 F1800 X64.571 Y47.601 E37.94655
G0 X64.641 Y47.671
G0 F3600 X64.005 Y47.601
G1 F1800 X59.964 Y43.559 E38.2317
G0 X59.894 Y43.489
G0 F3600 X59.399 Y43.559
G1 F1800 X63.44 Y47.601 E38.51685
G0 X63.51 Y47.671
G0 F3600 X62.874 Y47.601
G1 F1800 X58.833 Y43.559 E38.802
G0 X58.763 Y43.489
G0 F3600 X58.267 Y43.559
G1 F1800 X62.308 Y47.601 E39.08715
G0 X62.378 Y47.671
G0 F3600 X61.743 Y47.601
G1 F1800 X58.119 Y43.977 E39.34285
G0 X58.049 Y43.907
G0 F3600 X58.119 Y44.543
G1 F1800 X61.177 Y47.601 E39.5586
G0 X61.247 Y47.671
G0 F3600 X60.611 Y47.601
G1 F1800 X58.119 Y45.109 E39.73443
G0 X58.049 Y45.039
G0 F3600 X58.119 Y45.674
G1 F1800 X60.046 Y47.601 E39.87039
G0 X60.116 Y47.671
G0 F3600 X59.48 Y47.601
G1 F1800 X58.119 Y46.24 E39.96641
G0 X58.049 Y46.17
G0 F3600 X58.119 Y46.806
G1 F1800 X58.914 Y47.601 E40.02251
G0 X58.984 Y47.671
G0 F3600 X58.349 Y47.601
G1 F1800 X58.119 Y47.371 E40.03873
G0 F3600 X62.768 Y43.408
G0 X62.919 Y41.988
G1 F1800 X66.96 Y46.03 E40.32388
G0 X67.03 Y46.1
G0 F3600 X66.96 Y45.464
G1 F1800 X62.919 Y41.423 E40.609
G0 X62.849 Y41.353
G0 F3600 X62.919 Y40.857
G1 F1800 X66.96 Y44.899 E40.89415
G0 X67.03 Y44.969
G0 F3600 X66.96 Y44.333
G1 F1800 X62.919 Y40.291 E41.1793
G0 X62.849 Y40.221
G0 F3600 X62.919 Y39.725
G1 F1800 X66.96 Y43.767 E41.46445
G0 X67.03 Y43.837
G0 F3600 X66.96 Y43.202
G1 F1800 X62.919 Y39.16 E41.7496
G0 X62.849 Y39.09
G0 F3600 X63.084 Y38.76
G1 F1800 X66.96 Y42.636 E42.02307
G0 X67.03 Y42.706
G0 F3600 X66.96 Y42.07
G1 F1800 X63.65 Y38.76 E42.25661
G0 X63.58 Y38.69
G0 F3600 X64.215 Y38.76
G1 F1800 X66.96 Y41.505 E42.45028
G0 X67.03 Y41.575
G0 F3600 X66.96 Y40.939
G1 F1800 X64.781 Y38.76 E42.60402
G0 X64.711 Y38.69
G0 F3600 X65.347 Y38.76
G1 F1800 X66.96 Y40.373 E42.71783
G0 X67.03 Y40.443
G0 F3600 X66.96 Y39.807
G1 F1800 X65.912 Y38.76 E42.79173
G0 X65.842 Y38.69
G0 F3600 X66.478 Y38.76
G1 F1800 X66.96 Y39.242 E42.82574
G0 F3600 X66.741 Y39.242
G1 F1500 E36.32574
G0 F3600 X67.071 Y47.761
G0 X67.071 Y49.046
G0 X67.071 Y50.955
G0 X67.071 Y52.24
G0 X67.071 Y52.29
G0 X67.141 Y52.22
;TYPE:WALL-INNER
G1 F1500 E42.82574
G1 F1800 X67.141 Y61.421 E43.28478
G1 X57.941 Y61.421 E43.74377
G1 X57.941 Y57.02 E43.96334
G1 X62.74 Y57.02 E44.20276
G1 X62.74 Y52.22 E44.44223
G1 X67.141 Y52.22 E44.6618
G0 F3600 X67.541 Y51.82
;TYPE:WALL-OUTER
G1 F1800 X67.541 Y61.821 E45.16075
G1 X57.541 Y61.821 E45.65966
G1 X57.541 Y56.62 E45.91913
G1 X62.34 Y56.62 E46.15856
G1 X62.34 Y51.82 E46.39803
G1 X67.541 Y51.82 E46.65751
G0 F3600 X67.541 Y52.02
G0 X67.071 Y52.29
G0 X66.96 Y52.818
;TYPE:SKIN
G1 F1800 X66.542 Y52.4 E46.687
G0 F3600 X65.976 Y52.4
G1 F1800 X66.96 Y53.383 E46.75639
G0 X67.03 Y53.453
G0 F3600 X66.96 Y53.949
G1 F1800 X65.41 Y52.4 E46.86572
G0 X65.34 Y52.33
G0 F3600 X64.845 Y52.4
G1 F1800 X66.96 Y54.515 E47.01494
G0 X67.03 Y54.585
G0 F3600 X66.96 Y55.08
G1 F1800 X64.279 Y52.4 E47.20407
G0 X64.209 Y52.33
G0 F3600 X63.713 Y52.4
G1 F1800 X66.96 Y55.646 E47.43312
G0 X67.03 Y55.716
G0 F3600 X66.96 Y56.212
G1 F1800 X63.148 Y52.4 E47.70208
G0 X63.078 Y52.33
G0 F3600 X62.919 Y52.736
G1 F1800 X66.96 Y56.777 E47.9872
G0 X67.03 Y56.847
G0 F3600 X66.96 Y57.343
G1 F1800 X62.919 Y53.302 E48.27231
G0 X62.849 Y53.232
G0 F3600 X62.919 Y53.868
G1 F1800 X66.96 Y57.909 E48.55742
G0 X67.03 Y57.979
G0 F3600 X66.96 Y58.474
G1 F1800 X62.919 Y54.433 E48.84254
G0 X62.849 Y54.363
G0 F3600 X62.919 Y54.999
G1 F1800 X66.96 Y59.04 E49.12765
G0 X67.03 Y59.11
G0 F3600 X66.96 Y59.606
G1 F1800 X62.919 Y55.565 E49.41277
G0 X62.849 Y55.495
G0 F3600 X62.919 Y56.13
G1 F1800 X66.96 Y60.171 E49.69788
G0 X67.03 Y60.241
G0 F3600 X66.96 Y60.737
G1 F1800 X62.919 Y56.696 E49.983
G0 X62.849 Y56.626
G0 F3600 X62.856 Y57.199
G1 F1800 X66.897 Y61.24 E50.26811
G0 X66.967 Y61.31
G0 F3600 X66.331 Y61.24
G1 F1800 X62.291 Y57.199 E50.55319
G0 X62.221 Y57.129
G0 F3600 X61.725 Y57.199
G1 F1800 X65.765 Y61.24 E50.83827
G0 X65.835 Y61.31
G0 F3600 X65.2 Y61.24
G1 F1800 X61.159 Y57.199 E51.12338
G0 X61.089 Y57.129
G0 F3600 X60.594 Y57.199
G1 F1800 X64.634 Y61.24 E51.40846
G0 X64.704 Y61.31
G0 F3600 X64.068 Y61.24
G1 F1800 X60.028 Y57.199 E51.69354
G0 X59.958 Y57.129
G0 F3600 X59.462 Y57.199
G1 F1800 X63.503 Y61.24 E51.97866
G0 X63.573 Y61.31
G0 F3600 X62.937 Y61.24
G1 F1800 X58.897 Y57.199 E52.26374
G0 X58.827 Y57.129
G0 F3600 X58.331 Y57.199
G1 F1800 X62.371 Y61.24 E52.54881
G0 X62.441 Y61.31
G0 F3600 X61.806 Y61.24
G1 F1800 X58.12 Y57.554 E52.80888
G0 X58.05 Y57.484
G0 F3600 X58.12 Y58.12
G1 F1800 X61.24 Y61.24 E53.02901
G0 X61.31 Y61.31
G0 F3600 X60.674 Y61.24
G1 F1800 X58.12 Y58.686 E53.20921
G0 X58.05 Y58.616
G0 F3600 X58.12 Y59.252
G1 F1800 X60.109 Y61.24 E53.34951
G0 X60.179 Y61.31
G0 F3600 X59.543 Y61.24
G1 F1800 X58.12 Y59.817 E53.44991
G0 X58.05 Y59.747
G0 F3600 X58.12 Y60.383
G1 F1800 X58.977 Y61.24 E53.51038
G0 X59.047 Y61.31
G0 F3600 X58.411 Y61.24
G1 F1800 X58.12 Y60.949 E53.53091
G0 F3600 X58.341 Y60.949
G1 F1500 E47.03091
G0 F3600 X62.81 Y61.401
G0 X62.81 Y62.686
G0 X62.81 Y64.596
G0 X62.81 Y65.881
G0 X62.81 Y65.931
G0 X62.74 Y65.861
;TYPE:WALL-INNER
G1 F1500 E53.53091
G1 F1800 X67.141 Y65.861 E53.75048
G1 X67.141 Y75.061 E54.20947
G1 X57.941 Y75.061 E54.66846
G1 X57.941 Y70.66 E54.88802
G1 X62.74 Y70.66 E55.12745
G1 X62.74 Y65.861 E55.36687
G0 F3600 X62.81 Y65.931
G0 X62.84 Y70.26
G0 X62.34 Y70.26
;TYPE:WALL-OUTER
G1 F1800 X62.34 Y65.461 E55.60629
G1 X67.541 Y65.461 E55.86577
G1 X67.541 Y75.461 E56.36467
G1 X57.541 Y75.461 E56.86358
G1 X57.541 Y70.26 E57.12305
G1 X62.34 Y70.26 E57.36248
G0 F3600 X62.34 Y70.06
