;FLAVOR:RepRap
;TIME:400
;Filament used: 0.383667m
;Layer height: 0.2
;Generated with Cura_SteamEngine master
M190 S60
M104 S215
M109 S215
G21 ;metric values
G90 ;absolute positioning
M82 ;set extruder to absolute mode
M107 ;start with the fan off
G28 X0 Y0 ;move X/Y to min endstops
G28 Z0 ;move Z to min endstops
G1 Z15.0 F9000 ;move the platform down 15mm
G92 E0 ;zero the extruded length
G1 F200 E3 ;extrude 3mm of feed stock
G92 E0 ;zero the extruded length again
G1 F9000
;Put printing message on LCD screen
M117 Printing...
;LAYER_COUNT:10
;LAYER:0
M107
G1 F1500 E-1
G0 F3600 X85.294 Y74.057 Z0.3
;TYPE:WALL-OUTER
G1 F1500 E0
G1 F1800 X89.602 Y70.751 E0.27092
G1 X94.62 Y68.672 E0.54191
G1 X100 Y67.964 E0.81263
G1 X105.38 Y68.672 E1.08335
G1 X110.399 Y70.751 E1.35438
G1 X114.706 Y74.057 E1.62526
G1 X118.011 Y78.364 E1.89611
G1 X120.09 Y83.383 E2.16715
G1 X120.799 Y88.763 E2.43788
G1 X120.09 Y94.143 E2.70861
G1 X118.011 Y99.162 E2.97964
G1 X114.706 Y103.468 E3.25045
G1 X110.399 Y106.773 E3.5213
G1 X105.38 Y108.852 E3.79233
G1 X100 Y109.561 E4.06306
G1 X94.62 Y108.852 E4.33379
G1 X89.601 Y106.773 E4.60482
G1 X85.294 Y103.468 E4.87567
G1 X81.989 Y99.162 E5.14648
G1 X79.91 Y94.143 E5.41751
G1 X79.201 Y88.763 E5.68824
G1 X79.91 Y83.383 E5.95897
G1 X81.989 Y78.364 E6.23
G1 X85.294 Y74.057 E6.50085
G0 F3600 X85.452 Y73.936
G0 X85.511 Y74.015
G0 X85.451 Y78.486
G0 X85.451 Y78.586
G1 F1800 X84.992 Y78.647 E6.52395
G1 X84.563 Y78.824 E6.54711
G1 X84.196 Y79.106 E6.5702
G1 X83.912 Y79.474 E6.59339
G1 X83.735 Y79.903 E6.61654
G1 X83.674 Y80.363 E6.63969
G1 X83.735 Y80.823 E6.66284
G1 X83.912 Y81.251 E6.68595
G1 X84.195 Y81.62 E6.70915
G1 X84.553 Y81.894 E6.73164
G1 X85.501 Y82.441 E6.78625
G1 X84.592 Y84.635 E6.90473
G1 X84.283 Y86.988 E7.02313
G1 X83.188 Y86.988 E7.07776
G1 X82.741 Y87.047 E7.10025
G1 X82.312 Y87.224 E7.1234
G1 X81.957 Y87.497 E7.14575
G1 X81.672 Y87.86 E7.16877
G1 X81.484 Y88.302 E7.19274
G1 X81.424 Y88.763 E7.21593
G1 X81.484 Y89.223 E7.23907
G1 X81.662 Y89.651 E7.2622
G1 X81.944 Y90.02 E7.28537
G1 X82.312 Y90.302 E7.3085
G1 X82.741 Y90.479 E7.33165
G1 X83.187 Y90.538 E7.3541
G1 X84.283 Y90.538 E7.40878
G1 X84.592 Y92.891 E7.52718
G1 X85.501 Y95.085 E7.64566
G1 X84.553 Y95.632 E7.70026
G1 X84.196 Y95.906 E7.72271
G1 X83.912 Y96.274 E7.74591
G1 X83.735 Y96.703 E7.76906
G1 X83.674 Y97.163 E7.79221
G1 X83.735 Y97.623 E7.81536
G1 X83.89 Y97.998 E7.8356
G1 X83.936 Y98.082 E7.84038
G1 X84.186 Y98.407 E7.86084
G1 X84.55 Y98.692 E7.8839
G1 X84.991 Y98.879 E7.9078
G1 X85.451 Y98.94 E7.93095
G1 X85.911 Y98.879 E7.9541
G1 X86.328 Y98.707 E7.97661
G1 X87.276 Y98.159 E8.03123
G1 X88.721 Y100.043 E8.14969
G1 X90.604 Y101.487 E8.26808
G1 X90.056 Y102.435 E8.32271
G1 X89.884 Y102.851 E8.34516
G1 X89.823 Y103.311 E8.36832
G1 X89.882 Y103.754 E8.39061
G1 X90.061 Y104.199 E8.41454
G1 X90.345 Y104.568 E8.43777
G1 X90.712 Y104.85 E8.46086
G1 X91.141 Y105.027 E8.48402
G1 X91.6 Y105.088 E8.50712
G1 X92.06 Y105.027 E8.53027
G1 X92.489 Y104.85 E8.55342
G1 X92.857 Y104.568 E8.57655
G1 X93.131 Y104.21 E8.59904
G1 X93.678 Y103.262 E8.65365
G1 X95.872 Y104.17 E8.77211
G1 X98.225 Y104.48 E8.89052
G1 X98.225 Y105.575 E8.94515
G1 X98.284 Y106.022 E8.96764
G1 X98.461 Y106.45 E8.99075
G1 X98.744 Y106.819 E9.01395
G1 X99.112 Y107.101 E9.03708
G1 X99.541 Y107.278 E9.06023
G1 X100 Y107.339 E9.08333
G1 X100.459 Y107.278 E9.10643
G1 X100.888 Y107.101 E9.12959
G1 X101.256 Y106.819 E9.15272
G1 X101.538 Y106.45 E9.17589
G1 X101.716 Y106.023 E9.19897
G1 X101.775 Y105.575 E9.22151
G1 X101.775 Y104.48 E9.27614
G1 X104.128 Y104.17 E9.39455
G1 X106.322 Y103.262 E9.51301
G1 X106.868 Y104.21 E9.56759
G1 X107.144 Y104.568 E9.59014
G1 X107.511 Y104.85 E9.61323
G1 X107.94 Y105.028 E9.6364
G1 X108.399 Y105.088 E9.6595
G1 X108.859 Y105.028 E9.68264
G1 X109.288 Y104.85 E9.70581
G1 X109.656 Y104.568 E9.72894
G1 X109.938 Y104.2 E9.75207
G1 X110.116 Y103.771 E9.77525
G1 X110.176 Y103.311 E9.79839
G1 X110.116 Y102.852 E9.82148
G1 X109.943 Y102.435 E9.84401
G1 X109.396 Y101.487 E9.89861
G1 X111.279 Y100.043 E10.017
G1 X112.724 Y98.159 E10.13545
G1 X113.672 Y98.707 E10.19008
G1 X114.089 Y98.879 E10.21259
G1 X114.549 Y98.94 E10.23574
G1 X115.008 Y98.879 E10.25884
G1 X115.437 Y98.702 E10.28199
G1 X115.805 Y98.42 E10.30512
G1 X116.088 Y98.051 E10.32832
G1 X116.265 Y97.623 E10.35143
G1 X116.326 Y97.163 E10.37458
G1 X116.265 Y96.703 E10.39773
G1 X116.088 Y96.274 E10.42088
G1 X115.804 Y95.906 E10.44408
G1 X115.447 Y95.632 E10.46653
G1 X114.499 Y95.085 E10.52113
G1 X115.408 Y92.891 E10.63961
G1 X115.717 Y90.538 E10.75801
G1 X116.812 Y90.538 E10.81264
G1 X117.259 Y90.479 E10.83514
G1 X117.688 Y90.302 E10.85829
G1 X118.056 Y90.02 E10.88142
G1 X118.338 Y89.651 E10.90459
G1 X118.516 Y89.223 E10.92772
G1 X118.576 Y88.763 E10.95086
G1 X118.516 Y88.303 E10.974
G1 X118.338 Y87.874 E10.99718
G1 X118.056 Y87.506 E11.02031
G1 X117.688 Y87.224 E11.04344
G1 X117.259 Y87.047 E11.06659
G1 X116.813 Y86.988 E11.08904
G1 X115.717 Y86.988 E11.14371
G1 X115.408 Y84.635 E11.26211
G1 X114.499 Y82.441 E11.3806
G1 X115.447 Y81.894 E11.4352
G1 X115.805 Y81.62 E11.45769
G1 X116.088 Y81.251 E11.48089
G1 X116.265 Y80.823 E11.504
G1 X116.326 Y80.363 E11.52715
G1 X116.265 Y79.903 E11.5503
G1 X116.088 Y79.474 E11.57345
G1 X115.805 Y79.106 E11.59661
G1 X115.45 Y78.834 E11.61893
G1 X115.009 Y78.647 E11.64282
G1 X114.549 Y78.586 E11.66597
G1 X114.089 Y78.647 E11.68912
G1 X113.672 Y78.819 E11.71163
G1 X112.724 Y79.367 E11.76626
G1 X111.279 Y77.483 E11.88471
G1 X109.396 Y76.038 E12.00313
G1 X109.944 Y75.09 E12.05776
G1 X110.116 Y74.673 E12.08027
G1 X110.177 Y74.214 E12.10337
G1 X110.116 Y73.754 E12.12652
G1 X109.939 Y73.325 E12.14967
G1 X109.655 Y72.957 E12.17286
G1 X109.288 Y72.675 E12.19595
G1 X108.859 Y72.497 E12.21912
G1 X108.4 Y72.437 E12.24222
G1 X107.94 Y72.497 E12.26536
G1 X107.511 Y72.675 E12.28853
G1 X107.143 Y72.957 E12.31166
G1 X106.869 Y73.315 E12.33416
G1 X106.322 Y74.263 E12.38876
G1 X104.128 Y73.355 E12.50722
G1 X101.775 Y73.045 E12.62563
G1 X101.775 Y71.95 E12.68026
G1 X101.716 Y71.503 E12.70275
G1 X101.539 Y71.074 E12.72591
G1 X101.255 Y70.706 E12.7491
G1 X100.888 Y70.424 E12.77219
G1 X100.459 Y70.247 E12.79534
G1 X100 Y70.186 E12.81844
G1 X99.541 Y70.247 E12.84154
G1 X99.112 Y70.424 E12.8647
G1 X98.744 Y70.706 E12.88783
G1 X98.462 Y71.074 E12.91096
G1 X98.284 Y71.503 E12.93413
G1 X98.226 Y71.95 E12.95662
G1 X98.226 Y73.045 E13.01125
G1 X95.872 Y73.355 E13.1297
G1 X93.678 Y74.263 E13.24816
G1 X93.132 Y73.315 E13.30274
G1 X92.856 Y72.957 E13.3253
G1 X92.489 Y72.675 E13.34839
G1 X92.06 Y72.497 E13.37156
G1 X91.601 Y72.437 E13.39465
G1 X91.141 Y72.497 E13.4178
G1 X90.712 Y72.675 E13.44097
G1 X90.344 Y72.957 E13.4641
G1 X90.062 Y73.325 E13.48723
G1 X89.884 Y73.754 E13.5104
G1 X89.824 Y74.214 E13.53355
G1 X89.884 Y74.673 E13.55664
G1 X90.057 Y75.09 E13.57916
G1 X90.604 Y76.038 E13.63377
G1 X88.721 Y77.483 E13.75219
G1 X87.276 Y79.367 E13.87064
G1 X86.328 Y78.819 E13.92527
G1 X85.911 Y78.647 E13.94778
G1 X85.451 Y78.586 E13.97093
G0 F3600 X85.253 Y78.612
G0 X85.221 Y78.433
;TYPE:SKIN
G1 F1800 X83.49 Y76.701 E14.09309
G0 X83.42 Y76.631
G0 F3600 X83.736 Y76.382
G1 F1800 X85.805 Y78.451 E14.23907
G0 X85.875 Y78.521
G0 F3600 X84.766 Y78.544
G1 F1800 X83.244 Y77.022 E14.34646
G0 X83.174 Y76.952
G0 F3600 X82.999 Y77.342
G1 F1800 X84.387 Y78.73 E14.44439
G0 X84.457 Y78.8
G0 F3600 X84.067 Y78.976
G1 F1800 X82.753 Y77.662 E14.5371
G0 X82.683 Y77.592
G0 F3600 X82.508 Y77.982
G1 F1800 X83.821 Y79.295 E14.62974
G0 X83.891 Y79.365
G0 F3600 X83.633 Y79.673
G1 F1800 X82.261 Y78.302 E14.7265
G0 X82.191 Y78.232
G0 F3600 X82.059 Y78.664
G1 F1800 X83.522 Y80.128 E14.82976
G0 X83.592 Y80.198
G0 F3600 X83.537 Y80.709
G1 F1800 X81.892 Y79.064 E14.94583
G0 X81.822 Y78.994
G0 F3600 X81.727 Y79.464
G1 F1800 X85.129 Y82.866 E15.18585
G0 X85.199 Y82.936
G0 F3600 X84.963 Y83.266
G1 F1800 X81.561 Y79.864 E15.42588
G0 X81.491 Y79.794
G0 F3600 X81.395 Y80.264
G1 F1800 X84.798 Y83.666 E15.66595
G0 X84.868 Y83.736
G0 F3600 X84.632 Y84.066
G1 F1800 X81.23 Y80.664 E15.90598
G0 X81.16 Y80.594
G0 F3600 X81.064 Y81.064
G1 F1800 X84.466 Y84.466 E16.14601
G0 X84.536 Y84.536
G0 F3600 X84.371 Y84.936
G1 F1800 X80.899 Y81.465 E16.39094
G0 X80.829 Y81.395
G0 F3600 X80.733 Y81.864
G1 F1800 X84.306 Y85.437 E16.64304
G0 X84.376 Y85.507
G0 F3600 X84.24 Y85.937
G1 F1800 X80.567 Y82.264 E16.90219
G0 X80.497 Y82.194
G0 F3600 X80.402 Y82.665
G1 F1800 X84.174 Y86.437 E17.16832
G0 X84.244 Y86.507
G0 F3600 X83.978 Y86.807
G1 F1800 X80.236 Y83.064 E17.43237
G0 X80.166 Y82.994
G0 F3600 X80.079 Y83.473
G1 F1800 X83.413 Y86.807 E17.66761
G0 X83.483 Y86.877
G0 F3600 X82.885 Y86.845
G1 F1800 X80.013 Y83.973 E17.87024
G0 X79.943 Y83.903
G0 F3600 X79.946 Y84.472
G1 F1800 X82.446 Y86.972 E18.04663
G0 X82.516 Y87.042
G0 F3600 X82.081 Y87.172
G1 F1800 X79.881 Y84.972 E18.20185
G0 X79.811 Y84.902
G0 F3600 X79.815 Y85.472
G1 F1800 X81.777 Y87.434 E18.34028
G0 X81.847 Y87.504
G0 F3600 X81.528 Y87.751
G1 F1800 X79.749 Y85.972 E18.4658
G0 X79.679 Y85.902
G0 F3600 X79.683 Y86.472
G1 F1800 X81.355 Y88.143 E18.58373
G0 X81.425 Y88.213
G0 F3600 X81.261 Y88.615
G1 F1800 X79.617 Y86.971 E18.69973
G0 X79.547 Y86.901
G0 F3600 X79.551 Y87.471
G1 F1800 X81.302 Y89.222 E18.82327
G0 X81.372 Y89.292
G0 F3600 X79.503 Y89.685
G1 F1800 X84.989 Y95.171 E19.21033
G0 X85.059 Y95.241
G0 F3600 X84.63 Y95.378
G1 F1800 X79.589 Y90.337 E19.566
G0 X79.519 Y90.267
G0 F3600 X79.675 Y90.989
G1 F1800 X84.291 Y95.605 E19.89169
G0 X84.361 Y95.675
G0 F3600 X83.993 Y95.873
G1 F1800 X79.76 Y91.64 E20.19035
G0 X79.69 Y91.57
G0 F3600 X79.847 Y92.292
G1 F1800 X83.749 Y96.194 E20.46566
G0 X83.819 Y96.264
G0 F3600 X83.584 Y96.595
G1 F1800 X79.932 Y92.943 E20.72332
G0 X79.862 Y92.873
G0 F3600 X80.019 Y93.595
G1 F1800 X83.503 Y97.08 E20.96918
G0 X83.573 Y97.15
G0 F3600 X83.582 Y97.724
G1 F1800 X80.179 Y94.321 E21.20928
G0 X80.109 Y94.251
G0 F3600 X80.579 Y95.287
G1 F1800 X93.472 Y108.18 E22.11895
G0 X93.542 Y108.25
G0 F3600 X94.438 Y108.58
G1 F1800 X91.036 Y105.178 E22.35898
G0 X90.966 Y105.108
G0 F3600 X91.682 Y105.259
G1 F1800 X95.165 Y108.741 E22.60468
G0 X95.235 Y108.811
G0 F3600 X95.816 Y108.827
G1 F1800 X92.167 Y105.177 E22.86218
G0 X92.097 Y105.107
G0 F3600 X92.567 Y105.012
G1 F1800 X96.468 Y108.913 E23.13741
G0 X96.538 Y108.983
G0 F3600 X97.119 Y108.999
G1 F1800 X92.89 Y104.769 E23.43583
G0 X92.82 Y104.699
G0 F3600 X93.157 Y104.47
G1 F1800 X97.771 Y109.085 E23.76141
G0 X97.841 Y109.155
G0 F3600 X98.422 Y109.17
G1 F1800 X93.382 Y104.13 E24.117
G0 X93.312 Y104.06
G0 F3600 X93.589 Y103.772
G1 F1800 X99.074 Y109.257 E24.504
G0 X99.144 Y109.327
G0 F3600 X99.726 Y109.342
G1 F1800 X93.954 Y103.571 E24.91121
G0 X93.884 Y103.501
G0 F3600 X94.919 Y103.97
G1 F1800 X100.289 Y109.34 E25.29009
G0 X100.359 Y109.41
G0 F3600 X100.789 Y109.274
G1 F1800 X95.864 Y104.349 E25.63758
G0 X95.794 Y104.279
G0 F3600 X96.515 Y104.435
G1 F1800 X98.103 Y106.023 E25.74962
G0 X98.173 Y106.093
G0 F3600 X98.045 Y105.399
G1 F1800 X97.167 Y104.52 E25.8116
G0 X97.097 Y104.45
G0 F3600 X97.818 Y104.606
G1 F1800 X98.045 Y104.833 E25.82762
G0 F3600 X98.246 Y106.032
G0 X98.427 Y106.469
G0 X98.716 Y106.847
G0 X99.539 Y107.459
G1 F1800 X101.289 Y109.209 E25.95109
G0 X101.359 Y109.279
G0 F3600 X101.789 Y109.143
G1 F1800 X100.146 Y107.5 E26.06701
G0 X100.076 Y107.43
G0 F3600 X100.618 Y107.406
G1 F1800 X102.288 Y109.076 E26.18484
G0 X102.358 Y109.146
G0 F3600 X102.788 Y109.011
G1 F1800 X101.01 Y107.233 E26.31029
G0 X100.94 Y107.163
G0 F3600 X101.331 Y106.988
G1 F1800 X103.288 Y108.945 E26.44837
G0 X103.358 Y109.015
G0 F3600 X103.787 Y108.878
G1 F1800 X101.588 Y106.679 E26.60352
G0 X101.518 Y106.609
G0 F3600 X101.789 Y106.314
G1 F1800 X104.287 Y108.813 E26.7798
G0 X104.357 Y108.883
G0 F3600 X104.787 Y108.747
G1 F1800 X101.916 Y105.875 E26.9824
G0 X101.846 Y105.805
G0 F3600 X101.954 Y105.349
G1 F1800 X105.286 Y108.68 E27.21746
G0 X105.356 Y108.75
G0 F3600 X105.695 Y108.523
G1 F1800 X101.954 Y104.783 E27.48137
G0 X101.884 Y104.713
G0 F3600 X102.325 Y104.588
G1 F1800 X106.095 Y108.358 E27.74736
G0 X106.165 Y108.428
G0 F3600 X106.495 Y108.192
G1 F1800 X102.825 Y104.522 E28.0063
G0 X102.755 Y104.452
G0 F3600 X103.325 Y104.456
G1 F1800 X106.895 Y108.026 E28.25818
G0 X106.965 Y108.096
G0 F3600 X107.295 Y107.861
G1 F1800 X103.825 Y104.39 E28.50305
G0 X103.755 Y104.32
G0 F3600 X104.295 Y104.295
G1 F1800 X107.695 Y107.695 E28.74293
G0 X107.765 Y107.765
G0 F3600 X108.095 Y107.529
G1 F1800 X104.695 Y104.129 E28.98282
G0 X104.625 Y104.059
G0 F3600 X105.095 Y103.964
G1 F1800 X108.495 Y107.364 E29.22271
G0 X108.565 Y107.434
G0 F3600 X108.895 Y107.198
G1 F1800 X105.496 Y103.799 E29.46253
G0 X105.426 Y103.729
G0 F3600 X105.896 Y103.633
G1 F1800 X109.296 Y107.033 E29.70242
G0 X109.366 Y107.103
G0 F3600 X109.695 Y106.867
G1 F1800 X108.053 Y105.225 E29.81827
G0 X107.983 Y105.155
G0 F3600 X108.633 Y105.239
G1 F1800 X110.095 Y106.701 E29.92142
G0 X110.165 Y106.771
G0 F3600 X110.457 Y106.498
G1 F1800 X109.088 Y105.128 E30.01805
G0 X109.018 Y105.058
G0 F3600 X109.465 Y104.94
G1 F1800 X110.778 Y106.252 E30.11065
G0 X110.848 Y106.322
G0 F3600 X111.098 Y106.007
G1 F1800 X109.785 Y104.694 E30.20329
G0 X109.715 Y104.624
G0 F3600 X110.03 Y104.373
G1 F1800 X111.418 Y105.761 E30.30122
G0 X111.488 Y105.831
G0 F3600 X111.738 Y105.515
G1 F1800 X110.217 Y103.994 E30.40854
G0 X110.147 Y103.924
G0 F3600 X110.326 Y103.538
G1 F1800 X112.058 Y105.27 E30.53074
G0 X112.128 Y105.34
G0 F3600 X112.378 Y105.024
G1 F1800 X110.31 Y102.956 E30.67665
G0 X110.24 Y102.886
G0 F3600 X109.871 Y101.952
G1 F1800 X112.698 Y104.779 E30.87611
G0 X112.768 Y104.849
G0 F3600 X113.018 Y104.533
G1 F1800 X109.851 Y101.365 E31.09959
G0 X109.781 Y101.295
G0 F3600 X110.171 Y101.12
G1 F1800 X113.338 Y104.287 E31.32304
G0 X113.408 Y104.357
G0 F3600 X113.658 Y104.042
G1 F1800 X110.491 Y100.874 E31.54652
G0 X110.421 Y100.804
G0 F3600 X110.811 Y100.629
G1 F1800 X113.978 Y103.796 E31.76997
G0 X114.048 Y103.866
G0 F3600 X114.298 Y103.55
G1 F1800 X111.131 Y100.383 E31.99342
G0 X111.061 Y100.313
G0 F3600 X111.44 Y100.127
G1 F1800 X114.609 Y103.295 E32.21698
G0 X114.679 Y103.365
G0 F3600 X114.855 Y102.975
G1 F1800 X111.686 Y99.806 E32.44057
G0 X111.616 Y99.736
G0 F3600 X111.932 Y99.487
G1 F1800 X115.1 Y102.655 E32.66409
G0 X115.17 Y102.725
G0 F3600 X115.346 Y102.336
G1 F1800 X112.177 Y99.166 E32.88771
G0 X112.107 Y99.096
G0 F3600 X112.422 Y98.846
G1 F1800 X115.592 Y102.015 E33.11134
G0 X115.662 Y102.085
G0 F3600 X115.838 Y101.696
G1 F1800 X112.668 Y98.526 E33.335
G0 X112.598 Y98.456
G0 F3600 X112.613 Y98.467
G0 X113.557 Y98.849
G1 F1800 X116.083 Y101.375 E33.51322
G0 X116.153 Y101.445
G0 F3600 X116.328 Y101.055
G1 F1800 X114.372 Y99.098 E33.65126
G0 X114.302 Y99.028
G0 F3600 X114.913 Y99.074
G1 F1800 X116.575 Y100.735 E33.76849
G0 X116.645 Y100.805
G0 F3600 X116.82 Y100.415
G1 F1800 X115.341 Y98.936 E33.87284
G0 X115.271 Y98.866
G0 F3600 X115.698 Y98.728
G1 F1800 X117.066 Y100.095 E33.96933
G0 X117.136 Y100.165
G0 F3600 X117.311 Y99.775
G1 F1800 X115.998 Y98.462 E34.06196
G0 X115.928 Y98.392
G0 F3600 X116.244 Y98.142
G1 F1800 X117.557 Y99.455 E34.1546
G0 X117.627 Y99.525
G0 F3600 X117.803 Y99.135
G1 F1800 X116.41 Y97.742 E34.25289
G0 X116.34 Y97.672
G0 F3600 X116.493 Y97.26
G1 F1800 X117.985 Y98.751 E34.35812
G0 X118.055 Y98.821
G0 F3600 X118.15 Y98.351
G1 F1800 X116.429 Y96.63 E34.47955
G0 X116.359 Y96.56
G0 F3600 X115.832 Y95.878
G0 X114.918 Y95.12
G1 F1800 X114.749 Y94.95 E34.49151
G0 F3600 X114.915 Y94.55
G1 F1800 X118.316 Y97.951 E34.73146
G0 X118.386 Y98.021
G0 F3600 X118.482 Y97.551
G1 F1800 X115.08 Y94.15 E34.97146
G0 X115.01 Y94.08
G0 F3600 X115.246 Y93.75
G1 F1800 X118.647 Y97.151 E35.21142
G0 X118.717 Y97.221
G0 F3600 X118.813 Y96.752
G1 F1800 X115.412 Y93.35 E35.45141
G0 X115.342 Y93.28
G0 F3600 X115.578 Y92.95
G1 F1800 X118.979 Y96.351 E35.69137
G0 X119.049 Y96.421
G0 F3600 X119.144 Y95.951
G1 F1800 X115.645 Y92.452 E35.93824
G0 X115.575 Y92.382
G0 F3600 X115.711 Y91.952
G1 F1800 X119.31 Y95.551 E36.19217
G0 X119.38 Y95.621
G0 F3600 X119.476 Y95.151
G1 F1800 X115.776 Y91.452 E36.45319
