;FLAVOR:RepRap
;TIME:690
;Filament used: 0.708267m
;Layer height: 0.2
;Generated with Cura_SteamEngine master
M190 S60
M104 S215
M109 S215
G21 ;metric values
G90 ;absolute positioning
M82 ;set extruder to absolute mode
M107 ;start with the fan off
G28 X0 Y0 ;move X/Y to min endstops
G28 Z0 ;move Z to min endstops
G1 Z15.0 F9000 ;move the platform down 15mm
G92 E0 ;zero the extruded length
G1 F200 E3 ;extrude 3mm of feed stock
G92 E0 ;zero the extruded length again
G1 F9000
;Put printing message on LCD screen
M117 Printing...
;LAYER_COUNT:25
;LAYER:0
M107
G1 F1500 E-1
G0 F3600 X86.001 Y74.764 Z0.3
;TYPE:WALL-OUTER
G1 F1500 E0
G1 F1800 X90.102 Y71.617 E0.2579
G1 X94.879 Y69.638 E0.51587
G1 X100 Y68.964 E0.77356
G1 X105.121 Y69.638 E1.03125
G1 X109.899 Y71.617 E1.28926
G1 X113.999 Y74.764 E1.54712
G1 X117.145 Y78.864 E1.80495
G1 X119.124 Y83.642 E2.06296
G1 X119.799 Y88.763 E2.32066
G1 X119.124 Y93.884 E2.57836
G1 X117.145 Y98.662 E2.83637
G1 X113.999 Y102.761 E3.09416
G1 X109.899 Y105.907 E3.35199
G1 X105.121 Y107.886 E3.61
G1 X100 Y108.561 E3.8677
G1 X94.879 Y107.886 E4.1254
G1 X90.101 Y105.907 E4.38341
G1 X86.001 Y102.761 E4.64124
G1 X82.855 Y98.662 E4.89903
G1 X80.876 Y93.884 E5.15704
G1 X80.201 Y88.763 E5.41474
G1 X80.876 Y83.642 E5.67243
G1 X82.855 Y78.864 E5.93045
G1 X86.001 Y74.764 E6.18828
G0 F3600 X86.159 Y74.643
G0 X86.218 Y74.722
G0 X86.144 Y78.961
G0 X86.144 Y79.061
G1 F1800 X85.704 Y79.119 E6.21042
G1 X85.293 Y79.289 E6.23261
G1 X84.94 Y79.559 E6.25478
G1 X84.67 Y79.912 E6.27695
G1 X84.5 Y80.323 E6.29914
G1 X84.442 Y80.763 E6.32128
G1 X84.5 Y81.203 E6.34342
G1 X84.67 Y81.614 E6.36561
G1 X84.94 Y81.967 E6.38779
G1 X85.283 Y82.229 E6.40932
G1 X86.179 Y82.746 E6.46093
G1 X85.317 Y84.829 E6.5734
G1 X85.023 Y87.063 E6.68581
G1 X83.988 Y87.063 E6.73745
G1 X83.56 Y87.119 E6.75898
G1 X83.15 Y87.29 E6.78115
G1 X82.791 Y87.568 E6.8038
G1 X82.521 Y87.923 E6.82605
G1 X82.356 Y88.334 E6.84815
G1 X82.3 Y88.773 E6.87023
G1 X82.355 Y89.197 E6.89156
G1 X82.523 Y89.607 E6.91366
G1 X82.793 Y89.961 E6.93587
G1 X83.149 Y90.237 E6.95835
G1 X83.56 Y90.407 E6.98054
G1 X83.987 Y90.463 E7.00202
G1 X85.023 Y90.463 E7.05371
G1 X85.317 Y92.697 E7.16613
G1 X86.179 Y94.78 E7.27859
G1 X85.283 Y95.297 E7.3302
G1 X84.94 Y95.559 E7.35174
G1 X84.67 Y95.912 E7.37391
G1 X84.5 Y96.323 E7.3961
G1 X84.442 Y96.763 E7.41824
G1 X84.5 Y97.204 E7.44043
G1 X84.677 Y97.623 E7.46312
G1 X84.949 Y97.974 E7.48528
G1 X85.304 Y98.241 E7.50744
G1 X85.698 Y98.404 E7.52871
G1 X86.125 Y98.462 E7.55021
G1 X86.565 Y98.411 E7.57231
G1 X86.967 Y98.249 E7.59393
G1 X87.879 Y97.724 E7.64643
G1 X89.251 Y99.513 E7.75891
G1 X91.039 Y100.883 E7.87129
G1 X90.521 Y101.78 E7.92297
G1 X90.357 Y102.178 E7.94444
G1 X90.298 Y102.619 E7.96664
G1 X90.362 Y103.071 E7.98942
G1 X90.533 Y103.478 E8.01144
G1 X90.806 Y103.829 E8.03363
G1 X91.16 Y104.096 E8.05575
G1 X91.571 Y104.263 E8.07788
G1 X92.01 Y104.319 E8.09996
G1 X92.435 Y104.264 E8.12134
G1 X92.835 Y104.099 E8.14293
G1 X93.19 Y103.834 E8.16503
G1 X93.48 Y103.457 E8.18876
G1 X93.983 Y102.583 E8.23907
G1 X96.066 Y103.446 E8.35155
G1 X98.3 Y103.739 E8.46396
G1 X98.3 Y104.775 E8.51565
G1 X98.357 Y105.202 E8.53714
G1 X98.526 Y105.613 E8.55931
G1 X98.797 Y105.966 E8.58152
G1 X99.149 Y106.236 E8.60365
G1 X99.56 Y106.406 E8.62584
G1 X100 Y106.464 E8.64798
G1 X100.44 Y106.406 E8.67012
G1 X100.85 Y106.236 E8.69226
G1 X101.203 Y105.966 E8.71444
G1 X101.474 Y105.613 E8.73664
G1 X101.643 Y105.202 E8.75881
G1 X101.7 Y104.775 E8.7803
G1 X101.7 Y103.739 E8.83199
G1 X103.934 Y103.446 E8.9444
G1 X106.017 Y102.583 E9.05688
G1 X106.533 Y103.479 E9.10847
G1 X106.796 Y103.822 E9.13003
G1 X107.148 Y104.092 E9.15217
G1 X107.559 Y104.262 E9.17436
G1 X107.999 Y104.32 E9.1965
G1 X108.44 Y104.262 E9.21869
G1 X108.85 Y104.092 E9.24083
G1 X109.203 Y103.822 E9.263
G1 X109.474 Y103.469 E9.28521
G1 X109.643 Y103.059 E9.30733
G1 X109.701 Y102.618 E9.32952
G1 X109.643 Y102.178 E9.35166
G1 X109.479 Y101.78 E9.37314
G1 X108.961 Y100.883 E9.42482
G1 X110.749 Y99.513 E9.5372
G1 X112.121 Y97.724 E9.64967
G1 X113.017 Y98.242 E9.70131
G1 X113.416 Y98.407 E9.72285
G1 X113.856 Y98.465 E9.74499
G1 X114.296 Y98.407 E9.76713
G1 X114.707 Y98.237 E9.78932
G1 X115.06 Y97.967 E9.81149
G1 X115.33 Y97.614 E9.83367
G1 X115.5 Y97.203 E9.85586
G1 X115.558 Y96.763 E9.878
G1 X115.5 Y96.323 E9.90014
G1 X115.33 Y95.912 E9.92233
G1 X115.06 Y95.559 E9.9445
G1 X114.717 Y95.297 E9.96604
G1 X113.821 Y94.78 E10.01764
G1 X114.683 Y92.697 E10.13011
G1 X114.977 Y90.463 E10.24253
G1 X116.012 Y90.463 E10.29416
G1 X116.44 Y90.407 E10.3157
G1 X116.85 Y90.237 E10.33784
G1 X117.203 Y89.967 E10.36002
G1 X117.474 Y89.614 E10.38222
G1 X117.643 Y89.203 E10.40439
G1 X117.701 Y88.763 E10.42653
G1 X117.643 Y88.323 E10.44867
G1 X117.474 Y87.912 E10.47084
G1 X117.203 Y87.559 E10.49305
G1 X116.851 Y87.289 E10.51518
G1 X116.44 Y87.119 E10.53737
G1 X116.013 Y87.063 E10.55885
G1 X114.977 Y87.063 E10.61054
G1 X114.683 Y84.829 E10.72296
G1 X113.821 Y82.746 E10.83542
G1 X114.717 Y82.229 E10.88703
G1 X115.06 Y81.967 E10.90857
G1 X115.33 Y81.614 E10.93074
G1 X115.5 Y81.203 E10.95293
G1 X115.558 Y80.763 E10.97507
G1 X115.5 Y80.323 E10.99721
G1 X115.33 Y79.912 E11.0194
G1 X115.059 Y79.559 E11.0416
G1 X114.696 Y79.285 E11.06429
G1 X114.302 Y79.122 E11.08557
G1 X113.875 Y79.064 E11.10706
G1 X113.435 Y79.115 E11.12916
G1 X113.033 Y79.277 E11.15079
G1 X112.121 Y79.802 E11.20329
G1 X110.749 Y78.013 E11.31577
G1 X108.961 Y76.642 E11.42817
G1 X109.479 Y75.745 E11.47985
G1 X109.643 Y75.347 E11.50133
G1 X109.702 Y74.907 E11.52348
G1 X109.643 Y74.466 E11.54567
G1 X109.474 Y74.056 E11.5678
G1 X109.203 Y73.703 E11.59
G1 X108.851 Y73.432 E11.61216
G1 X108.44 Y73.263 E11.63433
G1 X108 Y73.205 E11.65648
G1 X107.559 Y73.263 E11.67867
G1 X107.149 Y73.432 E11.70079
G1 X106.796 Y73.703 E11.72299
G1 X106.533 Y74.046 E11.74456
G1 X106.017 Y74.942 E11.79614
G1 X103.934 Y74.079 E11.90863
G1 X101.7 Y73.785 E12.02105
G1 X101.7 Y72.75 E12.07268
G1 X101.643 Y72.323 E12.09417
G1 X101.474 Y71.912 E12.11634
G1 X101.203 Y71.559 E12.13855
G1 X100.851 Y71.289 E12.16068
G1 X100.44 Y71.119 E12.18287
G1 X100 Y71.061 E12.20501
G1 X99.56 Y71.119 E12.22715
G1 X99.15 Y71.289 E12.2493
G1 X98.797 Y71.559 E12.27147
G1 X98.526 Y71.912 E12.29367
G1 X98.357 Y72.323 E12.31584
G1 X98.301 Y72.75 E12.33733
G1 X98.301 Y73.785 E12.38896
G1 X96.066 Y74.079 E12.50143
G1 X93.983 Y74.942 E12.61392
G1 X93.467 Y74.046 E12.6655
G1 X93.204 Y73.703 E12.68706
G1 X92.852 Y73.432 E12.70923
G1 X92.441 Y73.263 E12.7314
G1 X92.001 Y73.205 E12.75354
G1 X91.56 Y73.263 E12.77573
G1 X91.15 Y73.432 E12.79786
G1 X90.797 Y73.703 E12.82006
G1 X90.526 Y74.056 E12.84226
G1 X90.357 Y74.466 E12.86438
G1 X90.299 Y74.907 E12.88658
G1 X90.357 Y75.347 E12.90872
G1 X90.521 Y75.745 E12.93019
G1 X91.039 Y76.642 E12.98187
G1 X89.251 Y78.013 E13.09428
G1 X87.879 Y79.802 E13.20676
G1 X86.983 Y79.284 E13.25839
G1 X86.584 Y79.119 E13.27993
G1 X86.144 Y79.061 E13.30208
G0 F3600 X85.946 Y79.087
G0 X85.722 Y78.934
;TYPE:SKIN
G1 F1800 X84.197 Y77.409 E13.40967
G0 X84.127 Y77.339
G0 F3600 X84.443 Y77.089
G1 F1800 X86.245 Y78.891 E13.53681
G0 X86.315 Y78.961
G0 F3600 X87.025 Y79.106
G1 F1800 X84.688 Y76.769 E13.7017
G0 X84.618 Y76.699
G0 F3600 X84.934 Y76.448
G1 F1800 X87.927 Y79.442 E13.91291
G0 X87.997 Y79.512
G0 F3600 X88.172 Y79.121
G1 F1800 X85.18 Y76.129 E14.12401
G0 X85.11 Y76.059
G0 F3600 X85.425 Y75.808
G1 F1800 X88.418 Y78.802 E14.33522
G0 X88.488 Y78.872
G0 F3600 X88.664 Y78.481
G1 F1800 X85.671 Y75.489 E14.54636
G0 X85.601 Y75.419
G0 F3600 X85.917 Y75.168
G1 F1800 X88.909 Y78.161 E14.75749
G0 X88.979 Y78.231
G0 F3600 X89.164 Y77.851
G1 F1800 X86.173 Y74.859 E14.96856
G0 X86.103 Y74.789
G0 F3600 X86.493 Y74.613
G1 F1800 X89.484 Y77.604 E15.17959
G0 X89.554 Y77.674
G0 F3600 X89.804 Y77.359
G1 F1800 X86.813 Y74.368 E15.39062
G0 X86.743 Y74.298
G0 F3600 X87.133 Y74.123
G1 F1800 X90.125 Y77.114 E15.60169
G0 X90.195 Y77.184
G0 F3600 X90.445 Y76.868
G1 F1800 X87.453 Y73.877 E15.81275
G0 X87.383 Y73.807
G0 F3600 X87.773 Y73.631
G1 F1800 X90.764 Y76.622 E16.02379
G0 X90.834 Y76.692
G0 F3600 X90.826 Y76.68
G0 X90.236 Y75.528
G1 F1800 X88.093 Y73.385 E16.17499
G0 X88.023 Y73.315
G0 F3600 X88.413 Y73.14
G1 F1800 X90.124 Y74.85 E16.29567
G0 X90.194 Y74.92
G0 F3600 X90.203 Y74.364
G1 F1800 X88.734 Y72.894 E16.39935
G0 X88.664 Y72.824
G0 F3600 X89.053 Y72.648
G1 F1800 X90.368 Y73.964 E16.49217
G0 X90.438 Y74.034
G0 F3600 X90.614 Y73.643
G1 F1800 X89.374 Y72.403 E16.57966
G0 X89.304 Y72.333
G0 F3600 X89.694 Y72.158
G1 F1800 X90.917 Y73.381 E16.66595
G0 X90.987 Y73.451
G0 F3600 X91.283 Y73.181
G1 F1800 X90.013 Y71.912 E16.75552
G0 X89.943 Y71.842
G0 F3600 X90.369 Y71.702
G1 F1800 X91.726 Y73.058 E16.85122
G0 X91.796 Y73.128
G0 F3600 X92.295 Y73.061
G1 F1800 X90.769 Y71.536 E16.95886
G0 X90.699 Y71.466
G0 F3600 X91.169 Y71.37
G1 F1800 X94.38 Y74.581 E17.18541
G0 X94.45 Y74.651
G0 F3600 X94.78 Y74.415
G1 F1800 X91.569 Y71.204 E17.41196
G0 X91.499 Y71.134
G0 F3600 X91.969 Y71.039
G1 F1800 X95.18 Y74.249 E17.63848
G0 X95.25 Y74.319
G0 F3600 X95.58 Y74.084
G1 F1800 X92.369 Y70.873 E17.86503
G0 X92.299 Y70.803
G0 F3600 X92.769 Y70.707
G1 F1800 X95.98 Y73.918 E18.09159
G0 X96.05 Y73.988
G0 F3600 X96.471 Y73.843
G1 F1800 X93.169 Y70.542 E18.32453
G0 X93.099 Y70.472
G0 F3600 X93.57 Y70.376
G1 F1800 X96.971 Y73.778 E18.56452
G0 X97.041 Y73.848
G0 F3600 X97.471 Y73.712
G1 F1800 X93.969 Y70.21 E18.81161
G0 X93.899 Y70.14
G0 F3600 X94.369 Y70.045
G1 F1800 X97.971 Y73.646 E19.06571
G0 X98.041 Y73.716
G0 F3600 X98.12 Y73.23
G1 F1800 X94.769 Y69.879 E19.30214
G0 X94.699 Y69.809
G0 F3600 X95.229 Y69.773
G1 F1800 X98.129 Y72.673 E19.50675
G0 X98.199 Y72.743
G0 F3600 X98.215 Y72.193
G1 F1800 X95.729 Y69.708 E19.68212
G0 X95.659 Y69.638
G0 F3600 X96.229 Y69.642
G1 F1800 X98.385 Y71.798 E19.83424
G0 X98.455 Y71.868
G0 F3600 X98.63 Y71.477
G1 F1800 X96.729 Y69.576 E19.96836
G0 X96.659 Y69.506
G0 F3600 X97.229 Y69.51
G1 F1800 X98.939 Y71.221 E20.08905
G0 X99.009 Y71.291
G0 F3600 X99.31 Y71.026
G1 F1800 X97.729 Y69.444 E20.20063
G0 X97.659 Y69.374
G0 F3600 X98.228 Y69.378
G1 F1800 X99.76 Y70.91 E20.30872
G0 X99.83 Y70.98
G0 F3600 X100.339 Y70.924
G1 F1800 X98.728 Y69.312 E20.42242
G0 X98.658 Y69.242
G0 F3600 X99.228 Y69.246
G1 F1800 X103.87 Y73.889 E20.74997
G0 X103.94 Y73.959
G0 F3600 X103.219 Y73.803
G1 F1800 X101.836 Y72.42 E20.84755
G0 X101.766 Y72.35
G0 F3600 X101.879 Y73.029
G1 F1800 X102.567 Y73.718 E20.89613
G0 X102.637 Y73.788
G0 F3600 X104.781 Y74.234
G1 F1800 X99.728 Y69.181 E21.25265
G0 X99.658 Y69.111
G0 F3600 X100.297 Y69.184
G1 F1800 X105.747 Y74.634 E21.63717
G0 X105.817 Y74.704
G0 F3600 X106.106 Y74.427
G1 F1800 X100.948 Y69.27 E22.00106
G0 X100.878 Y69.2
G0 F3600 X101.599 Y69.355
G1 F1800 X106.312 Y74.068 E22.33359
G0 X106.382 Y74.138
G0 F3600 X106.544 Y73.734
G1 F1800 X102.251 Y69.442 E22.63645
G0 X102.181 Y69.372
G0 F3600 X102.903 Y69.527
G1 F1800 X106.826 Y73.45 E22.91324
G0 X106.896 Y73.52
G0 F3600 X107.169 Y73.227
G1 F1800 X103.554 Y69.613 E23.16826
G0 X103.484 Y69.543
G0 F3600 X104.206 Y69.699
G1 F1800 X107.584 Y73.077 E23.4066
G0 X107.654 Y73.147
G0 F3600 X108.109 Y73.037
G1 F1800 X104.857 Y69.785 E23.63604
G0 X104.787 Y69.715
G0 F3600 X105.72 Y70.082
G1 F1800 X108.892 Y73.254 E23.85985
G0 X108.962 Y73.324
G0 F3600 X109.65 Y74.012
G1 F1800 X114.75 Y79.112 E24.21968
G0 X114.82 Y79.182
G0 F3600 X113.966 Y78.894
G1 F1800 X109.867 Y74.794 E24.50892
G0 X109.797 Y74.724
G0 F3600 X109.827 Y75.321
G1 F1800 X113.439 Y78.932 E24.76373
G0 X113.509 Y79.002
G0 F3600 X113.026 Y79.085
G1 F1800 X109.676 Y75.735 E25.00009
G0 X109.606 Y75.665
G0 F3600 X109.478 Y76.103
G1 F1800 X112.659 Y79.283 E25.22449
G0 X112.729 Y79.353
G0 F3600 X112.299 Y79.49
G1 F1800 X111.482 Y78.672 E25.28217
G0 X111.412 Y78.602
G0 F3600 X110.09 Y77.28
G1 F1800 X109.272 Y76.462 E25.33989
G0 X109.202 Y76.392
G0 F3600 X109.215 Y76.4
G0 X111.676 Y73.21
G1 F1800 X115.549 Y77.082 E25.61311
G0 X115.619 Y77.152
G0 F3600 X117.078 Y79.177
G1 F1800 X109.583 Y71.682 E26.14192
G0 X109.513 Y71.612
G0 F3600 X108.617 Y71.282
G1 F1800 X117.478 Y80.142 E26.76708
G0 X117.548 Y80.212
G0 F3600 X117.878 Y81.108
G1 F1800 X107.651 Y70.881 E27.48865
G0 X107.581 Y70.811
G0 F3600 X106.686 Y70.482
G1 F1800 X118.278 Y82.074 E28.30653
G0 X118.348 Y82.144
G0 F3600 X118.678 Y83.04
G1 F1800 X115.506 Y79.868 E28.53033
G0 X115.436 Y79.798
G0 F3600 X115.724 Y80.651
G1 F1800 X118.976 Y83.903 E28.75978
G0 X119.046 Y83.973
G0 F3600 X119.062 Y84.555
G1 F1800 X115.684 Y81.177 E28.99811
G0 X115.614 Y81.107
G0 F3600 X115.533 Y81.592
G1 F1800 X119.148 Y85.207 E29.25317
G0 X119.218 Y85.277
G0 F3600 X119.234 Y85.859
G1 F1800 X115.31 Y81.935 E29.53003
G0 X115.24 Y81.865
G0 F3600 X115.027 Y82.218
G1 F1800 X119.32 Y86.51 E29.83289
G0 X119.39 Y86.58
G0 F3600 X119.406 Y87.162
G1 F1800 X114.694 Y82.45 E30.16535
G0 X114.624 Y82.38
G0 F3600 X114.335 Y82.657
G1 F1800 X119.491 Y87.813 E30.52913
G0 X119.561 Y87.883
G0 F3600 X119.578 Y88.465
G1 F1800 X114.127 Y83.014 E30.91373
G0 X114.057 Y82.944
G0 F3600 X114.525 Y83.978
G1 F1800 X119.581 Y89.034 E31.27046
G0 X119.651 Y89.104
G0 F3600 X119.515 Y89.534
G1 F1800 X114.871 Y84.89 E31.59811
G0 X114.801 Y84.82
G0 F3600 X114.957 Y85.541
G1 F1800 X116.339 Y86.923 E31.69562
G0 X116.409 Y86.993
G0 F3600 X115.732 Y86.882
G1 F1800 X115.042 Y86.192 E31.74431
G0 X114.972 Y86.122
G0 F3600 X116.87 Y87.255
G0 X117.231 Y87.531
G0 X117.836 Y88.42
G1 F1800 X119.449 Y90.033 E31.85811
G0 X119.519 Y90.103
G0 F3600 X119.383 Y90.533
G1 F1800 X117.849 Y88.999 E31.96634
G0 X117.779 Y88.929
G0 F3600 X117.735 Y89.451
G1 F1800 X119.317 Y91.033 E32.07796
G0 X119.387 Y91.103
G0 F3600 X119.252 Y91.533
G1 F1800 X117.54 Y89.821 E32.19875
G0 X117.47 Y89.751
G0 F3600 X117.284 Y90.132
G1 F1800 X119.186 Y92.033 E32.33291
G0 X119.256 Y92.103
G0 F3600 X119.119 Y92.532
G1 F1800 X116.963 Y90.376 E32.48503
G0 X116.893 Y90.306
G0 F3600 X116.57 Y90.548
G1 F1800 X119.054 Y93.032 E32.66029
G0 X119.124 Y93.102
G0 F3600 X118.988 Y93.532
G1 F1800 X116.09 Y90.634 E32.86476
G0 X116.02 Y90.564
G0 F3600 X115.533 Y90.643
G1 F1800 X118.883 Y93.992 E33.10109
G0 X118.953 Y94.062
G0 F3600 X118.717 Y94.393
G1 F1800 X115.113 Y90.788 E33.3554
G0 X115.043 Y90.718
G0 F3600 X115.048 Y91.289
G1 F1800 X118.551 Y94.792 E33.60256
G0 X118.621 Y94.862
G0 F3600 X118.385 Y95.192
G1 F1800 X114.982 Y91.789 E33.84266
G0 X114.912 Y91.719
G0 F3600 X114.916 Y92.289
G1 F1800 X118.22 Y95.593 E34.07577
G0 X118.29 Y95.663
G0 F3600 X118.055 Y95.993
G1 F1800 X114.842 Y92.78 E34.30247
G0 X114.772 Y92.71
G0 F3600 X114.677 Y93.181
G1 F1800 X117.888 Y96.392 E34.52902
G0 X117.958 Y96.462
G0 F3600 X117.723 Y96.793
G1 F1800 X114.511 Y93.581 E34.75565
G0 X114.441 Y93.511
G0 F3600 X114.345 Y93.98
G1 F1800 X117.557 Y97.193 E34.9823
G0 X117.627 Y97.263
G0 F3600 X117.391 Y97.592
G1 F1800 X114.18 Y94.381 E35.20886
G0 X114.11 Y94.311
G0 F3600 X114.12 Y94.317
G0 X115.364 Y95.893
G0 X115.699 Y96.466
G1 F1800 X117.226 Y97.992 E35.31656
G0 X117.296 Y98.062
G0 F3600 X117.06 Y98.393
G1 F1800 X115.703 Y97.035 E35.41234
G0 X115.633 Y96.965
G0 F3600 X115.58 Y97.478
G1 F1800 X116.85 Y98.748 E35.50195
G0 X116.92 Y98.818
G0 F3600 X116.604 Y99.068
G1 F1800 X115.38 Y97.843 E35.58834
G0 X115.31 Y97.773
G0 F3600 X115.119 Y98.149
G1 F1800 X116.359 Y99.388 E35.67579
G0 X116.429 Y99.458
G0 F3600 X116.114 Y99.709
G1 F1800 X114.798 Y98.393 E35.76864
G0 X114.728 Y98.323
G0 F3600 X114.399 Y98.56
G1 F1800 X115.867 Y100.028 E35.87222
G0 X115.937 Y100.098
G0 F3600 X115.622 Y100.349
G1 F1800 X113.913 Y98.639 E35.99283
G0 X113.843 Y98.569
G0 F3600 X113.236 Y98.528
G1 F1800 X115.377 Y100.669 E36.14389
G0 X115.447 Y100.739
G0 F3600 X115.131 Y100.988
G1 F1800 X112.138 Y97.996 E36.35503
G0 X112.068 Y97.926
G0 F3600 X111.893 Y98.316
G1 F1800 X114.885 Y101.309 E36.56617
G0 X114.955 Y101.379
G0 F3600 X114.639 Y101.628
G1 F1800 X111.647 Y98.637 E36.77723
G0 X111.577 Y98.567
G0 F3600 X111.401 Y98.956
G1 F1800 X114.394 Y101.949 E36.98841
G0 X114.464 Y102.019
G0 F3600 X114.148 Y102.269
G1 F1800 X111.156 Y99.277 E37.19951
G0 X111.086 Y99.207
G0 F3600 X110.911 Y99.597
